/* XPM */
static char *d14ec49b3c2b4c3192e2a345181f7b36[] = {
/* columns rows colors chars-per-pixel */
"63 63 13 1 ",
"  c #2F8136",
". c #308236",
"X c #338435",
"o c #348435",
"O c #388734",
"+ c #3E8B33",
"@ c #3F8C33",
"# c #3A8834",
"$ c #3C8934",
"% c #428E32",
"& c #448F32",
"* c #479131",
"= c #489231",
/* pixels */
"  +                    +                   +                   ",
"  +&                   =                   +%                  ",
"O=.%..               *oO .               O=.%..               *",
" =#.*o     %         o= %+     .%         =#.=o     ..        o",
" $oo+   +.o=         .+ =o  o+ +=         +oo+   o+ +o        .",
"        Xo#*      .          * =*     .           * =X     .   ",
"%         .       * #+         o      ++ %          o      * #+",
"#   o       o     o &    .       o     +&#   o        o    o.& ",
"    %. .    +. .    O    # .     +. .   %    &. .     @ .    O ",
"    o+%#    o&++         %.*     o&++        o+%=     + *      ",
"   %# =o    *o+        o=.o%     *o+        %# =%    +% o      ",
"   X* *     +%          *Ooo     +%         o* *X     *        ",
"                                                               ",
"  %                 . o+                o  %                 . ",
"* =       +         *%&+      +         &* =       +        .*%",
"=.+       * #       %&&o      ++ #      o= +       ++ #      %%",
"          % &                 #+ &                 #+&#        ",
"    %       .            O       .           %       .         ",
"   o+                   =o                  o+                 ",
"   .X                   %                   ..                 ",
"                                                               ",
"                                                               ",
"  .                    .                   .                   ",
"  +                    +                   +                   ",
"  +&                   =                   +%                  ",
"O=.%..               *oO .               O=.%..               *",
".=O.%+               o*. *               .=O.%+               o",
" $oo+   +.o=         .+ =o  o+ +=         +oo+   o+ +o        .",
"        Xo#*      .          * =*     .           * =X     .   ",
"%         .       * #+         o      ++ %          o      * #+",
"&                 % &#                o&#&                 % &#",
"    %. .    +. .    O    # .     +. .   %    &. .     @ .   .O ",
"    o+%#    o&++         %.*     o&++        o+%=     + *      ",
"   %# =o    *o+        o=.o%     *o+        %# =%    +% o      ",
"   X* *     +%          *Ooo     +%         o* *X     *        ",
"                                                               ",
"  %                 . o+                o  %                 . ",
"* =       +         *%&+      +         &* =       +        .*%",
"=.+       * #       %&&o      ++ #      o= +       ++ #      %%",
"          % &                 #+ &                 #+&#        ",
"    %       .            O       .           %       .         ",
"   .*                   %#                  .=                 ",
"   .X                   %                   ..                 ",
"                                                               ",
"                                                               ",
"                                                               ",
"  +                    +                   +                   ",
"  +&                   =                   +%                  ",
"O=.%..               *oO .               O=.%..               *",
".=O.%+               o*. *               .=O.%+               o",
" $oo+   +.o=         .+ =o  o+ +=         +oo+   o+ +o        .",
"        Xo#*      .          * =*     .           * =X     .   ",
"%         .       * #+         o      ++ %          o      * #+",
"&                 % &#                o&#&                 % &#",
"    %. .    +. .    O    # .     +. .   %    &. .     @ .    O ",
"    o+%#    o&++         %.*     o&++        o+%=     + *      ",
"   +.o=#    +#%o       o+oo=     +#&o       +.o==    #+ %      ",
"   X* *     +%          *Ooo     +%         o* *X     *        ",
"                                                               ",
"  %                 . o+                o  %                 . ",
". =       .         #.&+      .         &. =       .        .#.",
"=.+       * #       %&&o      ++ #      o= +       ++ #      %%",
"          % &                 #+ &                 #+&#        "
};
