/* XPM */
static char *cce11ede51764b1c86ab47c0675729d9[] = {
/* columns rows colors chars-per-pixel */
"128 128 250 2 ",
"   c #020101",
".  c #0A0303",
"X  c #0D0903",
"o  c #0C0A0A",
"O  c #06070A",
"+  c #130506",
"@  c #130B02",
"#  c #120D0D",
"$  c #1D090A",
"%  c #190906",
"&  c #191308",
"*  c #160C13",
"=  c #141213",
"-  c #1B1414",
";  c #1C1A1A",
":  c #191917",
">  c #081419",
",  c #210A0B",
"<  c #210E04",
"1  c #271703",
"2  c #381802",
"3  c #270C14",
"4  c #261919",
"5  c #331A1D",
"6  c #372703",
"7  c #302810",
"8  c #0D1923",
"9  c #331329",
"0  c #132B32",
"q  c #242223",
"w  c #2B2828",
"e  c #312D2D",
"r  c #392326",
"t  c #353333",
"y  c #3D3B3B",
"u  c #393636",
"i  c #2E2F2D",
"p  c #1D231D",
"a  c #441D03",
"s  c #521F00",
"d  c #472604",
"f  c #582903",
"g  c #493406",
"h  c #563C02",
"j  c #4B3C13",
"k  c #642D02",
"l  c #6B3102",
"z  c #773702",
"x  c #772C00",
"c  c #43292C",
"v  c #482D31",
"b  c #47383A",
"n  c #56373A",
"m  c #522F32",
"M  c #4E233B",
"N  c #5B430A",
"B  c #684902",
"V  c #71530E",
"C  c #7E6115",
"Z  c #153B4A",
"A  c #3C0C40",
"S  c #46044F",
"D  c #4A1647",
"F  c #490652",
"G  c #540A5B",
"H  c #591A59",
"J  c #533B42",
"K  c #623E43",
"L  c #5B1164",
"P  c #641A6A",
"I  c #6A1B73",
"U  c #6F126F",
"Y  c #74217E",
"T  c #72267A",
"R  c #6F2575",
"E  c #5E2565",
"W  c #174558",
"Q  c #1C5B75",
"!  c #194F64",
"~  c #1E627E",
"^  c #394F59",
"/  c #4C4A4A",
"(  c #464344",
")  c #514E4E",
"_  c #595657",
"`  c #53504C",
"'  c #6A4348",
"]  c #794D53",
"[  c #615E5E",
"{  c #764C51",
"}  c #696667",
"|  c #787676",
" . c #716E6E",
".. c #675B66",
"X. c #843C01",
"o. c #963900",
"O. c #A33E00",
"+. c #8B4101",
"@. c #924400",
"#. c #9B4901",
"$. c #8D5A07",
"%. c #A64C01",
"&. c #AD5101",
"*. c #B45401",
"=. c #BA5701",
"-. c #BB5801",
";. c #B84500",
":. c #966903",
">. c #876717",
",. c #96741B",
"<. c #92680A",
"1. c #AA780C",
"2. c #CA4B00",
"3. c #DC5100",
"4. c #D45200",
"5. c #CD5301",
"6. c #C96802",
"7. c #D16E03",
"8. c #E05300",
"9. c #84137B",
"0. c #86565B",
"q. c #8D5B61",
"w. c #935E64",
"e. c #986268",
"r. c #83797A",
"t. c #A2676E",
"y. c #A96D74",
"u. c #B6757C",
"i. c #AD7177",
"p. c #AA851F",
"a. c #AA851F",
"s. c #B68A0F",
"d. c #B48C20",
"f. c #988004",
"g. c #C98B03",
"h. c #D99803",
"j. c #CF8C08",
"k. c #E59C02",
"l. c #E78B02",
"z. c #EBA402",
"x. c #F4AA01",
"c. c #F9AD01",
"v. c #F1A602",
"b. c #F8B601",
"n. c #E4BB02",
"m. c #C99B21",
"M. c #D1AD13",
"N. c #F6CC00",
"B. c #F8C500",
"V. c #F7D400",
"C. c #F8D501",
"Z. c #F7D50A",
"A. c #EAC801",
"S. c #F8DB2F",
"D. c #F9E257",
"F. c #772381",
"G. c #792482",
"H. c #7B2A84",
"J. c #7E3187",
"K. c #1E6684",
"L. c #206C8B",
"P. c #237698",
"I. c #257EA2",
"U. c #437083",
"Y. c #911986",
"T. c #B11C99",
"R. c #83388B",
"E. c #8D218B",
"W. c #A92199",
"Q. c #BA26A2",
"!. c #BF1EA2",
"~. c #C61FA6",
"^. c #CB20A9",
"/. c #C826A9",
"(. c #CD39AF",
"). c #8C4893",
"_. c #925398",
"`. c #BD7A81",
"'. c #9D65A2",
"]. c #A774AC",
"[. c #986397",
"{. c #C37D85",
"}. c #D652B7",
"|. c #DD6BC2",
" X c #D95EC0",
".X c #2786AD",
"XX c #2887AE",
"oX c #2788AF",
"OX c #2888AF",
"+X c #2581A6",
"@X c #2889B1",
"#X c #4D9BBB",
"$X c #498EAA",
"%X c #45859F",
"&X c #888686",
"*X c #918E8E",
"=X c #999797",
"-X c #959092",
";X c #A19E9E",
":X c #B38EB6",
">X c #A5A2A3",
",X c #ADABAC",
"<X c #A9A7A7",
"1X c #B4B3B3",
"2X c #BCBABA",
"3X c #B9B7B7",
"4X c #B2AFB0",
"5X c #CA838B",
"6X c #D1868F",
"7X c #D58992",
"8X c #DB8D95",
"9X c #DC8D96",
"0X c #DF9098",
"qX c #E4939B",
"wX c #EA969F",
"eX c #E08F98",
"rX c #EB97A0",
"tX c #EE99A2",
"yX c #F09AA3",
"uX c #C0BEBF",
"iX c #DED398",
"pX c #BE9BC1",
"aX c #E38ACF",
"sX c #C6A7C9",
"dX c #CDB8CE",
"fX c #E0ACD6",
"gX c #C5C3C3",
"hX c #CDCBCB",
"jX c #C9C6C7",
"kX c #D4D3D3",
"lX c #DCDBDC",
"zX c #D8D7D7",
"xX c #D4C9D4",
"cX c #E0DFDF",
"vX c #E4D9E5",
"bX c #F1D1E9",
"nX c #E4E4E4",
"mX c #EDEDED",
"MX c #EAE5EA",
"NX c #F4E7EE",
"BX c #F1EDF1",
"VX c #F9EBF5",
"CX c #F6F6F6",
"ZX c #F4F4F4",
"AX c #F9F9F9",
"SX c #FEFEFE",
"DX c #FCFCFC",
"FX c #FAF6F8",
"GX c #F9F7EA",
"HX c #F0E6D3",
/* pixels */
"SXSXSXSXSXCXmXmXmXmXZXAXSXSXSXAXCXmXmXmXmXZXAXSXSXSXSXCXmXmXmXmXZXAXSXSXSXSXCXmXmXmXmXZXCXSXSXSXSXCXZXmXmXmXBXAXSXSXSXSXCXBXmXmXmXBXCXAXAXAXCXCXmXmXmXmXZXCXSXSXSXSXCXZXmXmXmXBXAXSXSXSXSXCXZXmXmXmXmXCXSXSXSXSXAXZXmXmXmXZXCXSXSXSXSXAXZXmXmXmXmXCXSXSXSXSXAXZX",
"SXSXSXSXSXCXmXmXmXmXZXAXSXSXSXAXCXmXmXmXmXZXAXSXSXSXSXCXmXmXmXmXZXAXSXSXSXSXCXmXmXmXmXZXCXSXSXSXSXCXZXmXmXMXMXMXMXnXnXlXkXjXuX3X1X,X,X>X=X-X-X=X,XhXnXmXZXZXMXhXjXlXmXmXmXmXmXBXAXSXSXSXSXCXZXmXmXmXmXCXSXSXSXSXAXZXmXmXmXmXCXSXSXSXSXAXZXmXmXmXmXCXSXSXSXSXAXZX",
"SXSXSXSXSXCXmXmXmXmXZXAXSXSXSXSXCXmXmXmXmXZXAXSXSXSXSXCXmXmXmXmXZXAXSXSXSXSXCXmXmXmXmXZXCXSXSXSXSXCXZXmXnX>X .) / ( u e w q ; : = = # # o o o o :  .jXmXCXkX&Xt ; u } -X2XzXMXBXCXSXSXSXSXCXZXmXmXmXmXCXSXSXSXSXAXZXmXmXmXZXCXSXSXSXSXAXZXmXmXmXmXCXSXSXSXSXAXZX",
"AXAXAXAXAXCXZXZXZXZXCXCXAXAXAXAXCXZXZXZXZXZXCXAXAXAXAXCXZXZXZXZXZXAXAXAXAXAXCXZXZXZXZXZXCXAXAXAXAXCXCXMXgX/ ; J &X&X[ w 1 1 6 g g h B B B h 6 . . _ 3XZXAX2X) =   . X # q / | <XkXmXCXAXAXCXZXZXZXZXZXCXAXAXAXAXCXZXZXZXZXZXCXAXAXAXAXCXCXZXZXZXZXCXAXAXAXAXCXCX",
"mXmXmXmXZXCXSXSXSXSXAXZXmXmXmXZXCXAXSXSXSXAXZXmXmXmXmXCXAXSXSXSXAXZXmXmXmXZXCXAXSXSXSXAXnXjX1XhXmXCXSXmX1Xu y >XMXAXnXiXm.M.n.z.z.v.v.x.x.v.:.6 X ) 1XCXSX4Xy o X 6 g 6 & X X = e _ &X3XzXmXCXAXSXSXAXCXZXmXmXmXZXAXSXSXSXAXCXmXmXmXmXZXAXSXSXSXAXCXZXmXmXmXZXAX",
"mXmXmXmXmXCXSXSXSXSXAXZXmXmXmXmXCXSXSXSXSXAXZXmXmXmXmXCXSXSXSXSXAXZXmXmXmXmXCXSXSXSXAXnX=Xb q | kXZXSXmX,Xy ) jXCXSXAXHXD.C.N.b.c.c.c.c.c.c.1.g X ( >XCXAX>Xe O 6 <.h.h.s.$.h 6 @ X o ; b  .>XhXMXAXAXCXmXmXmXmXZXAXSXSXSXAXCXmXmXmXmXZXAXSXSXSXSXCXmXmXmXmXZXAX",
"mXmXmXmXmXCXSXSXSXSXAXZXmXmXmXmXCXSXSXSXSXAXZXmXmXmXmXCXAXSXSXSXAXZXmXmXmXmXCXSXSXCXkX| w     / <XmXSXmX1Xy / dXZXSXAXHXD.C.V.b.b.c.c.c.c.c.1.h X u =XCXZX=X4   g 1.v.c.x.x.z.h.1.$.h 1 @ X # q [ <XZXZXmXmXmXmXZXAXSXSXSXAXCXmXmXmXmXZXAXSXSXSXAXCXmXmXmXmXZXAX",
"ZXZXZXZXZXCXAXAXAXAXCXCXZXZXZXCXCXCXAXAXAXCXZXZXZXZXZXCXAXAXAXAXCXCXZXZXZXZXCXCXMX,X) : . X   w r.nXSXmX3Xu e -XnXSXAXHXD.V.V.B.b.c.c.c.c.c.g.B X e &XmXnX&X: . h g.x.c.c.c.c.c.x.x.z.g.:.g .   ;  .lXCXCXZXZXZXCXCXAXAXAXCXCXZXZXZXZXCXCXAXAXCXCXCXZXZXZXZXCXCX",
"SXSXSXSXSXCXmXmXmXmXZXAXSXSXSXSXCXZXmXmXmXZXAXSXSXSXSXCXZXmXmXmXZXAXSXSXSXSXZXhX| e X 1 B $.6 4 _ hXZXnX1Xu # ` iXGXGXiXS.V.V.B.b.c.c.c.c.c.j.V @ q | nXkX| # @ B h.x.c.c.c.c.c.c.c.c.x.h.B X   t *XnXAXSXSXSXSXAXZXmXmXmXZXCXSXSXSXSXAXZXmXmXmXZXCXSXSXSXSXAXZX",
"SXSXSXSXSXCXmXmXmXmXZXAXSXSXSXSXCXmXmXmXmXZXAXSXSXSXSXCXmXmXmXmXZXAXSXSXSXMX1X) : X 6 :.h.h.B 1 t ,XnXMX3Xy X g m.D.D.S.Z.V.V.B.b.c.c.c.c.c.h.$.@ :  .zXjX .X 1 $.z.x.c.c.c.c.c.c.c.c.x.g.h   O _ 2XmXAXSXSXSXSXAXZXmXmXmXmXCXSXSXSXSXAXZXmXmXmXmXCXSXSXSXSXAXZX",
"SXSXSXSXSXCXmXmXmXmXZXAXSXSXSXSXCXZXmXmXmXZXAXSXSXSXSXCXmXmXmXmXZXAXSXCXkX&Xt o & N s.z.c.z.:.6 ; &XkXmX2X( X 6 s.V.C.V.C.C.C.N.b.c.c.c.c.c.k.:.& = } kX2X[ X 6 :.x.c.c.c.c.c.c.c.c.c.z.:.6   ; &XzXmXAXSXSXSXSXAXZXmXmXmXZXCXSXSXSXSXAXZXmXmXmXmXCXSXSXSXSXAXZX",
"CXCXCXCXCXCXCXCXCXCXCXCXCXCXCXCXCXCXCXCXCXCXCXCXCXCXCXCXCXCXCXCXCXCXnX4X) : X 6 $.j.x.c.c.x.s.h = _ gXZXgX( X 6 s.A.C.C.C.C.C.N.b.c.c.c.c.c.z.1.1 # _ jX,X) X g 1.c.c.c.c.c.c.c.c.c.c.h.N @ o ( ,XCXCXCXCXCXCXCXCXCXCXCXCXCXCXCXCXCXCXCXCXCXCXCXCXCXCXCXCXCXCXCX",
"mXmXmXmXmXCXSXSXSXSXAXZXmXmXmXmXCXAXSXSXSXAXZXmXmXmXmXCXAXSXSXSXZXjX| w o @ h 1.z.c.c.x.c.x.h.V & e >XmXjX/ . 1 f.A.C.C.V.V.V.V.B.c.c.c.c.c.x.s.6 X ; ) / q @ B g.c.c.c.c.c.c.c.c.c.z.1.6   ; | kXSXSXCXmXmXmXmXZXAXSXSXSXAXCXmXmXmXmXZXAXSXSXSXAXCXmXmXmXmXZXAX",
"mXmXmXmXmXCXSXSXSXSXAXZXmXmXmXmXCXSXSXSXSXAXZXmXmXmXmXCXAXSXSXmX3X/ = . 1 V j.x.c.c.c.c.c.c.x.:.6 #  .2X1X(   1 f.A.C.C.V.V.V.V.B.b.c.c.c.c.c.z.1.B 6 1 & @ 6 1.k.c.c.c.c.c.c.c.c.c.h.$.&   t ,XmXSXSXCXmXmXmXmXZXAXSXSXSXAXCXmXmXmXmXZXAXSXSXSXSXCXmXmXmXmXZXAX",
"mXmXmXmXmXCXSXSXSXSXAXZXmXmXmXmXCXAXSXSXSXAXZXmXmXmXmXCXSXSXSXgX_ = . 6 1.k.c.c.c.c.c.c.c.c.c.s.N X : e e # . 6 s.A.C.C.V.V.V.V.B.b.c.c.c.c.c.c.x.v.h.g.s.s.g.z.c.c.c.c.c.c.c.c.c.c.1.g X = _ kXAXSXSXCXmXmXmXmXZXAXSXSXSXAXCXmXmXmXmXZXAXSXSXSXAXCXmXmXmXmXZXAX",
"CXCXCXCXCXCXCXCXCXCXCXCXCXCXCXCXCXCXCXCXCXCXCXCXCXCXCXCXCXCXAXgX} = @ h j.x.c.c.c.c.c.c.c.c.c.h.$.& . . @ 6 B f.n.V.C.C.C.V.V.V.B.b.c.c.c.c.c.c.c.c.c.c.c.c.c.c.c.c.c.c.c.c.c.c.c.z.:.1   e &XnXAXCXCXCXCXCXCXCXCXCXCXCXCXCXCXCXCXCXCXCXCXCXCXCXCXCXCXCXCXCXCXCX",
"SXSXSXSXSXCXmXmXmXmXZXAXSXSXSXSXCXmXmXmXmXZXAXSXSXSXSXCXmXmXZXnX,Xy O 1 $.h.c.c.c.c.c.c.c.c.c.x.g.V h B 1.M.A.V.V.V.V.V.C.C.C.V.N.b.c.c.c.c.c.c.c.c.c.c.c.c.c.c.c.c.c.c.c.c.c.c.x.j.B .   ) 3XMXZXmXmXCXSXSXSXSXAXZXmXmXmXZXCXSXSXSXSXAXZXmXmXmXmXCXSXSXSXSXAXZX",
"SXSXSXSXSXCXmXmXmXmXZXAXSXSXSXAXCXmXmXmXmXZXAXSXSXSXSXCXmXmXmXZXlX&Xe . 6 :.v.c.c.c.c.c.c.c.c.c.x.v.z.v.b.B.V.V.V.C.V.V.C.C.V.V.N.b.b.c.c.c.c.c.c.c.c.c.c.c.c.c.c.c.c.c.c.c.c.c.x.1.g . ; | lXmXmXmXmXCXSXSXSXSXAXZXmXmXmXZXCXSXSXSXSXAXZXmXmXMXmXCXSXSXSXSXAXZX",
"SXSXSXSXSXCXmXmXmXmXZXAXSXSXSXAXCXZXmXmXmXZXAXSXSXSXSXCXZXmXmXZXmXkX .= . h 1.x.c.c.c.c.c.c.c.c.c.c.c.c.b.B.V.V.V.V.V.C.C.C.V.V.N.B.b.c.c.c.c.c.c.c.c.c.c.c.c.c.c.c.c.c.c.c.c.c.k.V 1 o ( >XBXmXmXmXZXCXSXSXSXSXAXZXmXmXmXZXCXAXSXSXSXAXZXmXmXmXZXCXAXSXSXSXAXZX",
"ZXZXZXZXZXCXAXAXAXAXCXCXZXZXZXZXCXAXAXAXAXCXCXZXZXZXZXCXAXAXAXAXAXZX4X) o @ B h.x.c.c.c.c.c.c.c.c.c.c.c.c.b.N.V.V.V.V.V.C.C.V.V.V.B.b.c.c.c.c.c.c.c.c.c.c.c.c.c.c.c.c.c.c.c.c.x.g.g . = | hXSXAXAXAXAXCXZXZXZXZXCXAXAXAXAXCXCXZXZXZXZXCXCXAXAXAXAXCXZXZXZXZXCXCX",
"mXmXmXmXmXCXSXSXSXSXAXZXmXmXmXmXCXAXSXSXSXAXZXmXmXmXmXCXAXSXSXSXAXCXlX=Xe   1 <.h.c.c.c.c.c.c.c.c.c.c.c.c.b.B.V.V.C.C.C.C.C.V.V.V.B.b.c.c.c.c.c.c.c.c.c.c.c.c.c.c.c.c.c.c.c.c.k.:.1   e >XnXSXSXSXSXSXCXmXmXmXmXZXAXSXSXSXAXZXmXmXmXmXZXAXSXSXSXAXCXmXmXmXmXZXAX",
"mXmXmXmXmXCXSXSXSXSXAXZXmXmXmXmXCXAXSXSXSXAXZXmXmXmXmXCXSXSXSXSXAXZXZXkX .q X g 1.x.c.c.c.c.c.c.c.c.c.c.c.b.B.V.V.V.C.C.C.C.V.V.V.N.b.c.c.c.c.c.c.c.c.c.c.c.c.c.c.c.c.c.c.c.c.j.B & = _ jXCXAXSXSXSXSXCXmXmXmXmXZXAXSXSXSXAXCXmXmXMXmXZXAXSXSXSXSXCXmXmXmXmXZXAX",
"mXmXmXmXZXCXAXSXSXAXAXZXmXmXmXZXCXAXSXSXSXAXZXZXmXmXmXCXAXSXAXSXAXZXZXMXgX_ o @ B g.c.c.c.c.c.c.c.c.c.c.c.c.b.N.V.V.C.C.C.C.V.V.V.N.b.c.c.c.c.c.c.c.c.c.c.c.c.c.c.c.c.c.c.c.x.1.g . t *XcXAXAXAXSXSXAXCXZXmXmXZXZXAXSXSXSXAXCXmXmXmXZXZXAXSXSXSXAXCXZXmXmXmXZXAX",
"AXAXAXAXAXCXZXZXZXZXZXCXAXAXAXAXCXZXZXZXZXZXAXAXAXAXAXCXZXZXmXZXZXAXAXAXCX>X( X 1 $.z.c.c.c.c.c.c.c.c.c.c.c.b.B.V.V.C.C.C.V.V.V.V.V.b.b.c.c.c.c.c.c.c.c.c.c.c.c.c.c.c.c.c.c.z.:.& X _ hXCXAXZXZXZXZXZXCXAXAXAXAXAXZXZXZXZXZXCXAXAXAXAXCXZXZXZXZXZXCXAXAXAXAXCXCX",
"SXSXSXSXSXCXmXmXmXmXZXAXSXSXSXSXCXmXmXmXmXZXAXSXSXSXSXCXmXmXmXmXZXAXSXSXSXnX-Xq . g s.z.c.x.c.c.c.c.c.c.c.c.b.B.V.V.C.C.C.V.V.V.V.V.B.b.c.c.c.c.c.c.c.c.c.c.c.c.c.c.c.c.c.c.g.B X w &XBXSXAXZXmXmXmXmXCXSXSXSXSXAXZXmXmXmXZXCXSXSXSXSXAXZXmXmXMXmXCXDXSXSXSXAXZX",
"SXSXSXSXSXCXmXmXmXmXZXAXSXSXSXSXCXmXmXmXmXZXAXSXSXSXSXCXmXmXmXmXZXAXSXSXSXSXhX} ; & B j.c.c.c.c.c.c.c.c.c.c.b.b.N.V.V.V.V.V.V.V.N.N.b.x.z.v.z.z.z.v.v.v.v.x.x.x.c.c.c.c.c.x.:.6 o _ 2XSXSXAXZXmXmXmXmXCXSXSXSXSXAXZXmXmXmXZXCXSXSXSXSXAXZXmXmXmXmXCXDXSXSXSXAXZX",
"AXAXAXAXAXCXZXZXZXZXZXCXAXAXAXAXCXZXZXZXZXZXAXAXAXAXAXCXZXZXZXZXZXCXAXAXAXSXmX2X/ o 1 :.h.c.c.c.c.c.c.c.x.x.c.b.B.N.A.n.n.h.j.g.7.7.6.6.6.6.6.6.6.6.6.6.7.7.7.j.k.z.x.c.x.k.B & ; *XcXSXSXCXZXZXmXmXZXCXAXAXAXAXCXZXZXZXZXZXCXAXAXAXAXCXZXZXZXZXZXCXAXAXAXAXCXCX",
"mXmXmXmXZXCXAXSXSXAXAXZXmXmXmXZXCXAXSXSXSXAXZXZXmXmXmXCXAXSXSXSXAXZXZXmXmXZXCXmX-Xu X g 1.x.c.c.c.c.c.c.x.x.v.k.h.g.6.6.5.5.4.4.4.3.3.3.3.3.3.3.3.3.3.3.3.3.4.4.5.6.7.l.k.g.g # ( 3XmXZXBXCXAXAXSXAXAXCXZXmXmXZXZXAXSXSXSXAXCXZXmXmXZXZXAXSXSXSXAXCXZXmXmXmXZXAX",
"mXmXmXmXmXCXSXSXSXSXAXZXmXmXmXmXCXSXSXSXSXAXZXmXmXmXmXCXSXSXSXSXAXZXmXmXmXmXCXAXzX&X; @ B g.x.c.c.c.c.x.k.j.6.5.5.4.3.3.3.3.3.3.3.3.3.3.3.3.3.3.3.3.3.3.3.3.3.3.3.3.4.4.6.$.1 q [.kXZXmXmXCXAXSXSXSXSXCXmXmXmXmXZXAXSXSXSXAXCXmXmXmXmXZXAXSXSXSXSXCXmXmXmXmXZXAX",
"mXmXmXmXmXCXSXSXSXSXAXZXmXmXmXmXCXSXSXSXSXAXZXmXmXmXmXCXAXSXSXSXAXZXmXmXmXmXCXSXSXgX_ = 1 V h.c.c.x.k.l.6.5.4.3.3.3.3.3.3.3.3.3.3.3.3.3.3.3.3.3.3.3.3.3.3.3.3.3.3.3.3.8.;.f < / 2XnXZXmXmXCXAXSXSXSXSXCXmXmXmXmXZXAXSXSXSXAXCXmXmXmXmXZXAXSXSXSXAXCXmXmXmXmXZXAX",
"ZXZXZXZXZXCXAXAXAXAXCXCXZXZXZXZXCXCXAXAXAXCXCXZXZXZXZXCXAXAXAXAXAXCXZXZXZXZXCXAXSXMX4Xy X 6 1.z.x.l.7.5.4.3.3.3.3.3.3.3.3.3.3.3.3.3.3.3.3.3.3.3.3.3.3.3.3.3.3.3.3.3.3.4.o.2 e | nXZXZXZXZXCXAXAXAXAXAXCXZXZXZXZXCXCXAXAXAXAXCXZXZXZXZXCXCXAXAXAXAXCXZXZXZXZXCXCX",
"SXSXSXSXAXCXmXmXmXmXZXAXSXSXSXAXCXmXmXmXmXZXAXSXSXSXSXCXZXmXmXmXZXAXSXSXSXSXCXZXmXBXcX&Xt @ g 1.l.7.3.3.3.3.3.3.3.3.3.3.3.3.3.3.3.3.3.3.3.3.3.3.3.3.3.3.3.3.3.3.3.3.4.O.s @ _ 3XCXSXSXSXSXCXZXmXmXmXZXCXSXSXSXSXAXZXmXmXmXZXCXSXSXSXSXAXZXmXmXmXZXCXAXSXSXSXAXZX",
"SXSXSXSXSXCXmXmXmXmXZXAXSXSXSXSXCXmXmXmXmXZXAXSXSXSXSXCXmXmXmXmXZXAXSXSXSXSXCXmXmXmXmXzX&Xq @ f %.4.3.3.3.3.3.3.3.3.3.3.3.3.3.3.3.3.3.3.3.3.3.3.3.3.3.3.3.3.3.3.4.;.X.2 + q -XnXAXSXSXSXSXCXZXmXmXmXmXCXSXSXSXSXAXZXmXmXmXZXCXSXSXSXSXAXZXmXmXmXmXCXSXSXSXSXAXZX",
"SXSXSXSXSXCXmXmXmXmXZXAXSXSXSXSXCXmXmXmXmXZXAXSXSXSXSXCXmXmXmXmXZXAXSXSXSXSXCXmXmXmXmXZXkX&Xq @ a o.2.3.3.3.3.3.3.3.3.3.3.3.3.3.3.3.3.3.3.3.3.3.3.3.3.3.3.4.2.%.x 2 % # u &XhXZXAXSXSXSXSXCXZXmXmXmXmXCXSXSXSXSXAXmXmXmXmXZXCXSXSXSXSXAXZXmXmXmXmXCXSXSXSXSXAXZX",
"CXCXCXCXCXCXCXCXCXCXCXCXCXCXCXCXCXCXCXCXCXCXCXCXCXCXCXCXCXCXCXCXCXCXCXCXCXCXCXCXCXCXCXCXCXzX&Xu X < f o.;.4.3.3.3.3.3.3.3.3.3.3.3.3.3.3.3.3.3.3.4.4.2.;.o.l a < + 4 / *XjXMXZXCXCXCXCXCXCXCXCXCXCXCXCXCXCXCXCXCXCXCXCXCXCXCXCXCXCXCXCXCXCXCXCXCXCXCXCXCXCXCXCXCX",
"mXmXmXmXmXCXSXSXSXSXAXZXmXmXmXmXCXAXSXSXSXAXZXmXmXmXmXCXSXSXSXSXAXZXmXmXmXmXCXSXSXSXSXAXCXmXnX1X} q # @ 2 f X.O.;.2.2.2.2.2.2.2.2.2.2.;.;.O.o.X.k s 2 < # : e ) &X3XlXZXSXSXSXAXCXmXmXmXmXCXAXSXSXSXSXCXmXmXmXmXZXAXSXSXSXAXCXmXmXmXmXZXAXSXSXSXAXCXmXmXmXmXZXAX",
"mXmXmXmXmXCXSXSXSXSXAXZXmXmXmXmXCXSXSXSXSXAXZXmXmXmXmXCXSXSXSXSXAXZXmXmXmXmXCXSXSXSXSXAXZXmXmXmXlX3Xr./ q # # % < 1 2 a a a a a a 2 2 1 < $ # = 4 t / } *X4XhXcXMXmXCXAXSXSXSXAXZXmXmXmXmXCXAXSXSXSXSXCXmXmXmXmXZXAXSXSXSXAXCXmXmXmXmXZXAXSXSXSXSXCXmXmXmXmXZXAX",
"mXmXmXmXmXCXSXSXSXSXAXZXmXmXmXmXCXAXSXSXSXAXZXmXmXmXmXCXAXSXSXSXAXZXmXmXmXmXCXSXSXSXSXAXZXmXmXmXmXZXZXnXjX<X&X ._ / ( J y y b ( / ) _ } | &X=X,XjXzXMXZXCXZXmXmXmXmXCXAXSXSXSXAXCXmXmXmXmXCXAXSXSXSXSXCXmXmXmXmXZXAXSXSXSXAXCXmXmXmXmXZXAXSXSXSXAXCXmXmXmXmXZXAX",
"CXCXCXCXCXCXCXCXCXCXCXCXCXCXCXCXCXCXCXCXCXCXCXCXCXCXCXCXCXCXCXCXCXCXCXCXCXCXCXCXCXCXCXCXCXCXCXCXCXCXCXCXCXCXZXBXmXMXnXnXcXlXlXvXnXnXMXmXZXCXCXCXCXCXCXCXCXCXCXCXCXZXCXCXCXCXCXCXCXCXCXCXCXCXCXCXCXCXCXCXCXCXCXCXCXCXCXCXCXCXCXCXCXCXCXCXCXCXCXCXCXCXCXCXCXCXCXCX",
"SXSXSXSXSXCXmXmXmXmXZXAXSXSXSXSXCXZXmXmXmXZXAXSXSXSXSXCXmXmXmXmXZXAXSXSXSXSXCXmXmXmXmXZXCXSXSXSXSXCXZXmXmXmXZXAXSXSXSXDXCXZXmXmXmXmXZXCXCXZXmXnXzXkXhXjX2X2X1X<X=X=X<XhXMXmXmXZXCXSXSXSXSXCXZXmXmXmXmXCXSXSXSXSXAXZXmXmXmXZXCXSXSXSXSXAXZXmXmXmXmXCXSXSXSXSXAXZX",
"SXSXSXSXSXCXmXmXmXmXZXAXSXSXSXSXCXmXmXmXmXZXAXSXSXSXSXCXmXmXmXmXZXAXSXSXSXSXCXmXmXmXmXZXAXSXSXSXAXCXmXmXMXMXMXMXMXnXlXkXjX3X,X>X=X&X&X| } _ ) / y e q q ; = # # o o = [ 3XMXBXZXAXSXSXSXSXCXZXmXmXmXmXCXSXSXSXSXAXZXmXmXmXZXCXSXSXSXSXAXZXmXmXmXmXCXSXSXSXSXAXZX",
"SXSXSXSXSXCXmXmXmXmXZXAXSXSXSXAXCXZXmXmXmXZXAXSXSXSXSXCXmXmXmXmXZXAXSXSXSXAXCXmXmXmXmXZXAXCXnXhX2X>X-X&X| } _ ) ( u e q 4 : = o o o o o o o o o # * 4 4 r r v n c =   w | lXZXZXAXSXSXSXSXCXZXmXmXmXmXCXSXSXSXSXAXZXmXmXmXZXCXSXSXSXSXAXZXmXmXmXZXCXSXSXSXSXAXZX",
"ZXZXZXZXCXCXCXAXAXAXCXCXZXZXZXCXCXCXAXAXAXCXCXZXZXZXCXCXCXAXAXAXCXCXZXnXkXjXhXlXmXCXAXAXmXgX_ q = o o o o o o o o o # # - 4 5 r c m K ' ] 0.w.t.y.u.{.5X6X8X9XqXu.' # o / jXZXAXCXZXZXZXZXCXCXAXAXAXCXCXZXZXZXZXCXCXAXCXAXCXCXZXZXZXZXCXCXAXAXAXCXCXCXZXZXZXCXCX",
"mXmXmXmXmXCXSXSXSXSXAXZXmXmXmXmXCXSXSXSXSXAXZXmXmXmXmXCXAXSXSXSXAXnX<X[ w 4 q y &XjXAXSXjX .: . - 5 r v n K { ] q.e.y.u.`.{.6X7X8X0XqXqXwXwXwXwXwXwXwXwXwXwXwXrXqXu.c . q *XlXMX2X=X-X<XhXmXAXSXSXSXSXCXmXmXmXmXZXAXSXSXSXAXCXmXmXmXmXZXAXSXSXSXAXCXmXmXmXmXZXAX",
"mXmXmXmXmXCXSXSXSXSXAXZXmXmXmXmXCXSXSXSXSXAXZXmXmXmXmXCXSXSXSXSXmX=X( O       O b =XCXlX&X4 o m e.{.5X{.u.`.6XqXwXwXwXwXwXwXwXwXwXwXwXwXwXwXrXwX0Xu.w.0.q.e.u.6XqX8Xq.r o y | } q o o = ( =XnXAXSXSXSXCXmXmXmXmXZXAXSXSXSXAXCXmXmXmXmXZXAXSXSXSXSXCXmXmXmXmXZXAX",
"mXmXmXmXZXCXSXSXSXSXAXZXmXmXmXZXCXAXSXSXSXAXZXmXmXmXmXCXAXSXSXCXjX) o         . [ 3XzX| w   # r n n c 5 4 4 n u.qXtXwXwXrXrXrXrXrXwXwXwXwXwXtXeXy.c . . . o - r K q.y.' - O . .           ( =XBXSXSXAXCXZXmXmXmXZXAXSXSXSXAXCXmXmXmXmXZXAXSXSXSXAXCXZXmXmXmXZXAX",
"AXAXAXAXAXCXZXZXZXZXCXCXAXAXAXAXCXZXZXZXZXZXCXAXAXAXAXCXZXZXCXlX=Xw             t ` / ;         O           r w.8XyXwXwXrXrXrXrXrXrXrXrXwXwXtX9Xe.r               o 4 4 *                 ; } kXZXZXZXCXAXAXAXAXCXZXZXZXZXZXCXAXAXAXAXCXCXZXZXZXZXCXAXAXAXAXCXCX",
"SXSXSXSXSXCXmXmXmXmXZXAXSXSXSXSXCXmXmXmXmXZXAXSXSXSXSXCXmXmXZXhX| ;               O                         r t.0XtXwXwXrXrXrXrXrXrXrXrXwXwXtX9Xe.r                                       o ( uXMXmXmXCXSXSXSXSXAXZXmXmXmXZXCXSXSXSXSXAXZXmXmXmXmXCXSXSXSXSXAXZX",
"SXSXSXSXSXCXmXmXmXmXZXAXSXSXSXSXCXmXmXmXmXZXAXSXSXSXSXCXmXmXCXjX .:                                       # K 5XqXtXwXwXwXwXwXwXwXwXwXwXwXwXtXeXy.c                                         u 4XnXZXmXCXSXSXSXSXAXmXmXmXmXZXCXSXSXSXSXAXZXmXmXmXmXCXSXSXSXSXAXZX",
"SXSXSXSXAXCXZXmXmXZXZXAXSXSXSXAXCXZXmXmXmXZXAXAXSXSXAXCXZXZXCXhX| ;                                 . . $ n t.qXrXrXwXwXwXwXwXwXwXwXwXwXwXwXtXqX6X] 5 $ + .                                 e <XnXZXZXCXAXSXSXAXAXZXmXmXmXZXCXAXDXAXAXAXZXmXmXmXZXCXAXSXSXAXCXZX",
"ZXZXZXZXZXCXAXAXAXAXAXCXZXZXmXZXCXAXSXAXAXAXZXZXmXZXZXCXAXAXSXcX-Xq                         . . + $ 3 r ' u.qXrXwXwXwXwXwXwXqXqXqXqXqXwXwXwXwXwXwX8Xy.' r 3 $ + + .                         t 1XmXSXAXCXZXZXZXZXZXAXAXAXSXAXCXZXBXmXZXCXAXAXAXAXAXCXZXmXZXZXZXCX",
"mXmXmXmXmXCXSXSXSXSXAXZXmXmXmXmXCXSXSXSXSXAXZXmXmXmXmXCXSXSXSXZX2X( $ . .     . . . + + $ , 5 c n ] t.{.9XwXrXwXwXwXwXrX8Xu.0.{ ' { 0.u.qXwXrXwXwXwXwX9X`.w.K r 3 $ $ + + .               o ( jXCXSXSXCXmXmXmXmXZXAXSXSXSXAXCXmXmXmXmXZXAXSXSXSXAXCXmXmXmXmXZXAX",
"mXmXmXmXmXCXSXSXSXSXAXZXmXmXmXmXCXSXSXSXSXAXZXmXmXmXmXCXSXSXSXSXMX*Xb 3 $ $ $ $ 3 5 c K ] e.u.6X9XqXwXrXwXwXwXwXwX0X7X9X8X5Xy.e.w.e.y.5XqXwXqX0XwXwXwXwXwXqX9X{.t.{ m 5 3 , $ % + + + + . 4 } cXSXSXSXCXmXmXmXmXZXAXSXSXSXAXCXmXmXmXmXZXAXSXSXSXAXCXmXmXmXmXZXAX",
"ZXZXZXZXZXCXAXAXAXAXAXCXZXZXZXZXCXAXAXAXAXAXCXZXZXZXZXCXAXAXAXAXCXMXjX*X/ = + r 0.{.7XqXqXwXwXwXwXwXwXwXwXwXrXwX7X0.K i.9XtXwXwXwXwXwXwXwXqXu.y.9XwXrXwXwXwXwXwXwXqX7X{.t.0.K c 5 , % + : } 2XZXSXAXAXCXZXZXZXZXCXAXAXAXAXAXCXZXZXZXZXCXCXAXAXAXAXCXZXZXZXZXCXCX",
"SXSXSXSXAXCXZXmXmXmXZXAXAXSXSXAXCXZXmXmXmXZXAXSXSXSXDXCXZXmXmXmXZXAXnX>Xt o 5 e.7XtXwXwXwXwXwXwXwXwXwXwXwXwXtXqXy.n v `.wXrXwXwXwXwXwXwXwXqXy.e.7XwXrXwXwXwXwXwXwXwXwXwXwXqXqX6Xy.m # # [ 2XBXmXmXmXZXCXAXSXSXSXAXZXmXmXmXZXCXSXSXSXSXAXZXmXmXmXZXCXAXSXSXSXAXZX",
"SXSXSXSXSXCXmXmXmXmXZXAXSXSXSXSXCXmXmXmXmXZXAXSXSXSXSXCXmXmXmXmXBXmX>Xb o 5 ] 7XrXqX0X7X8XqXwXrXwXwXwXrXwXwXtXqXy.n n 5XrXrXwXwXwXwXwXrXwXqXy.e.7XwXrXrXrXwXwXwXwXwXwXwXwXwXwXtXqXe.r o b >XmXmXmXmXmXCXSXSXSXSXAXZXmXmXmXZXCXSXSXSXSXAXZXmXmXmXmXCXSXSXSXSXAXZX",
"SXSXSXSXSXCXmXmXmXmXZXAXSXSXSXSXCXmXmXmXmXZXAXSXSXSXSXCXmXmXmXZXnX>X/ . = ] 6XqX5Xq.n r c ' t.6XwXwXwXwXwXwXtXqXy.K n 5XtXrXrXrXrXrXrXrXwXqXy.q.7XwXrXwXwXwXwXwXwXqX7X5X5X8XqXtXwX6X{ # = } hXMXmXmXmXCXSXSXSXSXAXZXmXmXmXZXCXSXSXSXSXAXZXmXmXmXmXCXSXSXSXSXAXZX",
"AXAXAXAXAXCXZXZXZXZXCXCXAXAXAXCXCXCXZXZXZXCXCXAXAXAXAXCXZXZXCXMX3X/ o # ' {.qXu.n #       . = K i.qXrXwXwXwXtXqXy.K K 6XtXrXrXrXrXrXrXrXwXqXy.0.7XwXrXwXwXwXwXqX{.0.v 4 4 n e.6XwXtXi.v o t -XnXCXZXZXCXAXAXAXAXCXCXZXZXZXCXCXAXAXAXCXCXCXZXZXZXCXCXAXAXAXAXCXCX",
"mXmXmXmXmXCXSXSXSXSXAXZXmXmXmXmXCXAXSXSXSXAXZXmXmXmXMXmXCXAXAX2X_ = # n `.qX`.n =             o v u.qXtXwXwXtXqXt.K K 6XtXrXrXrXrXrXrXrXwXqXy.q.7XwXrXwXrXrX9Xe.m o         4 ' 6XrX7Xq.4 # ) hXAXSXAXCXmXmXmXmXZXAXAXAXSXAXCXmXmXmXmXZXAXSXSXSXAXCXmXmXmXmXZXAX",
"mXmXmXmXmXCXSXSXSXSXAXZXmXmXmXmXCXSXSXSXAXZXzX2X=X&X . .| -X;X} = . m i.qX7Xq.5 4 4 - o         * ' {.tXwXwXtXqXt.K K 6XtXwXwXrXrXrXrXrXwXqXy.e.7XwXwXwXtX7Xe.r O             4 0.7XtX{.n # q -XcXSXAXmXlXkXjXgX2XuXgXjXkXnXMXmXmXmXmXZXAXSXSXSXSXCXmXmXmXmXZXAX",
"mXmXmXmXmXCXSXSXSXSXAXZXmXmXmXmXCXAXCXnX1X| b 4 o . O . o o = o o c e.qXrX6Xu.y.`.{.u.q.n - .   . 5 e.qXwXwXtXqXt.' ' 7XtXwXwXrXrXrXrXrXwXqXi.e.7XwXrXwXqXe.r .       . . . O # v u.tXqXe.r o / 2XZXhXr./ t q 4 ; ; ; 4 w b } -XjXnXmXZXAXSXSXSXAXCXmXmXmXmXZXAX",
"CXCXCXCXCXCXCXCXCXCXCXCXCXCXCXCXmXhX-X/ ; . . . + + % $ $ $ + + 5 e.7XtXwXwXwXwXwXrXwXwX7Xy.K 4 . = 0.7XwXwXtXqXt.' ' 7XtXwXwXrXrXrXrXrXwXqXi.e.7XwXtXwXi.n . . = r K 0.e.e.0.n m y.qXwX6X' * ; &X1X} q . $ $ $ $ $ % + + + X = ( -XnXZXCXCXCXCXCXCXCXCXCXCXCXCX",
"SXSXSXSXSXCXmXmXmXmXZXAXSXSXSXMX<X/ # X + $ $ , , , , , , , + 4 ' 6XtXwXwXwXwXwXtXqX5Xy.y.{.6Xi.' r ] 5XwXrXtXqXe.' ' 7XtXwXwXrXrXrXwXwXwXqXi.e.7XwXtX0X0.c c ] y.6XqXwXwXwXwX8X5X6XqXrXrXy.m o u _ u - + , , , , , , , , , $ $ . b >XMXCXmXmXmXZXCXSXSXSXSXAXZX",
"SXSXSXSXSXCXmXmXmXmXZXAXSXSXSXlX| q   % $ , , , , , , , , , + 3 m `.wXrXwXwXwXwXrXqX5Xw.' K ] i.6X`.5X7XwXwXtXqXe.' ' 7XtXwXwXrXwXwXwXwXwXqXi.e.7XwXrXqX`.u.5X`.i.i.`.6XqXwXwXwXwXwXwXwXtX7Xq.4 . o + $ $ , , , , , , , , , , , + e &XnXCXmXmXmXmXCXSXSXSXSXAXZX",
"SXSXSXSXSXCXmXmXmXmXZXAXSXSXSXzX .;   + $ , , , , , , , , , , + 4 q.7XtXwXwXrXwXwXwXwXqXqX7X6X7XqXwXwXwXwXwXtXqXy.] q.9XtXwXwXrXrXrXrXrXwXqXi.q.6XqXwXwXrXwX8Xy.0.] 0.u.8XwXwXwXwXwXwXrXrXrX{.n - + $ , , , , , , , , , , , , , + w | lXCXmXmXmXZXCXSXSXSXSXAXZX",
"CXCXCXCXCXCXCXCXCXCXCXCXCXCXAXkX .p   . $ , , , , , , , , , , + $ ' `.tXrXwXwXwXwXwXwXwXwXwXwXqX7X{.i.t.t.`.8XwX9X7X9XwXwXwXwXrXrXrXrXrXwXqXe.K ' ] 0.q.w.e.t.u.7XqXqXwXwXwXwXwXwXwXwXwXwXtX9Xe.c + , , , , , , , , , , , , , , + q | lXDXCXCXCXCXCXCXCXCXCXCXCX",
"mXmXmXmXmXCXSXSXSXSXAXZXmXmXCXkX| q     + $ , , , , , , , , , % $ v 0.i.u.`.{.5X6X7X8X9X0X7Xy.{ c r m ' w.u.7XrXrXwXwXwXwXwXwXrXrXrXrXwXrXrX`.0.K n m r 4 # # 4 ' u.7X8X7X6X6X5X{.{.{.`.`.u.i.e.v $ , , , , , , , , , , , , , $ . w | lXSXSXSXSXAXCXmXmXmXmXZXAX",
"mXmXmXmXmXCXSXSXSXSXAXZXmXmXZXlX-Xe       X $ , , , , , , , , , $ $ $ # - 4 4 4 r r c c v c : # r q.5XqXwXwXwXwXwXrXwXwXwXrXrXrXrXrXrXwXwXwXwXqXqXqX9X6Xu.] c # # 4 r c r r r 5 5 5 5 5 5 5 4 3 , , , , , , , , , , , , , , , $ . e &XnXSXSXSXSXSXCXmXmXmXmXZXAX",
"mXmXmXmXmXCXSXSXSXSXAXZXmXmXZXnX3X(           X + $ $ $ , , , , , , $ $ $ $ $ $ $ $ % % + X . m y.qXtXwXwXwXwXwXrXrXrXrXrXrXrXrXrXrXrXrXwXwXwXwXwXwXwXwXrXqX5X{ 5     + $ $ $ , , , , , , , , , , , , , , , , , $ $ $ $ $ $ + +   y >XnXSXSXSXSXAXCXmXmXmXmXZXAX",
"AXAXAXAXAXCXZXZXZXZXCXCXAXAXAXCXzX} =                 . . X + + + + + % % $ $ $ $ $ $ $ % + # ' 5XqXtXwXwXwXwXrXrXwXrXrXwXwXwXwXwXwXwXwXwXwXwXwXwXwXwXrXrXrXwX6X{ #   + $ , , , , , $ $ $ $ $ $ $ % % + + + + + . . . .         # } kXZXCXZXZXZXZXCXAXAXAXCXCXCX",
"SXSXSXSXSXCXmXmXmXmXZXAXSXSXSXSXZX=Xy                                                 . . .   4 n y.5X0XqXwXwXwXwXwXwXwXwXwXwXwXwXwXwXwXwXwXwXwXwXwXwXwXwXwXqX7X] :   . + + + + X . . . . .                                   O b ;XCXAXZXmXmXmXmXCXSXSXSXSXAXZX",
"SXSXSXSXSXCXmXmXmXmXZXAXSXSXSXSXCXhX| =                                                         O # r n ] w.y.u.5X6X8X0XqXqXqXqXwXwXwXwXwXqXqXqX0X7X5X`.y.0.' v 4 O                                                           ; &XlXSXAXZXmXmXmXmXCXSXSXSXSXAXZX",
"SXSXSXSXAXCXZXmXmXmXZXAXSXSXSXAXCXZX1X) #                                                               O . # - 4 r r m n K ' ] 0.0.0.0.0.] ' n m r 4 - # .                                                               O q  .hXSXSXAXZXmXmXmXZXCXAXSXSXSXAXZX",
"ZXZXZXZXZXCXAXAXAXAXAXCXZXZXZXZXCXAXgX[ - 3 D J ( y q ; = o o . O O O O O O                                                 O O O . . O O O                                                 O O O O O o o o o o .     O q } >XkXMXZXZXCXAXAXAXAXAXCXZXZXZXZXCXCX",
"mXmXmXmXmXCXSXSXSXSXAXZXmXmXmXZXBXjX .= * A T '.dXnXkXjX3X<X=X&Xr.| } [ _ ) / b u t t e w q q q 4 ; ; : = = = = = = = = = = = = # # # # o o o o o o o o o o o o # # = = = : ; q q e t u ( / _ }  .| &X-X=X=X..E D *   O q *XlXmXmXmXmXZXAXSXSXSXAXCXmXmXmXmXZXAX",
"mXmXmXmXmXCXSXSXSXSXAXZXmXmXmXnXjX[ ;   * D Y R.:XvXFXSXAXAXAXAXCXCXCXCXZXmXMXnXnXvXzXzXzXkXhXhXhXjXgXgXuXgXgX2X2X2X2X3X3X3X1X,X,X,X,X,X<X>X>X>X;X;X;X;X;X;X>X>X,X4X1X2X2X2XjXhXkXzXvXnXMXmXZXCXCXCXAXAXvXsX).F.P 9 o   O y *XlXmXmXmXZXAXSXSXSXAXCXmXmXmXmXZXAX",
"mXmXZXZXZXCXAXAXAXAXAXCXZXZXmX2X_ ;     9 H F.F.).:XMXDXSXSXSXSXSXSXSXSXSXSXSXSXSXCXZXAXSXSXSXSXSXSXSXDXAXAXAXAXAXAXDXDXDXAXAXZXZXCXAXAXAXAXAXAXAXAXAXAXAXAXAXAXAXAXAXAXCXmXCXSXSXSXSXSXSXSXSXSXSXSXSXBXsX_.H.F.I D *       e &XkXZXZXCXAXAXAXAXAXCXZXZXZXZXZXCX",
"SXAXSXSXAXCXmXmXmXZXZXAXSXAX2X} =     + 9 P F.F.F.R.:XvXDXSXSXSXSXSXSXSXSXSXSXSXSXCXmXFXSXSXSXSXSXSXSXSXSXSXSXSXSXSXSXSXSXSXSXZXBXCXSXSXSXSXSXSXSXSXSXSXSXSXSXSXSXSXSXAXZXmXCXSXSXSXSXSXSXSXSXSXSXDXBXpX_.F.Y F.T H 9 +     O q *XzXAXAXZXmXmXmXZXCXAXSXSXAXCXZX",
"SXSXSXSXSXCXmXmXmXmXZXAXZXuX_ =     . , D P F.F.F.F.R.].xXCXSXSXSXSXSXSXSXSXSXSXSXZXnXCXSXSXSXSXSXSXSXSXSXSXSXSXSXSXSXSXSXSXSXZXmXCXSXSXSXSXSXSXSXSXSXSXSXSXSXSXSXSXSXAXZXMXCXSXSXSXSXSXSXSXSXSXAXvX:X).F.F.F.F.Y H 9 $ + .   O e &XnXCXZXmXmXmXmXCXSXSXSXSXAXZX",
"SXSXSXSXSXCXmXmXmXmXZXmXuX) =     + % 3 D I F.F.F.F.F.H._.sXvXAXSXSXSXSXSXSXSXSXSXZXnXZXSXSXSXSXSXSXSXSXSXSXSXSXSXSXSXSXSXSXSXBXMXZXAXSXSXSXSXSXSXSXSXSXSXSXSXSXSXSXSXAXBXMXCXSXSXSXSXSXSXSXAXmXsX'.J.F.F.F.F.F.Y H 9 , $ + .     t *XlXZXmXmXmXmXCXSXSXSXSXAXZX",
"AXAXAXAXCXCXZXZXZXZXmX4X_ #     + $ , 3 D I F.F.F.F.F.F.F.R.].dXNXFXSXSXSXSXSXSXSXZXnXZXSXSXSXSXSXSXSXSXSXSXSXSXSXSXSXSXSXSXSXBXMXZXAXSXSXSXSXSXSXSXSXSXSXSXSXSXSXSXSXAXmXMXCXSXSXSXSXDXAXMXdX].R.F.F.F.F.F.F.F.Y H 9 , , $ + .   O t =XlXZXZXZXZXCXAXAXAXAXCXCX",
"mXmXmXmXBXCXSXSXSXZX1X_ o     + $ , , 3 D I F.F.F.F.F.F.F.F.F.R.'.sXvXZXAXSXSXSXSXZXnXZXSXSXSXSXSXSXSXSXSXSXSXSXSXSXSXSXSXSXSXBXMXBXDXSXSXSXSXSXSXSXSXSXSXSXSXSXSXSXSXAXZXMXCXSXDXAXBXvXpX'.R.F.Y F.F.F.F.F.F.F.Y H 9 $ , , $ % .   o y =XBXSXSXAXCXZXmXmXmXZXAX",
"mXmXmXmXmXCXSXSXmX2X/ #     + $ , , $ 3 D I F.F.F.F.F.F.F.F.F.F.F.J._.].dXvXZXAXDXZXMXCXSXSXSXSXSXSXSXSXSXSXSXSXSXSXSXSXSXSXSXBXMXZXAXSXSXSXSXSXSXSXSXSXSXSXSXSXSXSXSXAXZXmXZXBXvXsX].).J.F.F.F.F.F.F.F.F.F.F.F.T H 9 $ , , , , % .   O / <XZXSXSXCXmXmXmXmXZXAX",
"mXmXmXmXmXCXSXCX4X/ =   . + $ , , , $ 3 D I F.F.F.F.F.F.F.F.F.F.F.F.F.F.J.).].pXdXvXMXZXAXDXDXSXSXSXSXSXSXSXSXSXSXSXSXSXSXSXSXZXmXZXAXSXSXSXSXSXSXSXSXSXSXSXDXDXAXFXZXvXxXsX:X'.).J.F.F.F.F.F.F.F.F.F.F.F.F.F.F.T H 9 $ , , , , , % .   o / uXZXSXCXmXmXmXmXZXAX",
"CXCXCXCXCXAXBX,X) o   . + $ , , , , $ 3 D I F.F.F.F.F.F.F.F.F.F.F.F.F.F.F.F.F.H.R.).'.].:XdXxXvXvXNXBXZXCXFXFXAXAXDXDXDXAXDXAXCXZXZXAXAXAXAXAXFXFXCXBXBXMXvXxXdXpX:X'.).R.H.F.F.F.F.F.F.F.F.F.F.F.F.F.F.F.Y F.F.R D 9 $ , , , , , % .     :  .jXAXCXCXCXCXCXCXCX",
"SXSXSXSXSXMX1X/ o     + $ , , , , , , 3 D P F.F.F.F.F.F.F.F.F.F.F.F.F.F.F.F.F.F.F.F.F.F.F.H.J.R.)._.'.'.].].:X:X:X:XpXsXsXsXsXsXsXsXsXsXpX:X:X:X].].'._.).).R.J.H.F.F.F.F.F.F.F.F.F.F.F.F.F.F.F.F.F.F.F.F.F.F.F.I D 3 $ , , , , $ +       O w -XnXCXSXSXSXSXAXZX",
"SXSXSXSXCX3X/ =       . % , , , , , , , A P F.Y F.F.F.F.F.F.F.F.F.F.F.F.F.F.F.F.F.F.F.F.F.F.F.F.F.F.F.F.F.F.F.F.F.F.H.H.H.H.H.H.H.H.H.H.H.F.F.F.F.F.F.F.F.F.F.F.F.F.F.F.F.F.F.F.F.F.F.F.F.F.F.F.F.F.F.F.F.F.F.F.I A 3 , , , , $ +           o  .hXCXSXSXSXSXAXZX",
"SXSXSXSXjX .o           . % $ , , , , , 9 H F.F.F.F.F.F.F.F.F.F.F.F.F.F.F.F.F.F.F.F.F.F.F.F.F.F.F.F.F.F.F.F.F.F.F.F.F.F.F.F.F.F.F.F.F.F.F.F.F.F.F.F.F.F.F.F.F.F.F.F.F.F.F.F.F.F.F.F.F.F.F.F.F.F.F.F.F.F.F.F.F.Y P 9 3 , , , $ +               _ 2XCXSXSXSXSXAXZX",
"CXCXAXZX=Xy O             . + $ , , , , 9 D Y F.F.F.F.F.F.F.F.F.F.F.F.F.F.F.F.F.F.F.F.F.F.F.F.F.F.F.F.F.F.F.F.F.F.Y Y Y Y Y Y Y F.F.F.F.Y Y Y F.Y Y Y F.F.F.F.F.F.F.F.F.F.F.F.F.F.F.F.F.F.F.F.F.F.F.F.F.F.F.F.T H 3 , , , $ +               o } jXCXAXCXCXCXCXCX",
"mXmXmXMX-Xu O               . + $ , , , 3 D I Y F.F.F.F.F.F.F.F.F.F.F.F.F.F.F.F.F.F.F.F.F.F.F.F.F.F.F.F.Y Y Y I I P L L G G L I Y Y I I P L P I I Y Y F.F.F.F.F.F.F.F.F.F.F.F.F.F.F.F.F.F.F.F.F.F.F.F.F.F.F.F.I D 3 $ , $ + .             o t =XmXCXZXmXmXmXZXAX",
"mXmXmXmX2X} o                   + $ , , , 9 P Y F.F.F.F.F.F.F.F.F.F.F.F.F.F.F.F.F.F.F.F.F.F.F.F.F.F.F.Y I L G F F S S S S F G I Y Y L F S S S F G P I Y F.F.F.F.F.F.F.F.F.F.F.F.F.F.F.F.F.F.F.F.F.F.F.F.F.F.F.P A 3 , $ + .               w -XlXSXCXmXmXmXmXZXAX",
"mXmXmXmXMX2X} ;                   + $ , $ 3 D R F.F.F.F.F.F.F.F.F.F.F.F.F.F.F.F.F.F.F.F.F.F.F.F.F.Y I L F S S S S S S S S G P Y F.Y P G S S S S S F L I Y F.F.F.F.F.F.F.F.F.F.F.F.F.F.F.F.F.F.F.F.F.F.F.F.F.Y H 9 , $ + .               w | cXSXSXCXmXmXmXmXZXAX",
"CXCXCXCXAXZXkX| q                   . $ $ 3 c _._.R.F.F.F.F.F.F.F.F.F.F.F.F.F.F.F.F.F.F.F.F.F.F.Y I G S S S S S S S S S F L Y F.F.Y I G S S S S S F G U Y.W.W.W.W.W.E.E.G.F.F.F.F.F.F.F.F.F.F.F.F.F.F.Y F.J.T D 3 $ + .             O ; | kXZXCXCXCXCXCXCXCXCXCX",
"SXSXSXSXSXAXmXkX*Xt o                 . % % 5 r.1XsX_.J.Y F.F.F.F.F.F.F.F.F.F.F.F.F.F.F.F.G.E.E.E.9.U U U L G G F F S S G I F.F.F.Y I G S S S G L 9.W.!.~.^.^.^.^.^.^./.T.E.E.F.F.F.F.F.F.F.F.F.F.F.F.R.'.:X[.b % + .               ; | gXmXmXmXmXCXSXSXSXSXAXZX",
"SXSXSXSXSXCXmXmXlX<X( =                   . $ e -XvXvXpX'.R.F.F.F.F.F.F.F.F.F.F.F.F.F.G.E.W.!.^.^.~.~.~.!.!.T.W.Y.9.U G L I Y F.F.Y P G F G U Y.T.~.^.^.^.^.^.^.^.^.^.^.^./.W.E.F.F.F.F.F.F.F.F.H.).].dXvXjX_ 4 +                 p } hXmXmXmXmXmXCXSXSXSXSXAXZX",
"SXSXSXSXAXCXmXmXZXnX3X} =                     . b =XmXAXMXdX].).J.F.F.F.F.F.F.F.F.F.E.W.!.^.^.^.^.^.~.~.~.^.^.^.^.~.~.T.W.Y.Y.Y I L G F L Y.!.^.^.^.^.^.^.^.^.^.^.^.^.^.^.^.^.W.E.F.Y F.F.F.R.'.pXvXZXAXkX| 4                   = } hXZXCXmXmXmXZXCXAXSXSXSXAXZX",
"ZXZXZXZXZXCXAXAXAXAXCXjX| q                     X y <XnXSXDXZXvXsX].).J.F.F.F.F.Y G.E.!.^.^.^.^.^.^.^.^.^.^.^.^.^.^.^.^.~.~.~.T.Y.U G U T.~.^.^.^.^.^.^.^.^.^.^.^.^.^.^.^.^.^.T.E.F.H.R.[.:XxXNXFXSXAXcX*Xq .                 = } 2XZXCXAXAXAXAXAXCXZXZXZXZXCXCX",
"mXmXmXmXmXCXSXSXSXSXAXZXkX&Xu O                   o u =XMXSXSXSXAXZXvXdX:X'.).J.F.G.E.!.^.^.^.~.^.^.^.^.^.^.^.^.^.^.^.^.~.~.~.~.~.!.T.T.^.^.^.^.^.^.^.~.^.^.^.^.^.^.^.^.^././.Q._.].pXxXNXFXDXSXSXSXMX*Xu                   = ) 2XMXmXZXAXSXSXSXAXCXmXmXmXmXZXAX",
"mXmXmXmXmXCXSXSXSXSXAXZXmXnX;X/ o                   . u &XnXAXSXSXSXSXDXFXBXvXdX:X].'.(.(.(././.^.^.^.^.~.^.^.^.^.^.^.^.~.~.^.~.^.^.^.^.^.^.^.^.^.^.^.^././.(.(.(.}.}.|.aXaXfXbXMXZXAXSXSXSXSXSXSXcX-Xt                     w &XkXZXmXZXAXSXSXSXSXCXmXmXmXmXZXAX",
"mXmXmXmXZXCXAXSXSXAXAXZXZXZXMX2X_ ;                     q | hXAXSXSXSXSXSXSXAXCXCXZXBXbXbXfXfXaXaXaX|.|. X X}.}.}.}.}.}.}.}.}.}.}.}.}.}.}. X X|.|.aXaXaXfXfXfXbXbXNXVXFXFXFXCXFXSXSXSXSXSXSXSXAXzX&Xq .                     : _ jXZXBXCXAXSXDXSXAXCXZXmXmXZXCXAX",
"AXAXAXAXAXCXZXZXBXBXZXCXAXAXSXMX,Xy                       = _ ,XmXDXSXSXSXSXAXZXAXSXSXSXSXDXDXDXDXFXFXFXVXVXVXVXVXNXNXNXNXNXNXNXNXNXNXVXVXVXFXFXFXFXFXDXDXDXDXSXSXSXSXSXSXSXCXZXAXSXSXSXSXSXZXhX .4 .                   @ . . w >XMXSXAXZXZXZXZXZXCXAXAXAXAXAXCX",
"SXSXSXSXSXCXmXmXmXmXZXAXSXSXSXlX&Xq                         . t r.kXCXSXSXAXCXCXSXSXSXSXSXSXSXSXSXSXSXSXSXSXSXSXSXSXSXSXSXSXDXZXZXDXSXSXSXSXSXSXSXSXSXSXSXSXSXSXSXSXSXSXSXSXAXCXZXAXSXSXSXMX,X/ :                   . 1 f 2 . o  .jXSXAXZXmXmXmXmXCXSXSXSXSXAXZX",
"SXSXSXSXSXCXmXmXmXmXZXAXSXSXCX2Xb o @ 2 d 1                     = ) ;XnXCXCXCXSXSXSXSXSXSXSXSXSXSXSXSXSXSXSXSXSXSXSXSXSXSXSXSXZXZXSXSXSXSXSXSXSXSXSXSXSXSXSXSXSXSXSXSXSXSXSXSXAXCXAXSXZXhX| e o                   @ a z +.f % . t =XZXCXZXmXmXmXmXCXSXSXSXSXAXZX",
"AXAXAXAXAXCXZXZXZXZXZXCXDXSXkX&X=   < k X.z 2 @                   . q _ 4XnXAXSXSXSXSXSXSXSXSXSXSXSXSXSXSXSXSXSXSXSXSXSXSXSXSXBXBXAXSXSXSXSXSXSXSXSXSXSXSXSXSXSXSXSXSXSXSXSXSXSXAXCXkX=X( =                   . < f X.@.@.z 2   o } kXZXCXZXZXZXZXCXAXAXAXAXCXCX",
"mXmXmXmXZXCXAXSXSXSXAXZXZXmX=X( . . a X.@.@.X.f <                     o q } <XnXCXSXSXSXSXSXSXSXSXSXSXSXSXSXSXSXSXSXSXSXSXSXSXmXmXAXSXSXSXSXSXSXSXSXSXSXSXSXSXSXSXSXSXSXSXSXSXCXzX=X) : .                   @ 2 l +.@.@.@.+.f @   u =XnXSXSXSXSXAXCXZXmXmXmXZXAX",
"mXmXmXmXmXCXSXSXSXSXAXZXMXkX} =   1 k @.@.@.@.@.z d @                     X 4 ) =XkXZXAXSXSXSXSXSXSXSXSXSXSXSXSXSXSXSXSXSXSXSXmXmXAXSXSXSXSXSXSXSXSXSXSXSXSXSXSXSXSXSXSXAXBXhX*X/ : . .                 . < f X.@.@.@.@.@.%.X.2 . : _ hXSXSXSXSXSXCXmXmXmXmXZXAX",
"mXmXmXmXmXCXSXSXSXSXAXCXnX=Xy   . f @.#.@.@.@.@.@.+.l 2 @                   . . = u  .,XzXZXAXSXSXSXSXSXSXSXSXSXSXSXSXSXSXSXSXmXmXAXSXSXSXSXSXSXSXSXSXSXSXSXSXSXDXAXZXzX,X .t # . .                   @ a z +.@.@.@.@.#.%.*.%.l %   w <XMXSXSXSXAXCXmXmXmXmXZXAX",
"ZXZXZXZXZXCXAXAXAXAXAXCXhX_ ; . 2 X.*.*.%.@.@.@.@.@.@.X.k 2 @                 . . . X : y  .>XhXMXCXAXDXSXSXSXSXSXSXSXSXSXSXSXBXBXAXSXSXSXSXSXSXSXSXSXSXAXAXCXMXhX>X .u : X . .                   . 1 k X.@.@.@.@.@.#.&.*.-.*.@.2   =  .jXSXAXAXAXCXZXZXZXZXCXCX",
"SXSXSXSXSXCXmXmXmXmXCXnX>Xw   % k %.-.=.*.%.#.@.@.@.@.@.@.X.f 1 .                 . . . . X = w ) | >XgXlXmXCXAXAXAXAXSXSXSXSXZXZXAXSXSXSXAXAXAXCXZXMXzXuX;X| / w = X . . .                   . < f z @.@.@.@.@.@.%.*.=.=.-.-.&.k % X t =XMXmXmXZXCXSXSXSXSXAXZX",
"SXSXSXSXSXCXmXmXmXmXCXuX} =   2 @.*.-.=.=.*.&.#.@.@.@.@.@.@.@.z f 1 .                 . . . . . . X # 4 t ) } &X=X,X2XjXhXkXzXkXkXzXkXhXgX2X<X-Xr.} / e 4 # X . . . .                       @ d z @.@.@.@.@.@.#.&.*.=.=.=.=.-.=.X.a   o } hXMXmXmXCXSXSXSXSXAXZX",
"SXSXSXSXSXCXmXmXmXmXnX&Xw O < l *.-.-.-.-.-.=.*.%.#.@.@.@.@.@.@.@.z f 2 .                 . . . . . . . . . . X # = : 4 q w e e e w q q 4 : # o X . . . . . . . . .                     @ 2 l +.@.@.@.@.@.#.%.*.=.=.=.=.=.-.-.=.&.l %   y =XnXZXmXCXSXSXSXSXAXZX",
"CXCXCXCXCXCXCXCXAXmX2X_ O   d #.=.-.=.-.-.-.=.=.*.&.%.@.@.@.@.@.@.@.@.X.k 2 @                   . . . . . . . . . . . . . . . . . . . . . . . . . . . . . . .                       @ 2 l X.@.@.@.@.@.@.#.&.*.-.=.=.=.=.=.-.-.=.-.@.a . ; } kXCXCXCXCXCXCXCXCXCX",
"mXmXmXmXmXCXSXSXSXMX&Xe     2 z #.*.=.=.=.-.-.-.=.=.*.&.#.@.@.@.@.@.@.@.@.X.l 2 %                   . . . . . . . . . . . . . . . . . . . . . . . . . . .                       @ 2 k X.@.@.@.@.@.@.#.%.*.=.=.-.=.=.=.=.-.=.=.*.*.z 2 .   t 4XmXSXCXmXmXmXmXZXAX",
"mXmXmXmXmXCXSXSXZXgX( o   8 8 = 1 d z %.*.=.-.-.=.=.=.=.*.%.#.@.@.@.@.@.@.@.@.+.l d % .                   . . . . . . . . . . . . . . . . . . . . . .                       % 2 l X.@.@.@.@.@.@.#.%.*.=.=.=.=.-.-.-.=.=.=.&.@.l d 1 o O   ; | hXSXCXmXmXmXmXZXAX",
"mXmXmXmXmXCXSXSXzX&X;   8 Q P.~ Z 8 # 1 k @.*.=.-.=.=.=.=.=.*.%.#.@.@.@.@.@.@.@.@.+.z f 1 @                     . . . . . . . . . . . . . . . .                       X 1 d z +.@.@.@.@.@.@.@.%.&.*.=.=.=.=.=.=.=.=.&.#.z a < = 0 ! ~ ! 8 o u <XCXCXZXmXmXmXZXAX",
"CXCXCXCXCXCXCXZX,X( o O 0 P..X.X+XL.! 0 > < d X.%.=.=.=.-.=.=.=.*.%.#.@.@.@.@.@.@.@.@.<.>.V g & .                     . . . . . . . . . . . .                     @ 6 N >.$.@.@.@.@.@.@.@.#.&.*.=.=.=.=.=.=.*.&.@.l d 1 = 8 W ~ P..X.XP.Z O # | kXCXAXCXCXCXCXCX",
"SXSXSXSXSXAXmXhX| =   8 ! I.@XoX.X.X.XI.K.! 0 : 2 l #.*.=.=.=.-.=.=.*.%.#.@.@.@.@.@.#.<.1.p.,.>.N 1 X                           . . . . .                   X 1 j C ,.a.1.<.#.@.@.@.@.#.&.*.=.=.=.=.=.*.%.@.l a < = 0 W Q P.+X.X.XoX.X.XQ 8 O ( =XZXSXSXSXSXAXZX",
"SXSXSXSXSXAXMX=X(     Z L..X@XXX.X.X.X.X.X.XP.K.W 0 4 d z #.*.=.=.=.=.=.*.&.%.#.@.@.#.,.a.p.p.p.a.,.V g & .                                           . @ 6 N >.,.a.a.a.a.1.$.@.#.%.&.*.=.=.=.=.*.%.+.k 2 & = 0 W ~ P..X.X.X.X.X.X.X.X@XL.Z O : } lXDXSXSXSXAXZX",
"SXSXSXSXSXCXkX} :   8 ! +X.XOXOX.X.X.X.X.X.X.X.X+XP.~ W 0 5 f z #.&.=.=.=.=.*.*.%.%.$.1.p.p.p.p.a.a.p.,.>.N 6 @ .                                 X 1 j C ,.p.p.a.a.a.a.a.1.<.%.&.*.=.=.=.&.#.z f 2 & > 0 ! L.P..X.X.X.X.X.XOX.X.XXX@X@XI.Q >   y 1XmXSXSXSXAXZX",
"ZXZXZXZXAXnX>Xt   O Z L.@XOXXXOXOXOXOX.X.X.X.X.X.X.X.X.XP.L.! 0 q d l @.%.*.=.=.=.-.1.d.d.p.p.p.p.p.p.p.p.a.,.C j 1 X                       . & 6 V >.,.p.p.p.p.a.a.a.p.d.m.g.-.=.*.%.@.k a 1 : 0 Z Q P.I..X.XoX.X.XXXoX.X.XOXOXOXOX@X@X.XP.0 O ;  .hXAXZXZXCXCX",
"mXmXmXmXZXgX[ =   8 Q I.@XOXXXOXOXOXOXOXOXOX.X.XOX.X.X.X.X.X.XI.L.Q Z w 7 f z @.%.-.7.m.m.m.d.d.p.p.a.a.a.a.a.a.a.,.V g 1 .             @ 6 N >.,.p.p.p.p.p.p.p.p.d.d.m.m.m.d.$.z d 1 : 0 Z ! L.P..X.X.X.XoXoXOX.X.XXXOXOXOXOXOXOXOXXXXX@XI.! 8 o t <XMXmXmXZXAX",
"mXmXmXmXnX=Xq O O Z P.oXOXOXOXOXOXOXOXOXOXOXOXOXOX.X.XoXXX.X.XoX.X.X+XP.L.! Z w 7 f V ,.d.m.m.m.m.m.d.d.p.p.a.a.p.p.p.,.>.V g 1 @ @ 1 g C ,.a.p.p.p.p.p.p.p.d.d.m.d.d.,.C N 7 p 0 Z ! K.P.+X.X.X.XXX.X.XoXoXoXOXOXOXOXOXOXOXOXOXOXOXXXXX@X+XL.0   = | hXmXmXZXAX",
"mXmXZXmX2X[ o   8 Q I.@XXXXXOXOXOXOXOXOXOXOXOXOXOXOXOXOXXX.X.XoX@X@X.X.X.X.X+XP.K.! Z 0 q 7 j V >.,.p.d.d.d.d.d.d.p.p.p.p.p.,.,.>.>.,.,.p.p.p.p.p.p.p.p.a.,.,.C N j w w Z W Q L.P.+X.XXX.X.XOXOX@X.XXXXXOXOXOXOXOXOXOXOXOX@XOXOXOXOXOXOXOX.X+XW > O ( ;XmXZXZXAX",
"AXAXAXmX&Xw O O Z P..X@XXXXXOXOXOXOXOXOXOXOXOXOXOXOXOXOXOXOXOXOXOX@X@XXXXXXX.X.X.X.X+XP.L.Q W Z 0 p p 7 6 j N V C >.>.,.,.,.,.,.,.,.,.,.>.>.>.>.C V N j 7 w 0 Z ! Q L.P.+X.X.X.XXXXXXXXXXXOXOXOXOX@X@XOXOXOXOXOXOXOXOXOX@XOXOXOXOXOXOXOXXX@X.X~ 0 O :  .nXAXAXCX",
"SXSXZXjX) .   0 Q .XOXOXOXOXOXOXOXOXOXOXOXOXOXOXOXOXOXOXOXOXOXOX@XOXOXXXXXXXOXXXOXOX.X.X.X.X.X+XP.P.K.Q W Z 0 8 8 : = = : : : : : : : p p p 0 0 Z W ! Q L.P.I.+X.XoXoX.X.XoXOXOX@X@X.XXXXXOXOXOXOXOXOXOXOXOXOXOXOXOXXXXXXXOXOXOXOXOXOXOXXXOX@XP.! >   ( 1XmXAXZX",
"SXSXnX&Xw   O W P..X.X.X.X.X.X.X.X.X.X.X.X.X.X.X.X.X.X.X.X.X.X.X.X.X.X.X.X.X.X.XoXoX.X.X.X.X.X.X.X.XXX.X.X+XI.P.P.L.L.K.~ Q Q Q ~ K.K.L.P.P.P.I.+X.X.X.X.X.X.X.XoXOXoX.X.X.X.X.XXXXX.X.X.X.X.X.X.X.X.X.X.X.X.X.X.X.X.X.X.X.X.X.X.X.X.X.X.X.X.X.XK.0   q | zXSXZX",
"SXCX2X( o O 8 ~ .XOXXXXXOXOXOXOXOXXXXXXXXXXXOXOXOXOXOXXXXXXXXXXXOXOXOXOXOXOXOXXXOXXXOXXXXXOXOXOXOXOXXXXXXXXXXXXXOXXX.XoX.X.X.X.X.X.X.X.XXXXXXXXXXXXXXXOXXXXXOXOXOXOXOXXXXXXXXXXXOXOXOXOXOXXXXXXXXXXXXXXXOXOXOXOXOXXXXXXX.X+X+X+X+X+X+X+X.X.X.X.XP.W > o y 3XZXCX",
"ZXlX>X( w u ^ $X#X#X#X#X#X#X#X#X#X#X#X#X#X#X#X#X#X#X#X#X#X#X#X#X#X#X#X#X#X#X#X#X#X#X#X#X#X#X#X#X#X#X#X#X#X#X#X#X#X#X#X#X#X#X#X#X#X#X#X#X#X#X#X#X#X#X#X#X#X#X#X#X#X#X#X#X#X#X#X#X#X#X#X#X#X#X#X#X#X#X#X#X#X#X#X#X#X#X#X#X$X$X%X%X$X$X$X$X$X$X$X$X%XU.y w ( =XnXAX"
};
