/* XPM */
static char *ee60a38392a046ae9e4866491997b8d1[] = {
/* columns rows colors chars-per-pixel */
"64 64 238 2 ",
"   c #3D1C0B",
".  c #032D02",
"X  c #0A2E05",
"o  c #162D07",
"O  c #033304",
"+  c #0B3306",
"@  c #083906",
"#  c #0D3608",
"$  c #053C08",
"%  c #0E3B0A",
"&  c #18360A",
"*  c #1A350C",
"=  c #123C0C",
"-  c #1E3B11",
";  c #242A0A",
":  c #34290B",
">  c #25330D",
",  c #28370F",
"<  c #39380C",
"1  c #3C2D12",
"2  c #2C3210",
"3  c #293C13",
"4  c #373816",
"5  c #50190C",
"6  c #5A1911",
"7  c #6A1B15",
"8  c #6A1F18",
"9  c #761918",
"0  c #533109",
"q  c #482914",
"w  c #4B2C14",
"e  c #5A2816",
"r  c #443415",
"t  c #483619",
"y  c #5A371E",
"u  c #682619",
"i  c #77231D",
"p  c #69301F",
"a  c #5D3520",
"s  c #7D2B25",
"d  c #6E3824",
"f  c #7C3829",
"g  c #0D420C",
"h  c #0F480E",
"j  c #13430E",
"k  c #1B420F",
"l  c #0F4310",
"z  c #154311",
"x  c #1A4512",
"c  c #154B14",
"v  c #1B4B15",
"b  c #174D18",
"n  c #1A4F19",
"m  c #1E5216",
"M  c #11571A",
"N  c #1B541B",
"B  c #1C5A1E",
"V  c #294616",
"C  c #214C17",
"Z  c #224E19",
"A  c #38451B",
"S  c #24531B",
"D  c #29561E",
"F  c #21591B",
"G  c #29591E",
"H  c #3B5F1D",
"J  c #1F6D1A",
"K  c #1B5321",
"L  c #1E5D21",
"P  c #245D21",
"I  c #2C5C21",
"U  c #385924",
"Y  c #1D6423",
"T  c #226424",
"R  c #2D6123",
"E  c #256827",
"W  c #256C2A",
"Q  c #326326",
"!  c #336628",
"~  c #35692A",
"^  c #3A6D2C",
"/  c #27712C",
"(  c #29722D",
")  c #38712C",
"_  c #2A7630",
"`  c #2D7C33",
"'  c #367733",
"]  c #3D7432",
"[  c #337E36",
"{  c #504E0E",
"}  c #48441C",
"|  c #594717",
" . c #774B15",
".. c #776717",
"X. c #4B4824",
"o. c #544725",
"O. c #455726",
"+. c #57562A",
"@. c #5D5A32",
"#. c #65492C",
"$. c #764B2B",
"%. c #66562B",
"&. c #78532A",
"*. c #734E32",
"=. c #685132",
"-. c #78593A",
";. c #576D2F",
":. c #4B732F",
">. c #486830",
",. c #546935",
"<. c #427633",
"1. c #4F7231",
"2. c #427C33",
"3. c #676F33",
"4. c #696B3D",
"5. c #786942",
"6. c #687846",
"7. c #9E0B1D",
"8. c #841319",
"9. c #98121E",
"0. c #A40C1F",
"q. c #B2191D",
"w. c #882817",
"e. c #893C1F",
"r. c #A83B16",
"t. c #BC3D1F",
"y. c #8F1F22",
"u. c #991D24",
"i. c #B80522",
"p. c #AA1022",
"a. c #B31529",
"s. c #882925",
"d. c #982629",
"f. c #883529",
"g. c #98302D",
"h. c #953831",
"j. c #A6222B",
"k. c #B4232C",
"l. c #B8362D",
"z. c #AB2B32",
"x. c #B82935",
"c. c #A93736",
"v. c #B7373A",
"b. c #C10627",
"n. c #C51D33",
"m. c #DE1837",
"M. c #C8293B",
"N. c #C8363F",
"B. c #834208",
"V. c #944F0E",
"C. c #AF431A",
"Z. c #B64212",
"A. c #AE6B07",
"S. c #BB7107",
"D. c #A87617",
"F. c #894434",
"G. c #934436",
"H. c #8C5031",
"J. c #895B3F",
"K. c #B04432",
"L. c #837A3D",
"P. c #B3633E",
"I. c #CD7008",
"U. c #C97919",
"Y. c #C4443A",
"T. c #C76129",
"R. c #C63640",
"E. c #DB3848",
"W. c #965242",
"Q. c #995945",
"!. c #BC4445",
"~. c #B54F44",
"^. c #A65745",
"/. c #B95C51",
"(. c #8C6949",
"). c #99724B",
"_. c #B97644",
"`. c #AF7058",
"'. c #C7484A",
"]. c #D5454D",
"[. c #C2534E",
"{. c #DA4D53",
"}. c #C85853",
"|. c #DC5658",
" X c #E64755",
".X c #E4545A",
"XX c #E35A5D",
"oX c #F3515D",
"OX c #CC714C",
"+X c #C56A5D",
"@X c #EB6756",
"#X c #EC5E62",
"$X c #C86F61",
"%X c #D96B64",
"&X c #CC7666",
"*X c #D77568",
"=X c #EC6566",
"-X c #EB6967",
";X c #F06467",
":X c #F36B6B",
">X c #E6736C",
",X c #EF7871",
"<X c #F97975",
"1X c #2F8136",
"2X c #2B8536",
"3X c #328336",
"4X c #398734",
"5X c #3D8A33",
"6X c #318438",
"7X c #378A38",
"8X c #2F9036",
"9X c #47832F",
"0X c #498733",
"qX c #428D32",
"wX c #459132",
"eX c #489431",
"rX c #6C814A",
"tX c #BB8812",
"yX c #B2852A",
"uX c #D48A08",
"iX c #D28D0F",
"pX c #D59F17",
"aX c #E29B11",
"sX c #D59B21",
"dX c #D39F3D",
"fX c #DAA424",
"gX c #D6A237",
"hX c #8E824E",
"jX c #AE8F50",
"kX c #CA8545",
"lX c #CA9846",
"zX c #F48354",
"xX c #D2AB4F",
"cX c #DA8064",
"vX c #ED956E",
"bX c #EA8174",
"nX c #FB837A",
"mX c #FF8982",
/* pixels */
"1X1X1X1X1X1X1X1X1X1X1X1X1X1X1X1X1X1X1X1X1X1X1X1X1X1X1X1X1X1X1X1X1X1X1X1X1X1X1X1X1X1X1X1X1X1X1X1X1X1X1X1X1X1X1X1X1X1X1X1X1X1X1X1X",
"1X1X1X1X1X1X1X1X1X1X1X1X1X1X1X1X1X1X1X1X1X1X1X1X1X1X1X1X1X1X1X1X1X1X1X1X1X1X1X1X1X1X1X1X1X1X1X1X1X1X1X1X1X1X1X1X1X1X1X1X1X1X1X1X",
"1X1X1X1X1X1X1X1X1X1X1X1X1X1X1X1X1X1X1X1X1X1X1X1X1X1X1X1X1X1X1X1X1X1X1X1X1X1X1X1X1X1X1X1X1X1X1X1X1X1X1X1X1X1X1X1X1X1X1X1X1X1X1X1X",
"1X1X1X1X1X1X1X1X1X1X1X1X1X1X1X1X1X1X1X1X1X1X1X1X1X1X1X1X1X1X1X1X1X1X1X1X1X1X1X1X1X1X1X1X1X1X1X1X1X1X1X1X1X1X1X1X1X1X1X1X1X1X1X1X",
"1X1X1X1X1X1X1X1X1X1X1X1X1X1X1X1X1X1X1X1X1X1X1X1X1X1X1X1X1X1X1X1X1X1X1X1X1X1X1X1X1X1X1X1X1X1X1X1X1X1X1X1X1X1X1X1X1X1X1X1X1X1X1X1X",
"1X1X1X1X1X1X1X1X1X1X1X1X1X1X1X1X1X1X1X1X1X1X1X1X1X3X1X1X1X1X1X1X1X1X1X1X1X1X1X1X` ` 1X1X1X1X1X1X1X1X1X1X1X1X1X1X1X1X1X1X1X1X1X1X",
"1X1X1X1X1X1X1X1X1X1X1X1X1X1X1X1X1X1X1X1X1X1X1X1X3X4X4X3X1X1X1X1X1X1X6X6X6X6X/ L B B E ` 3X1X1X1X1X1X1X1X1X1X1X1X1X1X1X1X1X1X1X1X",
"1X1X1X1X1X1X1X1X1X1X1X1X1X1X1X1X1X1X1X1X1X1X1X1X3X5XqX4X1X2X2X1X1X1X_ / ( / B % % x F W ` 1X1X1X1X1X1X1X1X1X1X1X1X1X1X1X1X1X1X1X",
"1X1X1X1X1X1X1X1X1X1X1X1X1X1X1X1X1X1X1X1X1X1X1X1X3X5XwXqX4X[ [ 3X1X_ B c b b j = v ! ! F E ` 3X1X1X1X1X1X1X1X1X1X1X1X1X1X1X1X1X1X",
"1X1X1X1X1X1X1X1X1X1X1X1X1X1X1X1X1X1X1X1X1X1X1X1X3X5XeXwX;.#.+.] _ Y z = v Z x = D <.^ v N ` 6X1X1X1X1X1X1X1X1X1X1X1X1X1X1X1X1X1X",
"1X1X1X1X1X1X1X1X1X1X1X1X1X1X1X1X1X1X1X1X3X3X3X3X3X5XwX1.F.j.h.,.E c % c I ~ D z S ^ I v B _ 2X1X1X1X1X1X1X1X1X1X1X1X1X1X1X1X1X1X",
"1X1X1X1X1X1X1X1X1X1X1X1X1X1X1X1X1X1X1X1X3X5X5X4X3X4X1.&.!. X[.4.T $ % S ^ ] I = c F F P W 2X2X1X1X1X1X1X1X1X1X1X1X1X1X1X1X1X1X1X",
"1X1X1X1X1X1X1X1X1X1X1X1X1X1X1X1X1X1X1X2X3X5XeXwX4X<.*.v.#X<X%X4.F @ + n I I C # % % c T ~ >.>.' 1X1X1X1X1X1X1X1X1X1X1X1X1X1X1X1X",
"1X1X1X1X1X1X1X1X1X1X1X1X1X1X1X1X1X1X1X1X1X4XwXeX0X$.c.XXnX:Xv.y = O + = c c j + + + $ z t s.d.%.[ 1X1X1X1X1X1X1X1X1X1X1X1X1X1X1X",
"3X3X1X1X1X1X1X1X1X1X1X1X1X1X1X1X2X' @.5.hXrX:.J H s.R.:X:Xv.u 4 C Z = + % % % % z m Z q s.N.E.J.[ 1X1X1X1X1X1X1X1X1X1X1X1X1X1X1X",
"3X3X1X1X1X1X1X1X1X1X1X1X1X1X1X1X2X>.g.'.*X&X5.v > 9 M..X'.i 2 Z ~ ^ v . O O @ j G ^ @.h.'.=X;X(.3X1X1X1X1X1X1X1X1X1X1X1X1X1X1X1X",
"4X3X1X1X1X1X1X1X1X1X1X1X1X1X1X1X2X>.d.M.{.>X$X=.2 9 a.N.H.} = S ^ ^ x X # + % z I +.G.'.-X:X{.-.[ 1X1X1X1X1X1X1X1X1X1X1X1X1X1X1X",
"4X3X1X1X1X1X1X1X1X1X1X1X1X1X1X1X2X>.f y.z.|.=X^.| e.l.c.%.F % n I I 4 1 X.X.V z N y x.XX:X|.c.%.[ 1X1X1X1X1X1X1X1X1X1X1X1X1X1X1X",
"4X3X1X1X1X1X1X1X1X1X1X1X1X3X1X1X1X[ >.A e j.M.l.D.yXkX_.+.$ % j c V 8 c.+X`.-.- $ 6 x.XX|.v.%.2.3X1X1X1X1X1X1X1X1X1X1X1X1X1X1X1X",
"3X3X1X1X1X1X1X1X1X1X1X1X1X4X4X3X1X2X2XM ; 5 6 B.uXfXxXxX&.e *.y : ; 8.m.oX<X&X-.K w a.N.K.&.9X8X1X1X1X1X1X1X1X1X1X1X1X1X3X4X3X1X",
"3X1X1X1X1X1X1X1X1X1X1X1X3X5XqX4X1X6X` N # o * | S.uXsXkXl.x.-X'.s r 9 0.x.|.:X$X3.%.k.k.H.9X2X2X1X1X1X1X1X1X1X1X1X1X1X1X4XqX5X3X",
"1X1X1X1X1X1X1X1X1X1X1X1X3X5XwXqX4X6X` N @ X q w.Z.I.U.K.a.M.:X-X}.Q.a q d c.R.Y.D.yXOX_.L.5X2X3X` 1X1X1X1X1X1X1X1X1X1X1X4XqXqX5X",
"1X1X1X1X1X1X1X1X1X1X1X1X1X4XqXwX5X` E N j & 7 i.q.V.V.w.7.n..X:X<X*Xo.$ A p 9 w.S.pXdXlXhX4.6.4.>.' 1X1X1X1X1X1X1X1X1X1X4X5XqXqX",
"1X1X3X1X1X1X1X1X1X1X1X1X1X3X4XqX5X/ n Z V A s.b.9.e < < 9 p.x.|.<X%XX.O k > : 0 A.aXsXlXP.c.+X/.F.,.3X1X1X1X1X1X1X1X1X1X3X4X5XqX",
"1X4X4X3X1X1X1X1X1X1X1X1X1X1X3X4X7XW = r $.J.[.R.u ; + # q 6 8 c.].!.r O @ + ; u r.I.uXT.l.M.:X:X}.).rX6X1X1X1X1X1X1X1X1X1X3X4X4X",
"1X5XqX5X3X1X1X3X3X3X1X1X1X1X1X3X` Y * 7 v.-XbXQ.3 # # # + + * 8 u.s.4 $ O + q 7.i.Z.A.r.p.n.XX<X<XbXhX4X2X1X1X3X3X1X1X1X1X1X1X3X",
"1X5XwXqX4X1X1X4X5X4X1X1X1X1X1X` T $ o 7 N.:X`.A = v n j O O $ > r X.>.P $ # e 0.i.w.{ | s.a.n.XXnXnXjX0X2X` 3X5X4X3X1X1X1X1X1X1X",
"1X4XqXwX5X1X4XqXqX4X1X1X1X1X_ W F m V i z.W.O.O O c m j O o r o.%.+.1.O.t #.G.v.u.  = D o.i 9 z. X|.).0X2X3X5XqX5X3X1X1X1X1X1X1X",
"3X4X4XqX5X3XqXwXqX4X1X1X1X1XW n S ) U d i r = # 3 3 V j = w g.[.[.g.X.o.d.[.%X/.t X = S V 3 > p z.c.-.0X2X5XwXqX5X3X1X1X1X1X1X1X",
"5X5X5X5X3X3XqXqX5X3X1X1X3X1XW z x R U } r * O 3 -.f t V @.^.|.-X{.j.4 w k.|.+X-.- O j c z j N O.&.&.;.4X2X5XwX5X4X1X1X1X1X1X1X1X",
"5XqXqX5X3X3X5X5X3X1X1X1X1X1X/ n % z S C k % O X.+X'.h.=.`.<X<X-X'.s.2 q k.[.(.U @ + = = % l W 4X9X0X9X4X3X5X5X4X3X1X1X1X1X1X1X1X",
"4X5XwXqX4X3X3X3X1X1X1X1X1X1X` W c X = g h j O X.>X:X-X$X,XmX<X].s.r S y u.*.,.! j X # + + j / 7X7XwXwX5X3X3X3X3X1X1X1X1X1X1X1X1X",
"1X4X5X5X4X1X1X1X1X1X1X1X1X1X3X1XW c @ @ % % O 3 W.}.@XzXvXvXcXG.q j B } e O.] ] x # v Z v j N / 3X5X5X5X3X1X1X1X1X1X1X1X1X1X1X1X",
"1X3X3X3X3X1X1X1X1X1X1X1X1X1X1X1X` T % + + + # % 2 u C.iXgXxXjX+.= $ j = * S R I = z ~ ] R j + B ` 3X3X3X1X1X1X1X1X1X1X1X1X1X1X1X",
"1X1X1X1X1X1X1X1X1X1X1X1X1X1X1X` E c # + + # x n = :  .tXpXfXtX{ + + % + + = x x # x ~ ^ I j + B ` 1X1X1X1X1X1X1X1X1X1X1X1X1X1X1X",
"1X1X1X1X1X1X1X1X1X1X1X1X1X1X` W N z % # + # v F = :  .U.aXuXS.&.t 1 , % # = v v # = D G m j + B 1X2X1X1X1X1X1X1X1X1X1X1X1X1X1X1X",
"1X1X1X1X1X1X1X1X1X1X1X1X3X1XW N v Z j = % # j c k e K.OXiXS.t.~.~.f.} c = Z Q Q z + z c c j + N _ ` ` 1X1X1X1X1X1X1X1X1X1X1X1X1X",
"1X1X1X1X1X1X1X1X1X1X1X1X3X1XW z = C j j = # # $ V F.~.Q...B.a..X=X[.+.h = D ^ ^ x . = n F n # z B L W ` 1X1X1X1X1X1X1X1X1X1X1X1X",
"1X1X1X1X1X1X1X1X1X1X1X1X1X1XW c # # = j % + X + 4 ^.Q.4 + : u.{.<X*X+.O = S Q I = + c I Q D = = = = L ` 3X1X1X1X1X1X1X1X1X1X1X1X",
"1X1X1X1X1X1X1X1X1X1X1X1X1X1X` W z . + # + + O ; 9 z.f.; . o w c..X*X+.. # x n c # + n I D v S ! I x N ` 3X1X1X1X1X1X1X1X1X1X1X1X",
"1X3X4X3X1X1X1X1X1X1X1X1X1X1X` W m = % + + # $ 1 0.9.e * O @ - e h.W.A . + % % % X + j v x = I ] Q v B ` 3X1X1X1X1X1X1X1X1X1X1X1X",
"3X5X5X4X1X1X1X1X1X1X1X1X1X1XW n Z G j % % % g 1 8.e , = + @ j 3 3 3 * + # # # = = % % # # = I I j = B ` 3X1X1X1X1X1X1X1X1X1X1X1X",
"5XqXqX4X1X1X1X1X1X1X1X1X3X1XW z Z R c = = j g > q 2 j g # # j j % + # z x = = Z I S % + + % n v + % B ` 3X1X1X1X1X1X1X1X1X1X1X1X",
"qXqXqX4X1X1X1X1X1X1X1X1X1X1XW N Z S j = j j % + & = j j # + = g @ + % m S z x Q 2.Q j = j x j j j c T ` 3X1X1X1X1X1X1X1X1X1X1X1X",
"qXqX4X3X1X1X1X1X1X1X1X1X1X1X` W m = # # % j % + $ g j j % + # # + # = c c = v ! <.R c S Q Q j m ~ ( _ 1X1X1X1X1X1X1X1X1X1X1X1X1X",
"5X4X3X1X1X1X1X1X1X1X1X1X1X1X1X1XE c b b z % X + j j j % + X X + + + % % % + = Z S z z Q <.] = F 5X7X3X1X1X1X1X1X1X1X1X1X1X1X1X1X",
"3X3X1X1X1X1X1X1X1X1X1X1X1X1X1X1X` _ _ _ E z # % j j % # + + + + + + + # + + + # = # = D Q I = B 3X3X1X1X1X1X1X1X1X1X1X1X1X1X1X1X",
"1X1X1X1X1X1X1X1X1X1X1X1X1X1X1X1X1X3X3X3X_ E T N % % + + # = % # + + % = % + + = I Z = x n v B / 1X1X1X1X1X1X1X1X1X1X1X1X1X1X1X1X",
"1X1X1X1X1X1X1X1X1X1X1X1X1X1X1X1X1X1X1X1X1X` ` W n z j # % j j # + + = j j # # v <.] n j z N / 1X1X1X1X1X1X1X1X1X1X1X1X1X1X1X1X1X",
"1X1X1X1X1X1X1X1X1X1X1X1X1X1X1X1X1X1X1X1X1X3X6X` / W B % % j j # + + % j % # z I 0X0XQ x b W 1X6X1X1X1X1X1X1X1X1X1X1X1X1X1X1X1X1X",
"1X1X1X1X1X1X1X1X1X1X1X1X1X1X1X1X1X1X1X1X1X1X1X1X6X1XE % + % % + + + + % # # j G <.<.G z B ` 6X1X1X1X1X1X1X1X1X1X1X1X1X1X1X1X1X1X",
"1X1X1X1X1X1X1X1X1X1X1X1X1X1X1X1X1X1X1X1X1X1X1X1X6X1XW z # % % @ # % % % % % = c I S = = L ` 6X1X1X1X1X1X1X1X1X1X1X1X1X1X1X1X1X1X",
"1X1X1X1X1X1X1X1X1X1X1X1X1X1X1X1X1X1X1X1X1X1X1X1X1X1X_ E E E B z z L E E E T b % = + # B / 1X1X1X1X1X1X1X1X1X1X1X1X1X1X1X1X1X1X1X",
"1X1X1X1X1X1X1X1X1X1X1X1X1X1X1X1X1X1X1X1X1X1X1X1X1X1X1X1X1X6X_ L T ` 6X1X3X1XW n z z N / 1X1X1X1X1X1X1X1X1X1X1X1X1X1X1X1X1X1X1X1X",
"1X1X1X1X1X1X1X1X1X1X1X1X1X1X1X1X1X1X1X1X1X1X1X1X1X1X1X1X1X3X` _ _ 1X1X1X1X1X` / / / ( ` 1X1X1X1X1X1X1X1X1X1X1X1X1X1X1X1X1X1X1X1X",
"1X1X1X1X1X1X1X1X1X1X1X1X1X1X1X1X1X1X1X1X1X1X1X1X1X1X1X1X1X1X1X1X1X1X1X1X1X1X1X1X1X1X1X1X1X1X1X1X1X1X1X1X1X1X1X1X1X1X1X1X1X1X1X1X",
"1X1X1X1X1X1X1X1X1X1X1X1X1X1X1X1X1X1X1X1X1X1X1X1X1X1X1X1X1X1X1X1X1X1X1X1X1X1X1X3X3X3X3X1X1X1X1X1X1X1X1X1X1X1X1X1X1X1X1X1X1X1X1X1X",
"1X1X1X1X1X1X1X1X1X1X1X1X1X1X1X1X1X1X1X1X1X1X1X1X1X1X1X1X1X1X1X1X1X1X1X1X1X1X1X1X1X1X1X1X1X1X1X1X1X1X1X1X1X1X1X1X1X1X1X1X1X1X1X1X",
"1X1X1X1X1X1X1X1X1X1X1X1X1X1X1X1X1X1X1X1X1X1X1X1X3X4X3X1X1X1X1X1X1X1X1X1X1X1X1X1X1X1X1X1X1X1X1X1X1X1X1X1X1X1X1X1X1X1X1X1X1X1X1X1X",
"1X1X1X1X1X1X1X1X1X1X1X1X1X1X1X1X1X1X1X1X1X1X1X1X3X5X5X4X1X1X1X1X1X1X1X1X1X1X1X1X1X1X1X1X1X1X1X1X1X1X1X1X1X1X1X1X1X1X1X1X1X1X1X1X",
"1X1X1X1X1X1X1X1X1X1X1X1X1X1X1X1X1X1X1X1X1X1X1X1X3X5XqX5X3X1X1X1X1X1X1X1X1X1X1X1X1X1X1X1X1X1X1X1X1X1X1X1X1X1X1X1X1X1X1X1X1X1X1X1X",
"1X1X1X1X1X1X1X1X1X1X1X1X1X1X1X1X1X1X1X1X1X1X1X1X3XqXeXqX4X1X1X1X1X1X1X1X1X1X1X1X1X1X1X1X1X1X1X1X1X1X1X1X1X1X1X1X1X1X1X1X1X1X1X1X",
"1X1X1X1X1X1X1X1X1X1X1X1X1X1X1X1X1X1X1X1X3X3X3X3X3X5XwXwX4X1X1X1X1X1X1X1X1X1X1X1X1X1X1X1X1X1X1X1X1X1X1X1X1X1X1X1X1X1X1X1X1X1X1X1X",
"1X1X1X1X1X1X1X1X1X1X1X1X1X1X1X1X1X1X1X1X3X4X4X4X3X5XqXwX4X1X1X1X1X1X1X1X1X1X1X1X1X1X1X1X1X1X1X1X1X1X1X1X1X1X1X1X1X1X1X1X1X1X1X1X"
};
