/* XPM */
static char *c110b258aaa14c0cb370709f31f39950[] = {
/* columns rows colors chars-per-pixel */
"64 64 214 2 ",
"   c #24161C",
".  c #26191D",
"X  c #2B1C1D",
"o  c #311F1A",
"O  c #362217",
"+  c #3D2513",
"@  c #33211A",
"#  c #3A271D",
"$  c #3D2A1E",
"%  c #3F2B22",
"&  c #452915",
"*  c #442B17",
"=  c #482F19",
"-  c #532E17",
";  c #4A331E",
":  c #54361A",
">  c #5D331B",
",  c #5C3B1E",
"<  c #663E16",
"1  c #64351C",
"2  c #623D1C",
"3  c #412D22",
"4  c #532E22",
"5  c #4D3D27",
"6  c #493E28",
"7  c #553526",
"8  c #593525",
"9  c #533B26",
"0  c #5B3923",
"q  c #603F25",
"w  c #2D4E2A",
"e  c #354C27",
"r  c #3C4B26",
"t  c #3D4729",
"y  c #334D29",
"u  c #2C532B",
"i  c #2E5B2D",
"p  c #365227",
"a  c #335329",
"s  c #3A5328",
"d  c #3A5829",
"f  c #2E622F",
"g  c #35642F",
"h  c #2E6730",
"j  c #2E6C31",
"k  c #3A6530",
"l  c #3A6B32",
"z  c #2E7232",
"x  c #2F7C35",
"c  c #357433",
"v  c #317C35",
"b  c #5E401E",
"n  c #664315",
"m  c #694415",
"M  c #6D4816",
"N  c #64411A",
"B  c #6B471B",
"V  c #6C4A1E",
"C  c #714B17",
"Z  c #754E19",
"A  c #76501C",
"S  c #7C541A",
"D  c #4B4423",
"F  c #434B25",
"G  c #4B4B24",
"H  c #444228",
"J  c #4C4429",
"K  c #4C4D2A",
"L  c #524423",
"P  c #455629",
"I  c #644225",
"U  c #6E4923",
"Y  c #694829",
"T  c #734D24",
"R  c #714E2D",
"E  c #6D5F24",
"W  c #785624",
"Q  c #76532B",
"!  c #7B5730",
"~  c #7D5931",
"^  c #47612E",
"/  c #42702A",
"(  c #796122",
")  c #80571B",
"_  c #845A1C",
"`  c #895E1D",
"'  c #8D621E",
"]  c #93661E",
"[  c #97691F",
"{  c #9A6A1F",
"}  c #825B21",
"|  c #825C2C",
" . c #845F33",
".. c #846522",
"X. c #8B6221",
"o. c #866926",
"O. c #8A6924",
"+. c #926521",
"@. c #956921",
"#. c #9B6C21",
"$. c #956C2B",
"%. c #9E7126",
"&. c #9E7228",
"*. c #866133",
"=. c #8A6532",
"-. c #906D37",
";. c #9C7332",
":. c #A06F23",
">. c #A27325",
",. c #A2752A",
"<. c #A5792E",
"1. c #AB7C2E",
"2. c #A67B31",
"3. c #A37834",
"4. c #AA7E33",
"5. c #A57D3C",
"6. c #8B6749",
"7. c #83744D",
"8. c #268033",
"9. c #2F8136",
"0. c #2D8538",
"q. c #338335",
"w. c #398634",
"e. c #368831",
"r. c #3C8933",
"t. c #348238",
"y. c #3B843B",
"u. c #3D9034",
"i. c #428E32",
"p. c #45853E",
"a. c #498B39",
"s. c #459031",
"d. c #4A9231",
"f. c #4D9036",
"g. c #4E8742",
"h. c #588A45",
"j. c #5E8A49",
"k. c #658C4C",
"l. c #698B4D",
"z. c #768A4E",
"x. c #639044",
"c. c #74934B",
"v. c #758D52",
"b. c #7A8E54",
"n. c #7B9153",
"m. c #AE8136",
"M. c #AD833A",
"N. c #B18336",
"B. c #B2863A",
"V. c #B68A3E",
"C. c #B88B3F",
"Z. c #818F55",
"A. c #859159",
"S. c #89945A",
"D. c #989457",
"F. c #92945D",
"G. c #98935F",
"H. c #AC8947",
"J. c #B08642",
"K. c #B78C41",
"L. c #B98D42",
"P. c #B68F4B",
"I. c #BA8F49",
"U. c #BC9043",
"Y. c #B7924B",
"T. c #BB934C",
"R. c #A9895B",
"E. c #B48D51",
"W. c #A7925D",
"Q. c #B69253",
"!. c #BB9452",
"~. c #BD9B55",
"^. c #B4935B",
"/. c #BB9359",
"(. c #B59858",
"). c #BE9E5A",
"_. c #BFA05E",
"`. c #9C9461",
"'. c #A99764",
"]. c #B49764",
"[. c #BB9763",
"{. c #BA9866",
"}. c #B69768",
"|. c #BB9D6D",
" X c #99A869",
".X c #9DB16E",
"XX c #BCA366",
"oX c #BBA16F",
"OX c #BEA572",
"+X c #B3A871",
"@X c #BEA974",
"#X c #AFB575",
"$X c #C1A463",
"%X c #C2A768",
"&X c #C3AA6C",
"*X c #C0A473",
"=X c #C2AC75",
"-X c #C3AE78",
";X c #C6B176",
":X c #C6B47B",
">X c #C9B67E",
",X c #C7B87D",
"<X c #C9B97F",
"1X c #CEB780",
"2X c #CDBB81",
"3X c #CABD82",
"4X c #D1BB83",
"5X c #CDC285",
"6X c #CEC587",
"7X c #CFC688",
"8X c #D1C387",
"9X c #D2C688",
"0X c #D1C889",
"qX c #D7C98B",
/* pixels */
"9.9.9.9.9.9.9.9.9.9.9.9.9.9.9.9.9.9.9.9.9.9.9.9.9.9.9.q.t.t.t.t.t.t.t.t.t.q.9.9.9.9.x j j x q.9.9.9.9.9.9.9.9.9.9.9.9.9.9.9.9.9.",
"9.9.9.9.9.9.9.9.9.9.9.9.9.9.9.9.9.9.9.9.9.9.9.9.9.t.t.k.F.F. X.X.X XF.F.F.S.p.8.9.9.9.9.9.9.9.9.9.9.9.9.9.9.9.9.9.9.9.9.9.9.9.9.",
"9.9.9.9.9.9.9.9.9.9.9.9.9.9.9.9.9.9.9.9.9.9.9.9.t.y.k.+X4X2X9X9X6X5X2X2X4X>XF.t.8.9.9.q.9.9.9.9.9.9.9.9.9.9.9.9.9.9.9.9.9.9.9.9.",
"9.9.9.9.9.9.9.9.9.9.9.9.q.w.q.9.9.9.9.9.9.9.8.p.F..X#X8X0X0X9X6X6X7X0X0X0X9X>XA.t.e.w.9.9.9.9.9.9.9.9.9.9.9.9.9.9.9.9.9.9.9.9.9.",
"9.9.9.9.9.9.9.9.9.9.9.9.q.i.i.q.9.9.9.9.9.8.y.S.2XqX9X6X5X5X5X5X5X5X5X5X5X7X9X:Xn.r.s.w.9.9.9.9.9.9.9.9.9.9.9.9.9.9.9.9.9.9.9.9.",
"9.9.9.9.9.9.9.9.9.9.q.q.q.i.d.q.9.9.9.9.9.q.A.:X9X0X<X@X@X@X=X=X=X=X=X@X<X9X9X9X@Xc.d.r.9.9.9.9.9.9.9.9.9.9.9.9.9.9.9.9.9.9.9.9.",
"9.9.9.9.9.9.9.9.9.9.w.i.q.q.i.q.9.9.9.9.q.v.:X9X7X9X;X}.}.-X:X:X:X:X:X:X-X2X6X9X9X@Xc.e.9.q.9.9.9.9.9.9.9.9.9.9.9.9.9.9.9.9.9.9.",
"9.9.9.9.9.9.9.9.9.9.q.i.i.q.q.q.i.w.9.9.l.-X9X0X3X@XoX=X>X6X6X-X@X:X9X0X=XOX3X9X0X1Xn.8.w.i.q.9.9.9.9.9.9.9.9.9.9.9.9.9.9.9.9.9.",
"9.9.9.9.9.9.9.9.9.9.9.r.d.q.9.i.i.q.8.j.'.3X0X9X:XoX:X5X0X:XOX|.:X-X@X<X3X:X=X-X8X>Xv.e.s.r.q.9.9.q.q.9.9.q.w.q.9.9.9.9.9.9.9.9.",
"9.9.9.9.9.9.9.9.9.9.9.q.w.q.q.i.w.9.8.b.-X5X9X9X:X@X6X6X6X@X}.|.=X@X@X3X9X6X:XOX5X<X7./ r.q.9.9.9.q.i.q.9.r.i.q.9.9.9.9.9.9.9.9.",
"9.9.9.9.9.9.9.9.9.9.9.9.9.9.q.q.9.9.8.v.>X0X6X9X,X|.@X@X3X3X:X:X:X:X3X7X:X@X@XOX5X<X6.P q.9.9.9.9.q.i.r.9.i.d.q.9.9.9.9.9.9.9.9.",
"9.9.9.9.9.q.w.q.9.9.9.9.9.9.9.9.q.9.8.v.*X=X5X0X5X@XOX:X3X0X5X:X7X3X@X@X-X:X:X>X9X2X6.6 c 9.9.9.9.9.q.q.q.i.r.q.9.9.9.9.9.9.q.w.",
"9.9.9.9.9.q.i.r.q.q.r.q.9.9.9.9.q.9.8.b./.E.*X5X0X:XoX-X-X=X@X|.=X@X}.}.@X5X0X0X5X=X6.4 ^ 0.q.9.9.9.9.9.9.q.q.9.9.9.9.9.9.9.q.s.",
"9.9.9.9.9.q.w.i.q.i.i.q.9.9.9.9.q.8.g.W.I.C.Q.-X6X5X:X:X:X:X:X:X:X:X:X:X:X5X8X5X=XR.Q > K c 0.9.9.9.9.9.9.9.9.9.9.9.9.9.9.9.q.r.",
"9.9.9.9.9.9.q.q.w.i.q.9.9.9.9.q.w.8.l./.C.C.K.{.;X9X9X9X9X9X9X9X9X9X9X9X9X7X5X-XR.~ n N 0 l 0.q.9.9.9.9.9.9.9.q.w.9.9.9.9.9.9.q.",
"r.9.q.q.9.9.9.9.q.q.9.9.9.9.9.q.i.9.k./.K.K.K.Q.@X@X<X9X9X9X9X7X5X6X9X9X9X7X-XQ.;._ Z m 0 K v q.w.q.9.9.9.9.9.q.s.w.9.q.q.9.9.9.",
"i.q.i.r.9.9.9.9.9.9.9.9.9.9.9.q.r.f.G./.K.C.L.).~.^.oX-X-X-X-X=X@X@X-X-X-X@XH.,.{ ] Z N , 9 c u.i.q.9.9.9.9.9.q.r.i.q.i.w.9.9.9.",
"w.w.i.q.9.9.9.9.9.9.9.9.9.q.r.r.p.D./.P.K.K.).~.K.K.Q.Q.Q.Q.Q.Q.Q.Q.Q.Q.^.P.&.{ ] Z N m N , P s.i.q.9.9.9.9.q.r.r.q.w.i.q.9.9.9.",
"w.q.q.9.9.9.9.9.9.9.9.9.9.9.r.i.x.^.K.C.K.).).L.K.K.K.K.K.K.K.K.K.K.K.m.<.<.#.[ A N N m m m 0 ^ w.9.9.9.9.9.q.r.s.w.q.q.9.9.9.9.",
"r.9.9.9.9.9.9.9.9.9.9.9.9.9.9.e.h.^.K.C.L.&X!.C.K.K.K.K.K.K.K.K.B.<.<.#.[ [ @.@._ _ A N m m 8 J v 9.9.9.9.9.9.q.r.q.9.9.9.9.9.9.",
"9.9.9.9.q.q.q.9.9.9.9.9.9.9.9.y.A.^.C.K.~.;XT.C.K.K.K.K.K.K.K.K.V.4.2.%.{ [ _ S ) _ Z N m 2 8 J v 9.9.9.9.9.9.9.9.9.9.q.9.9.9.9.",
"9.9.9.9.q.9.9.9.9.9.9.9.q.q.q.z.^.J.<.<.J.&X!.C.K.K.K.K.K.K.K.K.K.K.B.+.S S M m m m m N , 0 8 9 k 9.9.9.9.9.9.9.9.9.9.q.9.9.9.9.",
"9.9.9.9.9.9.9.9.q.q.9.9.w.i.y.W.I.B.2.<.#.M.I.K.K.K.K.K.K.K.K.K.K.B.,.S n m m m m N 2 0 7 7 , 1 K v 9.9.9.9.9.9.9.9.9.9.9.9.9.9.",
"9.9.9.9.9.9.9.9.q.i.r.q.r.d.v.].L.C.K.~.Q.#.>.2.<.<.<.2.V.K.K.K.K.m.' B , , , , , 0 7 I W W M < K 9.9.q.q.q.9.9.9.9.9.9.9.9.9.9.",
"9.9.9.9.9.9.9.9.q.i.d.r.r.a.'./.K.K.C.$X>X(.2.<.<.<.<.%.,.C.K.K.K.m._ , 7 7 7 7 7 7 I X.#.[ C < L l 9.9.i.i.q.q.q.9.9.9.9.9.9.9.",
"9.9.9.9.9.9.9.9.9.q.r.q.q.k.'.I.K.K.C.$X:X$XL.K.K.K.K.M.#.,.4.3.=.| U 8 Q *.*.*.| T } #.@.` m N 2 L l 9.i.d.q.r.i.9.9.9.9.9.9.9.",
"9.9.9.9.9.9.9.9.9.9.9.9.t.F./.K.K.C.T.&X:X!.C.K.K.K.K.K.m.<.2.3.*. .*. .5.K.K.C.<.@.{ @.[ Z N m m 1 P 9.w.w.q.i.r.9.9.9.9.9.9.9.",
"9.9.9.9.9.9.9.9.9.9.9.9.t.S.I.C.K.T.&X>X:X!.C.K.K.K.K.K.K.K.K.K.K.K.K.U.K.K.K.K.<.@.@.#.#._ m n m 1 P 0.9.9.q.w.9.9.9.9.9.9.9.9.",
"9.9.9.9.9.9.9.9.9.9.9.9.h.'.I.C.C.~.>X:X&XU.C.K.K.K.K.K.K.K.K.K.K.K.K.K.M.2.4.4.<.@.@.' _ _ M n m 2 J c 9.9.9.9.9.9.9.9.9.9.9.9.",
"9.9.9.9.9.9.9.9.9.9.9.9.A.|.I.C.C.~.>X&XT.C.K.K.K.K.K.K.K.K.K.K.K.K.K.B.%.,.<.#.{ @.] C N m m m m 2 8 P 9.9.9.9.9.9.9.9.9.9.9.9.",
"9.9.9.9.9.9.9.9.9.9.9.8.Z.E.4.C.T.%X<X_.C.K.K.K.K.K.K.K.K.K.K.K.K.K.K.m.<.B.4.@.{ #.' C N n m m N 0 8 ^ 0.9.9.9.9.9.9.9.9.9.9.9.",
"9.9.9.9.9.9.9.9.9.9.8.g.G.3.[ <.M.XX;XT.K.K.K.K.K.K.K.K.K.K.m.4.4.4.4.B.U.m.#.{ [ _ _ Z N m m N , 7 7 K c 9.9.9.9.9.9.9.9.9.9.9.",
"9.9.9.9.9.9.9.9.9.9.8.v.[.4.{ [ [ 3.Q.K.K.K.K.K.K.K.K.K.K.m.#.{ { { { <.4.#.{ @.S m N m m m 2 7 7 0 1 0 k 0.9.9.9.9.9.9.9.9.9.9.",
"9.9.9.9.9.9.9.9.9.9.p.F.!.C.2.<.,.[ &.4.4.4.m.K.K.K.K.K.B.#.A V V V V ` #.@.@._ m N 2 2 2 , 0 U T V m , d 9.9.9.9.9.9.9.9.9.9.9.",
"9.9.9.9.9.9.9.9.9.8.l.|.Q.K.K.K.B.%.[ [ [ [ #.4.K.K.K.V.>.A # X X X X ; ' >.[ M N , 7 7 7 7 T +.@._ N , H h z 9.9.9.9.9.9.9.9.9.",
"9.9.9.9.9.9.9.9.9.y.S.{.P.K.K.U.~.P.,.,.<.,.@.#.4.N.;.Q V # . X X X X . : Z V N I ! ~ ! ! ~ @.{ #._ m 2 0 H u j z 9.9.9.9.9.9.9.",
"9.9.9.9.9.9.9.9.8.j.].Y.C.K.C.T.;X%XK.K.K.K.<.@.{ ] : X X X X X X X X X X X X 3 R K.K.K.K.m.#.[ @._ N m 2 0 H w i 9.9.9.9.9.9.9.",
"9.9.9.9.9.9.9.9.y.b./.C.K.K.K.).:X$XC.K.K.K.C.<.+., X X X X X X X X X X X X X X Y K.K.K.B.%.[ @.#._ N m n 0 9 y i j x 9.9.9.9.9.",
"9.9.9.9.9.9.9.8.g.'./.C.K.K.~.;X:X).C.K.K.K.K.C.| X X X X X X X X X X X X X X   9 J.U.B.&.[ @.[ ' ' C m n 2 9 y u w h 9.9.9.9.9.",
"9.9.9.9.9.9.9.q.v.].!.C.K.L.=X:X_.K.K.K.K.K.K.U.-.X X X X X X X X X X X X X X   9 4.N.,.[ @.' ) Z ` A N m m 0 t u w h 9.9.9.9.9.",
"9.9.9.9.9.9.8.y.'./.K.K.K.L.=X=XK.C.K.K.K.K.K.K.=.X X X X X X X X X X X X X X . # } #.@.#.[ M N m m m m m m , 9 t w h 0.9.9.9.9.",
"9.9.9.9.9.9.q.k.^.L.K.K.K.!.;X;X).T.K.K.K.K.K.m.W X X X X X X X X X X X X X X X X ; ` #.' ] ) Z m N m m m m N 0 6 w i z x 9.9.9.",
"9.9.9.9.9.8.y.'.E.K.K.K.T.&X>X:X;X).C.K.K.K.C.#.N X X X X X X X X X X X X X X X X . N [ Z S ` ) m N m m m m N 8 6 u w u z 0.9.9.",
"9.9.9.9.9.q.j.W.,.4.m.V.&X>X&X&X_.K.K.K.K.K.B.T X X X X X X X X X X X X X X X X X . , S N m m m m m m N N 2 7 7 5 e u w z 0.q.q.",
"9.9.9.9.8.t.G./.,.[ [ ,.Q.=XT.K.K.K.K.K.K.U.5.3 . X X X X X X X X X X X X X X X X X = m m m N m m m N 0 7 7 I 0 8 5 e u z 0.q.i.",
"9.9.9.9.9.h.W.T.B.,.,.#.#.H.J.C.K.K.K.K.K.U.5.% . X X X X X X X X X X X X X X X X X = m m m m n N N , 7 I U ` B 0 8 H u z 0.q.i.",
"9.9.9.9.9.A.{.L.K.C.K.M.%.[ #.4.B.K.K.K.K.U.5.3 . X X X X X X X X X X X X X X X X X = M m m m 2 0 7 7 q } @.] C 2 8 H u z 0.9.q.",
"q.9.q.9.p.`.[.K.K.K.C._.Q.,.#.@.%.M.B.M.C.U.5.3 . X X X X X X X X X X X X X X X X X = N N N 2 8 0 I I } @.#.[ C N 8 6 y z 0.9.9.",
"i.q.r.e.b.[.I.K.K.C.L.%X=XT.C.,.[ [ @.@.<.V.5.3 . X X X X X X X X X X X X X X X X X % 7 7 7 7 7 T @.@.@.@.@.` M m N 0 J c 0.9.9.",
"r.w.i.a.F.!.K.K.K.L.$X:X).K.K.B.,.%.,.,.#.#.;.% . X X X X X X X X X X X X X X X X X 3 R R R R Q +.{ @.@.@.' C N m m 2 9 l 0.9.9.",
"q.q.r.j.'.T.K.K.K.).:X;X!.C.K.K.C.C.C.C.2.>.X.# . X X X X X X X X X X X X X X X X . , 2.J.J.J.M.#.{ @.@.] C N m m m , 9 l 0.9.9.",
"r.q.9.9.z.J.B.C.!.;X:X~.K.K.K.K.K.K.K.K.K.K.$.# . X X X X X X X X X X X X X X X X . b 1.V.B.C.m.#.[ ' ' A N m m m 2 9 t z 0.9.9.",
"q.9.9.9.g E #.N.~.>X$XC.K.K.K.K.K.K.K.K.K.U.5.3 . X X X X X X X X X X X X X X X X . b #.#.#.#.#.@._ m m m m m m 2 7 t u z 0.9.9.",
"9.9.q.9.j s E :.J.XX~.C.K.K.K.K.K.K.K.K.K.U.5.3 . X X X X X X X X X o X X X X X X X N #.] ' ' ' _ M N N m m N 2 0 H w u z 0.9.9.",
"9.9.9.9.x i F ( #.&.2.C.K.K.K.K.K.K.K.K.K.U.5.3 . X X X X X X o X O + + + + + + O + B @.A M M M M m m m N N 0 9 H e w w z 0.9.9.",
"9.9.9.9.9.h u P ..{ { <.V.B.B.K.K.K.K.K.K.U.5.% . X X X X X O + + + & + + + + + + + m _ n N N N N N N N 0 8 9 e y y y w z 0.9.9.",
"9.9.9.9.9.9.z w P ..O.O.O.@.#.m.C.K.K.K.C.B.+.# . X X O + + + + + + + + + + + + + + : M m m m N 2 0 9 9 9 9 5 y u w w w z 0.9.9.",
"9.9.9.9.9.9.x i a d P s P ( { #.,.B.B.B.<.#.X.# . X O + + & & & & & & & & & & & & & : N N N N 0 9 H e e s P p a p w u i z 0.9.9.",
"9.9.9.9.9.9.9.v j u w w e P ( O...o.o.o.@.{ X.# . o + & & - > > > > > > > > > > > > > 0 0 9 9 9 H e r e p p a p p w f x 9.9.9.9.",
"9.9.9.9.9.9.9.0.z i u a e r s s s s p s E @.} $ @ & & - > 1 1 1 1 1 1 1 1 1 1 1 1 , 0 9 9 t y y a y r e a w u d i u j 0.9.9.9.9.",
"9.9.9.9.9.9.9.9.9.x x x i w w w a w w y F G G D D L 9 > 1 1 1 1 1 1 1 1 1 , , L D G F r r p w w u w w w w w u c x x x 9.9.9.9.9.",
"9.9.9.9.9.9.9.9.9.9.9.9.j u i d d u y e e r r F G F e D , , , , , , , , , t e F F r r r s a w w w w w w w u i x 0.9.9.9.9.9.9.9.",
"9.9.9.9.9.9.9.9.9.9.9.9.x x v w.v j w w w y y y y y u y e e e e e e e e e w u y y y w p a w w w w w w w u j x 9.9.9.9.9.9.9.9.9.",
"9.9.9.9.9.9.9.9.9.9.9.9.9.9.9.q.0.z u u u u u u u u u u u u u u u u u u u u u u u u u u u u u u u u u u u z 0.9.9.9.9.9.9.9.9.9."
};
