/* XPM */
static char *a89cf3202c574853a90ef73f0e038746[] = {
/* columns rows colors chars-per-pixel */
"64 64 19 1 ",
"  c #2D7F36",
". c #2F8136",
"X c #318236",
"o c #348335",
"O c #338435",
"+ c #378635",
"@ c #388734",
"# c #3B8933",
"$ c #3C8933",
"% c #3F8C33",
"& c #3B8934",
"* c #3C8934",
"= c #408B32",
"- c #438F32",
"; c #448F32",
": c #479132",
"> c #489231",
", c #4B9431",
"< c #4C9431",
/* pixels */
"...$:@............................X;-X..........................",
"XX.$>&..........................X.X-:X.........................X",
"@-@O-&.X.......................X$-X@-X.X.......................+",
"O->+OX@-+......................X&>-XXX$$X......................X",
".$,*.@:-O...XX..X#+.............X;:+.$:&X...XX..+$X.............",
".+&+.$-O....@-+.@>&.............X+@XX;#X...X$$XX-;X.............",
".....++.....+:&.-<@.................X+X....X$:X+>;X.............",
".............+oX--X.......X&X...............X@X+-&X.......+@....",
"$+..............+X........X--XX&$X.............X+.........@;&.+$",
"-+........................X&;+&:$X........................X%=X-:",
"+.....++...........@+......X+O-*X....X@X..........X@X......X+@;@",
"......$-+.++......X--X.+O.....+X.....X:$XX@X......+:#.X@X....o+.",
"......+-&+:&.......@;++;+.............$;+$;O......X$-X--X.......",
"....+$+++$>&......+$$X--X..........X&#+@+::O.....X#$@+;#........",
"....+:-+.-;+......@;-X++...........X$>$XX:$X.....X%:&X@X........",
".....+-+.@+........@$X..............X$$XX#X.......X$&...........",
"................................................................",
"...++.............................X+X...........................",
"..+-&.........................+X..&-+........................O+.",
"@X#>*..........+X............X-$+X;:+.........X+.............@;&",
",&&:+.........X%$X.+X.........$>:+--X.........+-@.X+X........+->",
"-++&X..........->++-@.........X$-O#+..........+>;X&-X.........+-",
"XXX............&-+$-+..........XX.X...........X%$+:$X..........X",
"......XX........X.&+..................+X.........X*X............",
".....X-&..........X..................@-O..........X.............",
".....$:+............................X:-X........................",
".....&&X............................X-+.........................",
".....X...............................X..........................",
"................................................................",
"................................................................",
"................................................................",
"...XX..............................X............................",
"...#*X............................X$+...........................",
"...$>@........................... X;;X..........................",
"XXX#>*.........................XXXX-:X.........................X",
"&:#X%&.XX......................X%;++-X.XX......................+",
"X->@XX#-+........XX.............+>;XXX--X........X.............X",
".&>&.&:$X...XXX.X$+.............X;:OX-;@X...XX..+$X.............",
".X+X.$-X....&-+.$>&..............++XX;@X...X=-XX;:X.............",
".....XX.....+;&.->@........X........X+X....X&;X+>;X.............",
"XX...........OXX-$X.......X*+...X...........X+.+-+........+*X..X",
"-+..............+X........X--XX$$X.............X+.........+:$.+-",
"-O....X............X.......+-+$:#.....X............X......X$$+-;",
"X.....@+..........X&+.......+O-&X....X&X..........+&X......XX@-+",
"......$:+.@+......X-;X.&+.....+X.....X:%XX&X......+:$.+&X....X+.",
"....X.O-&@:&......X@;+&:+...........XX&-+$;O......X$-O--X.......",
"....+-++X->&......&$#X-$X..........X*$+++>:O.....X$$++-@........",
"....+;;+.--O......+;-X+X...........X&>$XX:&X.....X$:&X+X........",
".....+$+.++........+#X..............X#&XX@X.......X#@...........",
"................................................................",
"...++.............................X@X...........................",
"..+-&........................X@X..$;+........................O@.",
"$O$>*.........X+O............X;-&X;:+.........X+X............@:$",
",&&-+..........--X.+O.........&>>+-$X.........+;&.X+X........X->",
"$+++...........->++;@.........X#*X@X..........+:;X$-X.........+$",
"...............@$O$-o.........................X*&+:$X...........",
"......O+..........@+..................+X.........X&X............",
".....+-*............................X#-O........................",
".....$:+............................X:%X........................",
".....&&.............................X$X.........................",
"................................................................",
"................................................................",
"................................................................",
"................................................................"
};
