/* XPM */
static char *d7f31252c072492db7b778b7e3838363[] = {
/* columns rows colors chars-per-pixel */
"64 66 176 2 ",
"   c #0B0C1E",
".  c #121D1F",
"X  c #1C1C1D",
"o  c #261D17",
"O  c #211E1A",
"+  c #2A1D1B",
"@  c #321F1A",
"#  c #1A201E",
"$  c #25261E",
"%  c #2D221D",
"&  c #2B291D",
"*  c #352216",
"=  c #3C2513",
"-  c #3D2814",
";  c #33231B",
":  c #081322",
">  c #061F25",
",  c #0E1D23",
"<  c #101C22",
"1  c #191E21",
"2  c #0D2326",
"3  c #0D2927",
"4  c #06252A",
"5  c #0B2628",
"6  c #052C2E",
"7  c #0B2C2A",
"8  c #122424",
"9  c #1B2522",
"0  c #132B26",
"q  c #1B2B25",
"w  c #112F28",
"e  c #0D3026",
"r  c #0A332E",
"t  c #073C2F",
"y  c #0B3C2C",
"u  c #163326",
"i  c #1A3226",
"p  c #1B3D26",
"a  c #123629",
"s  c #18332A",
"d  c #153B2A",
"f  c #1A3C29",
"g  c #063432",
"h  c #093631",
"j  c #073D34",
"k  c #083B32",
"l  c #232726",
"z  c #292320",
"x  c #242D25",
"c  c #2A2D22",
"v  c #302424",
"b  c #322923",
"n  c #233326",
"m  c #2C3423",
"M  c #223D27",
"N  c #263728",
"B  c #263A29",
"V  c #2B3C29",
"C  c #32352A",
"Z  c #323C2A",
"A  c #383929",
"S  c #402612",
"D  c #432814",
"F  c #4D2C16",
"G  c #41251A",
"H  c #522E16",
"J  c #502D1B",
"K  c #582E18",
"L  c #573017",
"P  c #5B321A",
"I  c #63341B",
"U  c #67391F",
"Y  c #6C391D",
"T  c #4A3628",
"R  c #403D2C",
"E  c #54392A",
"W  c #6A3E24",
"Q  c #0B442D",
"!  c #0A4C2E",
"~  c #12422E",
"^  c #1A432B",
"/  c #174D2C",
"(  c #1E4C2C",
")  c #0A552F",
"_  c #0B5C2F",
"`  c #1D522F",
"'  c #1F5C2F",
"]  c #074336",
"[  c #084333",
"{  c #074A35",
"}  c #084C33",
"|  c #064538",
" . c #054A39",
".. c #124431",
"X. c #095432",
"o. c #0A5A30",
"O. c #115B30",
"+. c #26412A",
"@. c #2D422B",
"#. c #234D2A",
"$. c #2E4B2B",
"%. c #364227",
"&. c #31452C",
"*. c #324A2C",
"=. c #394B2B",
"-. c #21542D",
";. c #2F542F",
":. c #245C2E",
">. c #2C5B2E",
",. c #30552F",
"<. c #3D522A",
"1. c #315A2F",
"2. c #245F30",
"3. c #2F5C30",
"4. c #305D30",
"5. c #0B612E",
"6. c #0A6130",
"7. c #26622F",
"8. c #2A652E",
"9. c #2A692F",
"0. c #346029",
"q. c #3F622C",
"w. c #34692C",
"e. c #35732E",
"r. c #3B732D",
"t. c #3F782F",
"y. c #266430",
"u. c #2C6531",
"i. c #266A33",
"p. c #2C6C31",
"a. c #306331",
"s. c #306C32",
"d. c #3A6E30",
"f. c #2D7433",
"g. c #2E7C35",
"h. c #327132",
"j. c #347A33",
"k. c #3A7B32",
"l. c #6F4125",
"z. c #714529",
"x. c #44682C",
"c. c #43742E",
"v. c #417E2D",
"b. c #2F8136",
"n. c #2F8837",
"m. c #2E8438",
"M. c #2E8838",
"N. c #328335",
"B. c #318336",
"V. c #338435",
"C. c #318737",
"Z. c #348535",
"A. c #3A8633",
"S. c #388734",
"D. c #3B8933",
"F. c #3D8A33",
"G. c #3F8C33",
"H. c #3A8834",
"J. c #3C8A34",
"K. c #3C8B34",
"L. c #318A38",
"P. c #329039",
"I. c #42822F",
"U. c #478B2F",
"Y. c #448130",
"T. c #438D32",
"R. c #438E32",
"E. c #458F32",
"W. c #488B31",
"Q. c #469032",
"!. c #459232",
"~. c #499231",
"^. c #4B9431",
"/. c #4D9530",
"(. c #529E31",
"). c #4DA134",
/* pixels */
"b.b.b.b.b.b.b.b.b.b.b.b.b.b.B.B.b.b.b.b.b.b.b.b.V.R.b.b.b.b.b.b.b.b.b.b.b.b.b.b.b.b.b.B.b.b.b.b.b.b.b.b.b.G.Z.b.b.b.b.b.b.b.b.b.",
"b.b.b.b.b.b.b.b.b.b.b.b.b.V.Q.Z.b.b.b.b.b.b.b.b.b.b.b.b.b.b.b.b.b.b.b.b.b.b.b.b.b.b.G.R.b.b.b.b.b.b.b.b.b.b.b.b.b.b.b.b.b.b.b.b.",
"b.b.b.b.b.b.b.b.b.b.b.b.b.R.E.B.b.b.b.b.b.b.b.b.b.b.b.b.b.b.b.b.b.b.b.b.b.b.b.b.b.Z.~.S.b.b.b.b.b.b.b.b.b.b.b.b.b.b.b.b.b.b.b.b.",
"b.b.b.b.b.b.b.b.b.b.b.b.b.S.B.b.b.b.b.b.b.b.b.b.b.b.b.b.b.b.b.b.b.b.b.b.b.b.b.b.b.V.S.b.b.b.b.b.b.b.b.b.b.b.b.b.b.b.b.b.b.b.b.b.",
"b.b.b.b.b.b.b.b.b.b.b.b.b.b.b.b.b.b.b.b.b.b.b.b.b.b.b.b.b.b.b.b.b.b.b.b.b.b.b.b.b.b.b.b.b.b.b.b.b.b.b.b.b.b.b.b.b.b.b.b.b.b.b.b.",
"b.b.b.b.b.b.b.b.b.b.b.b.b.b.b.b.b.b.b.b.b.b.b.b.b.b.b.B.B.B.B.B.B.B.b.b.b.b.b.b.b.b.b.b.b.b.b.b.b.b.b.b.b.b.b.b.b.b.b.b.b.b.b.b.",
"b.b.b.b.b.b.b.b.b.b.b.b.b.b.b.b.b.b.b.b.b.b.b.b.b.V.b.g.#.~ O.~ f g.B.b.b.b.b.b.b.b.b.b.b.b.b.b.b.b.b.b.b.b.b.b.b.b.b.b.b.b.b.b.",
"b.b.b.b.b.b.b.b.b.b.b.B.B.b.b.b.b.b.b.b.b.b.b.B.b.g.2.a ! ) _ ) Q d 2.B.V.b.b.B.B.b.b.b.b.b.b.b.b.b.b.b.b.b.b.b.b.b.b.b.b.b.b.b.",
"b.b.b.b.b.b.b.b.b.b.b.F.R.b.b.b.b.b.b.b.b.b.V.B.p.a Q _ _ _ _ _ _ _ ! ( f.j.g.B.E.V.b.b.b.b.b.b.b.b.b.b.b.b.b.b.b.b.b.b.b.b.b.b.",
"b.b.b.b.b.b.b.b.b.b.g.J./.S.b.b.b.b.b.b.V.L.u.` / X._ _ _ _ _ _ _ _ _ Q / ' ` f.^.Q.b.b.b.b.b.b.b.b.b.b.b.b.b.b.b.b.b.b.b.b.b.b.",
"b.b.b.b.b.b.b.b.B.F.Z.B.~.H.g.b.b.b.B.g.y.:.a t _ _ _ _ _ _ _ _ _ _ _ o.} ] 6 y.R.Q.b.g.b.b.b.b.b.b.b.b.b.b.b.b.b.b.b.b.b.b.b.b.",
"b.b.b.b.b.b.b.b.B.R.~.Z.Z.B.H.F.B.b.B.B.d 4 } 5._ _ _ _ _ _ _ _ _ _ _ _ } r >.A.B.Z.V.R.Z.b.b.b.b.b.b.b.b.b.b.b.b.b.b.b.b.b.b.b.",
"b.b.b.b.b.b.b.b.b.V./.R.g.H.~.F.b.b.b.V.:.7 j } _ o.X.! ! o._ _ _ _ _ _ _ ! #.U.V.B.Q.Q.V.b.b.b.b.b.b.b.H.Z.b.b.b.b.b.b.b.b.b.b.",
"b.b.b.b.b.b.b.b.b.B.Z.B.g.R.F.b.b.b.b.H.I.^ j | { { k r X._ _ _ _ _ _ _ _ o.! p ( Z.Q.V.b.b.b.B.R.R.g.Z./.H.b.b.b.b.b.b.b.b.b.b.",
"b.b.b.b.B.b.b.b.b.b.b.b.b.B.b.b.b.b.b.V.Q.#.2 r 5 r , Q 5._ _ _ _ X.} X._ _ _ ) Q -.9.g.g.b.b.b.S.R.g.J./.Z.b.b.b.b.b.b.b.B.b.b.",
"b.b.b.b.G.F.b.b.Z.Z.b.b.b.b.b.b.b.V.V.f.p.d h j 2 k [ _ _ _ o._ _ X.] j X.X.X.o.| k 3 8 :.V.b.b.b.B.b.H.D.b.b.b.b.b.b.b.b.R.D.b.",
"b.b.b.b.H.~.Z.Z.~.F.b.b.b.b.b.b.V.g.:.d 2 k | | X.X.o.X.} X.| o._ o.[ 7 ] ] | | k k 6 3 8.V.b.b.b.b.b.b.b.b.b.b.b.b.b.b.b.J.~.V.",
"b.b.b.b.b.H.Z.Q.F.b.b.b.b.b.Z.V.g.f 5 h k ) } X._ _ ! } ! 7 h X._ _ o.k r 5 r r e a f 8.L.b.b.b.b.b.b.b.b.b.Z.b.b.b.b.b.b.b.H.B.",
"b.H.b.b.b.b.b.S.b.b.b.b.b.b.Q.R.g.f 7 7 [ o._ _ _ 6.y , 7 7 [ _ _ _ _ { k r h 7 . u w.).Z.b.H.B.b.b.b.b.b.b.Q.R.b.B.S.b.b.b.b.b.",
"R.Q.b.b.b.b.b.b.b.b.b.b.b.b.Z.~.p.~ , 7 X.X._ _ _ _ ) y h } o._ _ _ _ X.X.} | { 2 2 a 0.e.p.E.Z.b.b.b.b.b.b.Z.Q.Z.E.R.b.b.b.b.b.",
"~.Z.b.b.b.b.b.b.b.b.b.b.H.Q.Z.f...t 3 y } X.X._ _ _ _ o.X._ _ X.o._ X.} _ } | o.y 2 g k d i v.S.b.b.b.b.b.J.R.Z.Z.Q.V.b.b.b.b.b.",
"B.b.b.b.b.b.b.b.b.b.b.b.g.I.w.a [ X.k r | Q r k ! e 5._ _ _ X.[ r X.X.h k } { X.} 2 r 5 > #.B.b.b.b.b.b.b.B.E.R.B.B.b.b.b.b.b.b.",
"b.b.b.b.b.b.b.b.b.b.b.V.-.8 k X._ X.k , h r 3 ] ! 3 Q _ _ _ _ k 5 } o.y 7 ] k 7 k 2 r k , -.b.V.B.b.b.b.b.b.B.B.b.b.b.b.b.b.b.b.",
"b.b.b.b.b.b.b.b.b.b.b.V.f.r g r { ] r h h k } o.o.Q 7 X._ _ o.2 7 X._ X.h , 2 7 3 5 y o.k 7 f 7.B.L.V.V.B.b.b.b.b.b.b.b.b.b.b.b.",
"b.b.b.b.b.b.b.Z.b.g.B.R.Q.:.3 , r 7 t X.{ X._ _ _ } h r ! o.{ 2 } _ _ X.} [ r 7 7 { o.X.|  .k 5 ( :.p.f.g.b.b.b.b.b.b.b.b.b.b.b.",
"b.b.b.b.b.b.B.Q.G.Z.H.(.e.` w 3 7 7 X.5.o._ X._ _ | [ 2 r Q 7 7 ) _ _ _ X.{ j j k } o._ } k ] | g 7 d 0 :.L.b.b.b.b.b.b.b.b.b.b.",
"b.b.b.b.b.b.b.H./.Q.B.r.^ 6 7 r ] } ) } 5.X.| { _ X.X.k r 7 7 X._ _ _ _ X.h } { | | o._ k 7 k k j k 6 M j.m.H.B.b.b.b.b.b.b.b.b.",
"b.b.b.b.b.b.b.b.S.Z.:.0 h | j | X.6.! Q o.| ] } _ _ _ X.j k X._ _ _ _ _ _ } y ) X.} _ o.X.r 5 7 k 7 7 q 8.J.~.Z.b.b.b.b.b.b.b.b.",
"b.b.b.b.b.B.V.g.( u r j { X.X.o._ { k y { r } _ _ _ _ } | | { X._ _ _ _ _ o.7 y } o.o._ _ y 2 7 7 3 2 8 :.Q.D.b.b.b.b.b.b.b.b.b.",
"b.b.b.b.b.g.y.0 r j j } o.o.o.o.X.j h r 7 7 X._ _ _ _ o.} | | X.} X.} _ _ _ 7 h j [ } } _ X.] 2 7 > u g.b.B.b.b.b.b.b.b.b.b.b.b.",
"b.b.b.b.g.i.^ 5 h ] ] ] j [ | { ] r r 7 2 7 X._ _ _ _ X.} k [ { | | { _ o.Q y k 7 k j [ { { ] h 2 8 ( f.V.b.b.b.b.b.b.b.b.b.b.b.",
"b.b.b.b.b.V.-.3 7 k r r h r j k r 7 7 7 2 r o._ _ _ o.X.5 3 h k k | | ] } X.3 7 7 7 r h k h k | h d g.B.b.b.b.b.b.b.b.b.b.b.b.b.",
"b.b.b.b.b.V.-.8 5 7 7 7 7 7 r r 7 7 7 r 3 r o._ _ X. .y , k h 7 7 7 r j j | r 3 7 7 7 r r 7 7 h k 5 ^ V.b.b.b.b.b.b.b.b.b.b.b.b.",
"b.b.b.b.b.b.V.y.u , 7 7 7 7 7 7 7 7 7 k 7 h Q ) X.X.h 5 7 ] ] 7 7 , 3 7 7 7 2 7 7 7 3 7 7 3 2 , , 0 -.V.b.b.b.b.b.b.b.b.b.b.b.b.",
"b.b.b.b.b.b.b.V.f.-., 2 7 7 7 7 7 7 h ] 7 2 h | | k , 7 k } { k 7 7 7 7 h k h j 7 7 7 2 < 2 , r r 3 #.V.b.b.b.b.b.b.b.b.b.b.b.b.",
"b.b.b.b.b.b.b.B.b.-.5 7 3 2 7 7 7 ] ] k 7 , h 7 j 7 3 r } o.X.| k 7 7 k | X.X.k 7 7 7 7 3 7 7 7 ] j r ..a :.B.b.b.b.b.b.b.b.b.b.",
"b.b.b.b.b.b.b.B.p.7 j ] r 2 7 [ X.| } } j r 7 r j ] X.) _ _ Q k 3 7 r j ] { o.} k , 7 ] ] h j k r | j > , y.V.b.b.b.b.b.b.b.b.b.",
"b.b.b.b.b.b.V.V.:.2 k k 3 k ] { k ] ] k k 7 7 k r ] X.X.X._ o.r 5 2 7 k k ] { X.] 7 3 r k ] | j h 7 7 7 ( g.B.b.b.b.b.b.b.b.b.b.",
"b.b.b.b.b.L.f.:.7 ] ] 7 7 k ] j r k r 3 7 7 7 7 r k ] | X._ o.k 3 7 7 7 7 k r j | j 3 3 r r h j 7 2   p V.b.b.b.b.b.b.b.b.b.b.b.",
"b.b.b.V.B.7.u 5 ] j 5 2 r r r 7 7 7 7 3 3 7 7 7 r r j | | X.} k 3 , 7 , 7 7 r r k k 7 , 7 7 7 7 5 0 ^ y.m.b.b.b.b.b.b.b.b.b.b.b.",
"b.b.B.i.^ 3 5 r k h 5 2 , 3 7 2 5 2 2 3 7 r 7 7 3 7 j k j } k k 2 2 7 , 2 7 r 7 7 r 5 2 r 7 2 , a -.L.M.S.Z.b.b.b.b.b.b.b.b.b.b.",
"b.b.b.^ : 7 7 7 7 r 7 7 7 , , 2 , 3 7 7 7 k r 7 , 3 7 7 k | k 7 5 7 k 7 , 2 3 7 2 3 5 h ] 7 ( +.*.1.>.1.q.j.b.b.b.b.b.b.b.b.b.b.",
"b.b.b.f.-.0 , 7 , 2 3 2 r 3 3 7 7 7 7 7 7 j j r 3 , 7 7 k j | 7 , r ] r 7 3 , , , 2 2 r ] j f &.=.=.&.%.x.B.b.b.b.b.b.b.b.b.b.b.",
"b.b.b.n.F.j.y.u B 9 9 8 3 7 h 7 7 7 7 r k ] ] j 7 , 2 2 7 h j 7 , ] ] k 7 7 7 7 7 7 7 r | | [ q V &.&.&.h.V.b.b.b.b.b.b.b.G.S.b.",
"b.b.b.b.J./.S.B.Y.&.N q q r | r h r r ] ] j j r 7 7 2 2 2 7 7 , 3 | ] ] r 7 7 k r k r ] { } X.} 7 q @.a.b.b.b.b.b.b.b.b.b.G.~.B.",
"b.b.b.b.b.J.Z.Q.R.,.*.V 0 r ] { { | ] | ] r r 7 7 7 r r 3 2 3 2 r ] | } | r 7 7 7 r k ] j X.} | | 5 p P.n.b.Z.b.b.b.b.b.b.b.F.B.",
"b.Z.b.b.b.b.b.J.V.u.*.n 2 j { _ X.X.] ] k 7 7 7 7 7 r k r 7 3 r j ] } o.{ k 7 7 7 7 7 r r ] h k k 6 a 8.s.g.Q.J.b.B.Z.b.b.b.b.b.",
"G.Q.b.b.b.n.n.p.4.&.V 0 r j { } [ { h r r 0 2 7 2 7 r k k h r ] ] { } X.{ j 7 7 7 2 3 7 2 5 7 7 3 8 s x &.1.d.c.V.R.E.b.b.b.b.b.",
"~.Z.b.b.n.s.1.&.&.*.@.q 7 k | j r j 7 7 5 p B 8 O 2 5 7 k k k ] ] | | } { r r 2 8 n 0 8 , x q 8 8 q &.&.&.&.&.&.a.~.Z.b.b.b.b.b.",
"Z.b.b.n.s.&.&.&.&.&.*.n 2 j k 7 7 r 3 2 l &.,.c * % # 7 7 7 7 r r ] h h j j 7 < B *.%.@.n &.&.N V @.*.&.&.*.=.=.*.Z.b.B.b.b.b.b.",
"b.b.b.n.a.&.*.&.&.&.*.n 2 7 7 3 3 2 q @.A *.;.m D K $ 2 2 2 3 7 7 r r r r j k 8 $.*.*.*.&.*.*.*.*.*.&.&.&.&.*.h.g.b.b.B.b.b.b.b.",
"b.b.b.b.g.g.g.,.*.*.&.x , 8 8 B V V &.&.&.*.@.c D P ; X 1 T b 3 , 7 7 7 7 h r 8 Z R &.&.&.&.&.&.&.&.&.*.*.s.g.b.n.b.b.B.b.b.b.b.",
"b.b.b.b.b.b.b.B.b.f.1.$.B *.&.&.*.*.*.@.x v @ + D P = * E l.I ; ; 0 , 2 > 4 2 < A &.&.&.&.&.&.&.&.&.&.1.b.n.b.b.b.b.b.b.b.b.b.b.",
"b.b.b.b.b.b.B.Q.H.V.S.x.*.&.&.&.&.&.*.B i & * @ D P = F z.W I D P E % ; z % X 1 =.*.&.&.&.&.&.&.&.&.*.&.4.b.b.b.b.b.b.b.b.b.b.b.",
"b.b.b.b.b.b.b.J./.E.1.=.*.&.&.&.&.&.&.*.=.l + = H F = F z.W I D D l.L H Y Y G * %.*.&.&.&.&.&.&.&.&.*.=.&.3.A.V.b.b.b.b.b.b.b.b.",
"b.b.b.b.b.b.b.b.J.k.&.*.&.&.&.&.&.&.&.*.C * = K F * = F z.W H = D I J * I P D o 9 &.*.&.&.&.&.a.s.3.&.=.&.Z I.S.b.b.b.b.b.b.b.b.",
"b.b.b.b.b.b.b.b.g.;.&.&.&.&.&.&.&.&.*.V ; = S % X X = F W U D = = H I G + X X c V &.&.&.&.&.&.4.n.b.s.h.s.t.A.B.b.b.b.b.b.b.b.b.",
"b.b.b.b.b.b.b.b.g.h.f.f.g.,.=.*.*.&.&.@.m $ c B C v O H I H = X X = F = v C B &.&.&.*.*.&.&.&.&.1.n.n.n.n.S.B.b.b.b.b.b.b.b.b.b.",
"b.b.b.b.b.b.b.b.b.n.n.n.n.R.W.j.p.&.&.*.@.@.@.*.=.C X F H = c +.V 9 O = ; Z *.*.$.*.<.&.&.&.&.&.*.g.b.b.b.b.b.b.b.b.b.b.b.b.b.b.",
"b.b.b.b.b.b.b.b.b.b.b.b.b.J.k.*.&.&.&.&.&.&.&.&.&.*.B & - m @.*.&.&.V 9 9 V *.p.b.Z.k.*.,.*.&.&.&.,.b.b.b.b.b.b.b.b.b.b.b.b.b.b.",
"b.b.b.b.b.b.b.b.b.b.b.b.b.b.a.,.,.,.,.,.,.,.,.1.*.&.*.&.V @.&.&.,.,.&.&.&.&.&.*.h.n.b.b.n.a.,.1.,.a.b.b.b.b.b.b.b.b.b.b.b.b.b.b.",
"b.b.b.b.b.b.b.b.b.b.b.b.b.b.b.n.n.n.n.n.n.n.n.s.&.&.&.&.,.a.4.a.b.g.4.a.*.&.&.Z *.b.b.b.b.b.n.n.n.b.b.b.b.b.b.b.b.b.b.b.b.b.b.b.",
"b.b.b.b.b.b.b.b.b.b.b.b.b.b.b.b.b.b.b.b.b.b.b.a.a.a.a.a.f.n.n.n.b.b.n.n.f.a.a.a.s.b.b.b.b.b.b.b.b.b.b.b.b.b.b.b.b.b.b.b.b.b.b.b.",
"b.b.b.b.b.b.b.b.b.b.b.b.b.b.b.b.b.b.b.b.b.b.b.n.n.n.n.n.b.b.b.b.b.b.b.b.n.n.n.n.n.b.b.b.b.b.b.b.b.b.b.b.b.b.b.b.b.b.b.b.b.b.b.b.",
"b.b.b.b.b.b.b.b.b.b.b.H.H.b.b.b.b.b.b.b.b.b.b.b.b.b.b.b.b.b.b.b.b.b.b.b.b.b.b.B.F.B.b.b.b.b.b.b.b.b.b.b.b.b.b.b.b.b.b.b.b.b.b.b.",
"b.b.b.b.b.b.b.b.b.b.b.J./.Z.b.b.b.b.b.b.b.b.b.b.b.b.b.b.b.b.b.b.b.b.b.b.b.b.b.B.~.R.b.b.b.b.b.b.b.b.b.b.b.b.b.b.b.b.b.b.b.b.b.b."
};
