/* XPM */
static char *_b3ae99ca1fa4020a6992fc78c329d4e[] = {
/* columns rows colors chars-per-pixel */
"64 64 224 2 ",
"   c #1B7838",
".  c #247B2F",
"X  c #2B7F2D",
"o  c #317F2F",
"O  c #3A6E3F",
"+  c #247C34",
"@  c #2B7F35",
"#  c #24753D",
"$  c #247C3A",
"%  c #2C7E3A",
"&  c #357F36",
"*  c #3C7E36",
"=  c #317E3B",
"-  c #3F7D38",
";  c #497D36",
":  c #4B7A38",
">  c #567938",
",  c #7A6D3B",
"<  c #687838",
"1  c #73723A",
"2  c #767738",
"3  c #7C723B",
"4  c #0B754D",
"5  c #1C7942",
"6  c #187953",
"7  c #277747",
"8  c #237C43",
"9  c #2B7C43",
"0  c #2A7C4A",
"q  c #357B42",
"w  c #39774D",
"e  c #3A7949",
"r  c #2C6C59",
"t  c #396E5D",
"y  c #237859",
"u  c #3B7256",
"i  c #137C66",
"p  c #1A7777",
"a  c #396967",
"s  c #237B61",
"d  c #437B4C",
"f  c #4C7F4D",
"g  c #477755",
"h  c #43725A",
"j  c #4C735E",
"k  c #567F54",
"l  c #606C42",
"z  c #486D68",
"x  c #536D6D",
"c  c #4F7261",
"v  c #547265",
"b  c #5C7665",
"n  c #4C6872",
"m  c #576974",
"M  c #5E7172",
"N  c #647868",
"B  c #747B6F",
"V  c #686C7B",
"C  c #6B7671",
"Z  c #787A75",
"A  c #BC5F3E",
"S  c #876C3D",
"D  c #94693E",
"F  c #9C6B3D",
"G  c #86733A",
"H  c #98753B",
"J  c #A7673E",
"K  c #B5633D",
"L  c #A6733F",
"P  c #D75A3F",
"I  c #876843",
"U  c #9D6C41",
"Y  c #A46141",
"T  c #AD7241",
"R  c #B87246",
"E  c #857D79",
"W  c #DB5E41",
"Q  c #F35943",
"!  c #DC6740",
"~  c #C97646",
"^  c #D97C4A",
"/  c #F96447",
"(  c #FE6C4B",
")  c #E9774A",
"_  c #FF764C",
"`  c #1D8535",
"'  c #2E812F",
"]  c #34842D",
"[  c #36882F",
"{  c #3D8A2E",
"}  c #258335",
"|  c #2E8136",
" . c #2D813A",
".. c #338335",
"X. c #388634",
"o. c #358833",
"O. c #3C8A33",
"+. c #32833A",
"@. c #3C833C",
"#. c #35893C",
"$. c #3B8D3B",
"%. c #4D8D1D",
"&. c #5B911E",
"*. c #789D0C",
"=. c #689617",
"-. c #4B8D23",
";. c #438E2E",
":. c #4A9027",
">. c #43912F",
",. c #4A932E",
"<. c #5B9121",
"1. c #428D32",
"2. c #478837",
"3. c #438C3C",
"4. c #469031",
"5. c #499231",
"6. c #4B933E",
"7. c #669525",
"8. c #1D814C",
"9. c #1C865B",
"0. c #2C8343",
"q. c #26864E",
"w. c #2A824B",
"e. c #328444",
"r. c #368846",
"t. c #3B8A44",
"y. c #34844B",
"u. c #3C8A4A",
"i. c #238554",
"p. c #2C8253",
"a. c #278957",
"s. c #348552",
"d. c #398752",
"f. c #398A56",
"g. c #36865C",
"h. c #2D905A",
"j. c #369452",
"k. c #188669",
"l. c #168D75",
"z. c #1F9476",
"x. c #298B68",
"c. c #368764",
"v. c #3B8967",
"b. c #378868",
"n. c #3A896C",
"m. c #3C8A73",
"M. c #388879",
"N. c #299173",
"B. c #468447",
"V. c #499246",
"C. c #428D56",
"Z. c #4E9552",
"A. c #418C69",
"S. c #4A9267",
"D. c #468E79",
"F. c #4B9475",
"G. c #4B977B",
"H. c #58987C",
"J. c #95A616",
"K. c #9FA729",
"L. c #A2A82A",
"P. c #8C8177",
"I. c #928476",
"U. c #9B857B",
"Y. c #B39375",
"T. c #EA844E",
"R. c #F38951",
"E. c #167A87",
"W. c #6D628D",
"Q. c #7E6B8D",
"!. c #887487",
"~. c #947986",
"^. c #836B90",
"/. c #1A888A",
"(. c #0E918A",
"). c #0D9697",
"_. c #149595",
"`. c #388686",
"'. c #24938B",
"]. c #289698",
"[. c #188BA1",
"{. c #0093A1",
"}. c #139AA4",
"|. c #189BA6",
" X c #239AA4",
".X c #32A1A1",
"XX c #448E86",
"oX c #489687",
"OX c #529383",
"+X c #58958D",
"@X c #478E93",
"#X c #4A9294",
"$X c #5B9692",
"%X c #599898",
"&X c #639D85",
"*X c #699D9B",
"=X c #51A28E",
"-X c #62A487",
";X c #64A68D",
":X c #4B92A4",
">X c #5797A7",
",X c #5898B6",
"<X c #6A9CA6",
"1X c #719EB4",
"2X c #77A2AA",
"3X c #78A2B7",
"4X c #5C9BC7",
"5X c #619DC6",
"6X c #6FA1C5",
"7X c #77A3C7",
"8X c #6EA2D4",
"9X c #6BA2DB",
"0X c #72A3D8",
"qX c #72A4E2",
"wX c #A28382",
"eX c #ADAF9F",
"rX c #87A5A6",
"tX c #83A4AC",
"yX c #96A9A7",
"uX c #98AAAD",
"iX c #8BA7B7",
"pX c #94AAB7",
"aX c #A7AEAB",
"sX c #CAB683",
/* pixels */
"| | | | | | | | | ..X.X...| | | ..1.1...| | | | | X.1...| | ..O.O...| | | | | | ....| ..X.....| | ..X.4.O...| | | | ..O.O.| | | ",
"| | | | | | | | | | | | ......| ......| | | | | ..1.1...| | ..X.O...| | | | | | ....| | | | ......| ..X...| | | | | ..1.O.| | | ",
"| ....| | | | | | | ..X.O.1...@ | | ....| | | | ..O.O.| | | | | | | | ....| | | ..| | | ..O.1.1.| | | ..X...| | | | X.1...| | | ",
"..1.1...[ ..| ......| O.1.4.O.....| O.O.| | | | | ......| | | | | ....4.X.o.o...| ....| ..O.1.4.O.......O...| | | ......X...| | ",
"O.5.{ r.Z.1.....O.........O.>.1...| ....| | | | | ..5.1...| | | | ..1.5.X.C.V.{ ..X.X.........1.5.O...| ..| | | | | | O.5.O.| | ",
"O.,.3.OX*XZ.1.......1.1.....1.X.| | | | | ....| | o.1.1...| | | | ..1.,.C.*X&XV.X.....O.4.X.| o.1...| | | | | ....| | X.4.O.| | ",
"X.;.S.tXyX%X1.| ..1.4...y.y.+.| ......| ..O.O.| +.= ....| | | | | ..1.>.+XyXtXF.{ | X.5.;.+.y.y...| ....| | ..O...| = = ....| | ",
"....+.OX:Xy ..| ..1.o.d.>X4Xg.' O.1.X.| O.4.O...k b q | | | | | | | ....d.%X`.8 ..| O.O.| A.5X,X ...1.1.....1.5...@.b j = | | | ",
"| | | e.p.$ | | ....0.>XuX7Xc.X ..1.o.| O.5.{ w Z I.v % | | | | ....| | ..s.w.@ | | ..] b.3XpX,X .| X.1.| | 1.4.o.h I.E h | | | ",
"| | ..........| | | e.4X7XH.#.| | ..X.* 1.O.o.8 z C d | | | | ..O...= | | ........| | X m.9X2XS.| | ....X.* 1.X...7 M N q | | | ",
"| | ..1.1.1.O.| | | +.n.M.t.[ | | | G A 2 ..| + 7 w | | | | | ..1.v n e X.1.1.1.X.| ..| y.M.x.O...| | - J K > | | $ 0 q | | | | ",
"| | O.5.4.O...| | | | X   | ..| | ..K ( ~ 1 | | | | | | | | | | @.V ~.C B.,.1.X...| | | | . + ....| | : Q _ R > | ..| | | | | | ",
"| | ..O.....X.O.O...X.....| | | | | 2 ^ ( J | ....| | | | | | | q V Y.~.h X.....O.O.....X.| ..| | | | * H ) / 1 } ....| | | | | ",
"$ | | | | ..5.4.X...4.O.....X...| | O.2 Y 1 | ..1.X.| ..O.X.X...% z E ^.h | | O.5.1...O.4.o.....X...| ..2.S D > | 1.1...| ..X.X.",
"$ | | | | ] { O.....1.4.a.#.>.X.| | X.% # ..| ..1.1...O.5.5.1.....9 z m e | | [ ;.X.| ..;.$.a.O.1...| ..O.$ % ..| O.1.O...1.5.5.",
"..| | | y.n.c.| o.o...h.).N.5.X.| | | | | | ] [ O.O.X.5.1.1.4.X.1.1...| | | d.m.s.] o.....z.).j.,...| | | | | ' ] o.O...O.5.1.1.",
"..| | | m.9X1XC.1.4.a.). X}.x...| | | | | e.A.Z.1.....1.....4.5.1.X...| | | :XqX$Xu.1.$.l.}. X_.u...| | | | | d.S.V.O...O.O...X.",
"X.| | ..n.1XaX,Xu.$.(.|.;X].E.0 | | ..o.r.OX8X>X1.O.....| ..1.1.O.1...| | +.@XuXpX#XO.j.{..X;X[.p % | ......f.*X9XF.;.......| ..",
"X.| | o. .M.6X,Xy...i._. XE.y | | ..O.;.OXiXiX:X....| | | ......1.1...| ..X.w.@X8X@X+.| k.}.[.E.0 | | ..{ 3.>XuX7XM.....| | | ..",
"..| | ..| $ g.d.+.| ..i.E.y ..| | X.X...#X9X:X6 @ | | | | | | ..1.O...| | ..@ w.g.y.| | | k.p 0 ..| ..O.o.e.,X8X`.5 | | | | | | ",
"X.| | | | | ] { ..| | ..9 | ..| | ....| y.v.p.+ | | | | | | | | ..O...| | | ..| ] { | | | % 9 | | | | ..| | g.b.8 @ ..| | | | | ",
"O.X.X...| ..1.1.e c q | | ..O.t.XXA.| ..| ' o.1.O...| | | | | | ..1.X.O...| | X.4.O.g j +.| ....O.d.oXd.| | | | X.1...| | | | | ",
"..O.4.1.X...,.3.N I.b q | X.4.G.rX<Xc.[ X.| ..O.....| | | | | | ......1.1.O...O.,.f Z P.h | ..{ V.$XrX$Xe.[ ..| o.X...| | | | ..",
"| ..1.5.1.o.>.@.b E a % ..X.X.D.2X*Xg.{ 1.o.@ ..X.| ..O...| | | | | | X.5.5.O.X.4.d B Z r % ..X.t.+XtX+Xe.;.1...| ....| ....| ..",
"| | ..O.o.: G | = t $ o...| | | m.g.X O.5.O.] >.1...O.4...| | ..-.%...% X.X.| < < } w u } X...| @ e.M.e.| 1.5.o.[ 4.O...1.O.....",
"| | | | : T ) 3 & | O.O...| | | | | | ..O.B.j B.X.X.4.O...| | ..*.J.7...| ..< ~ ~ > | o.1.X...| | | | | ..X.O.d j 3.o.O.4.......",
"| ..X.O.< R T.F * | X...| | | ..X...| ..X.c Q.Z e ..X...| | | | <.K.J.-...1.3 ^ ^ 1 | ......| | ....o...| o.@.m !.N q X...| | | ",
"| ..1.1...l J ; | X.1...| | | 1.1.o...1.4.g Z wXm = ......| | % $ &.=.:.O.O.% I G ....O.1.| | | ..1.1.....4.1.x U.!.h | ....| | ",
"........| ..X.| ..4.1...| | | O.r.q.#.;.4.| t W.x = o.1...| ....| ..o.......| X...| O.5.O.| @ | ..O.w.q.O.,.1.8 n W.h | O.O.| ..",
"X.O.| | ..4.O.| ..1...| ......| (.|.x.+.O.X.% q +...X.4.....1.4.....O.X.| | X.4.o.| X.O...........w._.].p...O...% q ....O.1.| ..",
"O.4.O.| ......| ....| ..O.1... .l.=X=Xk.....| o.1.O...1.....1.4.....O.4...| ............| ..1.O...q.'.;X].q.....| O.1...O.O.| ..",
"..1.O.| | | | | | | | ..1.O...| 6 N.|.l...| | X.1.......| ........| ..1.O.| | | ....| | | o.1.o...$ k.].}.i...| | O.O.......| ..",
"| ....| | | | | | | | ..1...| | $ 8.9.0.| | | ....| | | | ..| | | | | ....| | | | | | | | X.O...| @ $ 9.a. .| | | ....| | | | | ",
"| | | | | | | | | | | ......| | ....o ..| | | | | | | | | | | | | | | | | | | | | | | | | ......| | ....o | | | | | | | | | | | ",
"| | | | | | | | | ..O.O...| | | X.O.O...| | | | | ..X...| | | | | | | | | | | | | | | ..O.X.| | | ..O.O.O...| | | | | ....| | | ",
"| | | | | | ..r.a. .O.X...| | | X.1.1...| | | | | X.1...| | ..X.X...| | | | | | o.a.a...O.X...| | ..O.4.O.X.1 : | | ..O.O.| | | ",
"| | | | | | 0.m.oXx. .| ......| | o.< S > | | | ..O.1...| | +.F.V...| | | | | | q.G.oXa.| | ......| ..2.3 F P 1 ` | ..1.O.| | | ",
"| ....| | ..8.'.-XN. .X.O.1...@ | > ~ / F ..| | ..O.O.| | e.D.3XOXe.| ....| | ..k.oX=Xk...X.O.1.| | | * K Q ) U , : o.O...| | y.",
"..1.1...[ ..+ 4 l.0...O.1.4.X...X.K R.R.F ..| | | ......' g.6XsX3Xv.o.1.X...o...  i x.| ..1.1.1.X.....| 2.! R.( P < | ......| D.",
"O.5.{ r.V.1.@ 5 #.........O.5.O.X.D T.^ , | | | | ..4.1...s.>XeX7Xv.{ 5.X.u.V.{   8 #.........1.5.O...| ..Y Q W < | | O.5.O.| n.",
"O.,.3.OX*XZ.O.| ..o.1.1.....1.X.| ; L I # | ..| | o.4.1...$ s ,X4Xg.;.,.C.$X&X6.o.| ..X.4.X.| o.1...| | | O Y 3 | | | X.4.O.| 8 ",
"X.:.S.tXyX%X1.....1.4...e.y.+.....| ; #   O.X.| +.= ......+ 4 p.d.+.1.>.+XyXtXF.{ | ..4.1.+.y.e...| ....| $ * 1...| = +.....|   ",
"..o.e.OX>Xs ..| ..1.o.y.>X4Xg.' O.1.o.+ ..4.O...k v q | | | @ | ' | ..o.d.%X@X0 o.| O.1.| v.4X>X ...O.1.....O.4...@.b j | | | @ ",
"| | | y.p.$ | | ..o.0.>XuX7Xc.X ..1.o.| O.5.{ w Z I.v % | | ..| ..| | | | s.w.+ | | ..] c.2XpX,X .| X.1.| | 1.5.o.j I.E u | | | ",
"| | | | | ....| | | e.4X7XH.e.| | ....& O.1.o.7 z B g | | | | ..O...= | ........| | | X m.9X2XS.| | ........1.O...r C N q | | | ",
"| | ..O.O.1.O.| | | +.m.`.t.[ | | | 3 K 2 ..| + 7 w ..| | | | ..1.v n q X.O.O.1...| | | y.`.M.O...| | - F J > | | $ w q | | | | ",
"| | O.5.4.O.X.| | | | X   | ..| | ..K ( ~ < | | | | | | | | | | @.V ~.C B.,.1.O...| | | | . + ....| | : Q _ T : | | | | | | | | ",
"| | ..O.X...X.X.X...X.....| | | | | 3 ^ ( J | ....| | | | | | | q V Y.~.h O.....O.X.......| | | | | | * H T./ 1 } ....| | | | | ",
"| | | ..| ..5.4.O...1.X.........| | O.2 Y 1 | ..1...| ..X.X.X.| % z P.^.h | | O.5.1...X.1.o.....X...| ..2.I J > | 1.1...| ..X.X.",
"..| | | | ..;.O.....1.4.q.#.;.X.| | X.% # ..| ..1.1...O.5.5.1.....9 z m e | | [ ;.X.| o.;.$.q.O.1...| ..O.# % ..| O.4.O...O.5.5.",
"X.| | | e.v.g...o.o...h.).x.,.X.| | ..| | | ] [ O.O.X.5.1.1.4.O.1.1...% | | y.b.y.........z.).j.,.....| | | | | ] o.O.X.O.5.1.4.",
"..| | | m.9X1Xf.1.1.i.).|.}.h.X.| | | | | e.f.V.1.....1.....4.5.1.X...| | | #XqX+Xt.1.$.k.}.|._.r.....| | | | y.C.6.O...O.O...X.",
"X.| | | n.3XaX>Xu.$.(.|.;X].E.0 | | ..o.e.OX8X>X1.O.....| ..1.4.O.O...| | +.@XpXpX@XO.j.{..X;X[.p % | | ....d.%X9XF.;.......| X.",
"X.| | ..e.M.7X,Xy...i.). X/.y | | ..X.;.G.tXpX:X....| | | ......1.1...| ..X.p.#X0X@X+. .k.}.].E.0 | | ..{ 3.%XuX7XM.o...| | | ..",
"..| | ..| 8 c.f.+.@ ..i.E.s ....| X.X.o.#X0X>X6 @ | | | | | | ..1.O...| | ..@ p.v.y.| | | k.E.0 ..| ..O.o.e.,X0X`.5 | | | | ....",
"X.| | | | | ] { ..| | & 9 | | | | ....@ d.m.p.+ | | | | | | | | ..O...| | | ..| ] [ | | ..% 9 | | | | o.| | g.m.8 + | | | | | | ",
"O.X.X...| ..1.1.e j q | | ..O.#.D.v.| | | | o.1.O.......| | | | ..1.X.O...| | X.4.O.d h ..| ....X.d.XXd.| | | ' X.1...| | | | | ",
"..O.4.O.X...,.3.N P.v = | X.4.F.rX*Xg.[ ..| ..O.X...| | | | | | ......1.1.O...X.,.B.B E h | ..{ V.$XrX$Xe.X...| ..O...| | | | | ",
"| ..1.5.1.o.>.@.N E z 9 ..X.X.F.tX*Xg.{ 1...@ ....| ..O...| | | | | | X.4.5.O.O.>.d B Z r % ..{ t.+XrX$Xe.;.O...| ....| ....| | ",
"| | ..O.o.; 3 | q h 8 ....| | | M.c.X O.5.O.' ;.1...O.4...| | ..-.%...% X.O.| < < } w t } ....| ' y.XXy.| 1.5.o.] 4.O...1.O.| | ",
"| | | | : L ^ 2 & | O.O...| | | | | | ..O.B.g B.o.X.4.O...| | ..*.J.7...| ..< ~ ~ > | ..1.O...| | | | | ..X.1.d g 3.o.O.5.X.| | ",
"| ....X.< R T.F * | o.....| | ..o...| ..X.j Q.B e ..X...| | | | <.L.J.-...1.3 ^ ^ 3 | ......| | ....o...| o.@.m !.b q O.X.| | | ",
"| X.1.1...l T : ....1...| | | O.1.....O.4.g E U.x = ......| ..% # =.*.:.O.O.= I H * ..O.O.| | | ..1.O.....1.3.x U.!.h ......| | ",
"........| ..* | ..1.4...| | | O.#.0.$.5.5. .a W.m = o.1...| ....% | o.....| | & & | O.5.O.| | | ..1.#.0.1.5.1.8 n W.h | O.O.| .."
};
