/* XPM */
static char *_aaaa79707c745fca0e8e19c4fbf4e98[] = {
/* columns rows colors chars-per-pixel */
"64 64 236 2 ",
"   c #010103",
".  c #0A0306",
"X  c #03020B",
"o  c #0B030A",
"O  c #0D0A0C",
"+  c #180509",
"@  c #130A0C",
"#  c #1B0D0D",
"$  c #040313",
"%  c #0C0B12",
"&  c #090418",
"*  c #0C041C",
"=  c #140E11",
"-  c #18091A",
";  c #1C1214",
":  c #14131B",
">  c #181418",
",  c #1C191C",
"<  c #29120E",
"1  c #221614",
"2  c #261617",
"3  c #241B1C",
"4  c #2C1C1B",
"5  c #381816",
"6  c #321E1C",
"7  c #37221E",
"8  c #0C0224",
"9  c #110124",
"0  c #180329",
"q  c #1B1A26",
"w  c #1E0230",
"e  c #26012A",
"r  c #38042E",
"t  c #241B28",
"y  c #230132",
"u  c #2B0234",
"i  c #290536",
"p  c #340134",
"a  c #3B0033",
"s  c #37063A",
"d  c #3C013B",
"f  c #321832",
"g  c #1E2025",
"h  c #2A2123",
"j  c #262429",
"k  c #3C2521",
"l  c #372827",
"z  c #292639",
"x  c #343138",
"c  c #480B0F",
"v  c #461B1B",
"b  c #6D0C14",
"n  c #55261D",
"m  c #490138",
"M  c #58003D",
"N  c #751821",
"B  c #452A25",
"V  c #4A2B23",
"C  c #532E27",
"Z  c #4B342C",
"A  c #53332A",
"S  c #5A3529",
"D  c #483536",
"F  c #5A3C38",
"G  c #66372B",
"H  c #64392B",
"J  c #653B32",
"K  c #723D31",
"L  c #5F4131",
"P  c #71492E",
"I  c #694339",
"U  c #774838",
"Y  c #3E0340",
"T  c #332D46",
"R  c #440242",
"E  c #4B0244",
"W  c #4F014A",
"Q  c #520244",
"!  c #5C0244",
"~  c #54024A",
"^  c #5B024C",
"/  c #540C4A",
"(  c #4D1749",
")  c #660348",
"_  c #63014E",
"`  c #630251",
"'  c #6B0251",
"]  c #69015A",
"[  c #730254",
"{  c #7B0255",
"}  c #76035B",
"|  c #6A1158",
" . c #453947",
".. c #4C2A51",
"X. c #583962",
"o. c #713268",
"O. c #434246",
"+. c #56484B",
"@. c #4B4B58",
"#. c #59585B",
"$. c #774B42",
"%. c #78544B",
"&. c #6B5151",
"*. c #71645C",
"=. c #5E5169",
"-. c #6F5B71",
";. c #6F6A6E",
":. c #767778",
">. c #841D29",
",. c #85552E",
"<. c #894C37",
"1. c #935537",
"2. c #A65D3C",
"3. c #986233",
"4. c #A56932",
"5. c #B5743A",
"6. c #CA7C37",
"7. c #830458",
"8. c #850458",
"9. c #842575",
"0. c #884A44",
"q. c #875449",
"w. c #8C5B53",
"e. c #945E54",
"r. c #977044",
"t. c #99645A",
"y. c #AB6543",
"u. c #BC7248",
"i. c #A9675A",
"p. c #A27450",
"a. c #91716A",
"s. c #A46B62",
"d. c #A7776E",
"f. c #B4756B",
"g. c #B87A71",
"h. c #C5784E",
"j. c #C57C71",
"k. c #2F8136",
"l. c #338335",
"z. c #388734",
"x. c #3C8933",
"c. c #428E32",
"v. c #469032",
"b. c #4A9331",
"n. c #FB9D14",
"m. c #FDA517",
"M. c #D28C36",
"N. c #FDB833",
"B. c #FFD80B",
"V. c #FFCE1C",
"C. c #FFE806",
"Z. c #FFE618",
"A. c #FED72A",
"S. c #FEC735",
"D. c #FEDA37",
"F. c #FFE528",
"G. c #FFE638",
"H. c #FFF434",
"J. c #B38747",
"K. c #97837B",
"L. c #BE8571",
"P. c #D6985A",
"I. c #F7BE48",
"U. c #F4A651",
"Y. c #CA887B",
"T. c #D48A7A",
"R. c #F5B46C",
"E. c #FBC948",
"W. c #FCD447",
"Q. c #FAC854",
"!. c #FDD658",
"~. c #FEE646",
"^. c #FFF545",
"/. c #FFF847",
"(. c #FFF34C",
"). c #FEE558",
"_. c #FFF758",
"`. c #FCD46E",
"'. c #FEE767",
"]. c #FEEB74",
"[. c #777685",
"{. c #8A5784",
"}. c #8B6C8C",
"|. c #86778C",
" X c #7B8383",
".X c #958D8A",
"XX c #888C93",
"oX c #918E92",
"OX c #AD938D",
"+X c #BFA293",
"@X c #9D9DA5",
"#X c #A390A5",
"$X c #ACADAC",
"%X c #C68C84",
"&X c #D68E81",
"*X c #DA9486",
"=X c #E79A89",
"-X c #D1AA9D",
";X c #E9A997",
":X c #F3AF91",
">X c #F3A995",
",X c #D2B4AC",
"<X c #EFB6A8",
"1X c #FBB9A5",
"2X c #B7C1BE",
"3X c #F9CE85",
"4X c #FEE993",
"5X c #D1C4B3",
"6X c #FDC3AA",
"7X c #EFCFB3",
"8X c #FACAB6",
"9X c #FAD7B6",
"0X c #FED2BD",
"qX c #FCE8A3",
"wX c #F6E2BF",
"eX c #C8B0C5",
"rX c #BCC8C6",
"tX c #C3C8C6",
"yX c #CED5CE",
"uX c #DADFD8",
"iX c #E7D9CB",
"pX c #FDD9C6",
"aX c #FEDCC5",
"sX c #E5D6DD",
"dX c #DDE1DF",
"fX c #FFE4C7",
"gX c #FEE3CB",
"hX c #FFE9CE",
"jX c #EAE2D0",
"kX c #FEEBD2",
"lX c #FFF5DA",
"zX c #E9EBE6",
"xX c #F6EAE7",
"cX c #ECF2EC",
"vX c #F8F7EF",
"bX c #F8FAF8",
/* pixels */
"k.k.k.x.v.z.k.k.k.k.k.k.k.k.k.k.k.k.k.k.k.k.k.k.k.k.k.k.k.k.k.k.k.k.l.c.c.l.k.k.k.k.k.k.k.k.k.k.k.k.k.k.k.k.k.k.k.k.k.k.k.k.k.k.",
"l.l.k.x.b.x.k.k.k.k.k.k.k.k.k.k.k.k.k.k.k.k.k.k.k.k.k.k.k.k.k.k.l.k.l.c.v.l.k.k.k.k.k.k.k.k.k.k.k.k.k.k.k.k.k.k.k.k.k.k.k.k.k.l.",
"z.c.z.l.c.x.k.l.k.k.k.k.k.k.k.k.k.k.k.k.k.k.k.k.k.k.k.k.k.k.k.l.x.c.l.z.c.l.k.l.k.k.k.k.k.k.k.k.k.k.k.k.k.k.k.k.k.k.k.k.k.k.k.z.",
"l.c.b.z.l.l.z.c.z.k.k.k.k.k.k.k.k.k.k.k.k.k.k.k.k.k.k.k.k.k.k.l.x.b.c.l.l.l.x.x.l.k.k.k.k.k.k.k.k.k.k.k.k.k.k.k.k.k.k.k.k.k.k.l.",
"k.x.b.x.k.z.v.c.l.k.k.k.l.l.k.k.l.x.z.k.k.k.k.k.k.k.k.k.k.k.k.k.l.c.v.z.k.x.v.x.l.k.k.k.l.l.k.k.z.x.l.k.k.k.k.k.k.k.k.k.k.k.k.k.",
"k.l.x.z.k.x.c.l.k.k.k.k.z.c.z.k.z.b.x.k.k.k.k.k.k.k.k.k.k.k.z   # #   t l.v.x.l.k.k.k.l.x.x.l.l.c.c.l.k.k.k.k.k.k.k.k.k.k.k.k.k.",
"k.k.k.k.k.z.z.k.k.k.k.k.z.v.x.k.c.b.z.k.k.k.k.k.k.k.k.k.k.T o V $.t.w.5 & z.l.k.k.k.k.l.x.v.l.z.b.c.l.k.k.k.k.k.k.k.k.k.k.k.k.k.",
"k.k.k.k.k.k.k.k.k.k.k.k.k.z.l.l.c.c.l.k.k.k.k.k.k.k.l.x.T o I %X8X0X0X;X$.X k.k.k.k.k.k.l.z.l.z.c.x.l.k.k.k.k.k.k.k.z.z.k.k.k.k.",
"x.z.k.k.k.k.k.k.k.k.k.:XR.k.k.k.z.l.k.k.k.k.k.k.k.k.l.c.  U -XaXgXaXlXkXd.< @.k.k.k.k.k.k.k.k.l.z.k.k.k.k.k.k.k.k.k.z.c.x.k.z.x.",
"c.z.k.k.k.k.k.k.k.k.R.n.:Xk.k.k.k.k.k.k.k.k.k.k.k.k.l.T @ *.7XhXgX9X-X#.j = X k.k.k.k.k.k.k.k.k.k.k.k.k.k.k.k.k.k.k.l.x.c.l.c.v.",
"z.k.k.k.k.k.z.z.k.U.n.U.k.k.k.k.k.k.k.z.z.k.k.k.k.k.k.* = D &.&.8X*.t U U 6   =.k.k.k.k.k.k.k.k.k.k.l.z.l.k.k.k.k.k.k.l.z.z.c.z.",
"k.k.k.k.k.k.x.c.iXV.W.9Xk.k.k.k.k.k.l.c.c.l.k.z.l.k.k.  6 J.P.<.7Xd.P W.).y.# t l.l.z.l.k.k.k.k.k.k.z.v.x.k.l.z.l.k.k.k.k.l.z.k.",
"k.k.k.k.k.k.z.c.`.B.N.wXk.k.k.k.k.k.k.z.c.z.z.c.z.k.[.  P )._.R.aX>XR._._.3XI o z.x.c.l.k.k.k.k.k.k.l.x.c.l.c.c.l.k.k.k.k.k.k.k.",
"k.k.k.k.z.x.z.z.`.B.V.I.k.k.k.k.k.k.z.x.x.l.c.c.l.k.=.  t.3X`.R.8X6XhXqXqXfXY.+ @Xv.v.l.k.k.k.k.k.l.x.x.z.z.c.x.k.k.k.k.k.k.k.k.",
"k.k.k.k.z.v.c.z.U.Z.F.Q.k.k.k.k.k.k.z.c.c.l.z.z.k.k.@.  t.1XL.A V I K.,XpXaX&X+ [.v.x.l.k.k.k.k.k.l.x.v.x.l.z.l.k.k.k.k.k.k.k.k.",
"k.k.k.k.k.z.c.z.m.H.A.!.fXk.k.k.k.k.k.z.x.l.k.k.k.k.T   $.t.4 l D D l l ;X6Xs.# z |.l.k.k.k.k.k.k.k.l.x.x.k.k.k.k.k.k.k.k.k.k.k.",
"k.k.k.k.k.k.k.n.G./.H.~.`.k.k.k.k.k.k.k.k.k.k.k.k.k.X   B F U g.&X>X1XF a.1Xe.1 X ..l.l.k.k.k.k.k.k.k.k.k.k.k.k.k.k.k.k.k.k.k.k.",
"k.k.k.l.l.k.k.S./.(.^.^.G.3Xk.k.k.k.k.k.k.k.k.k.k.k.    ; B $.*X0X0X8X%.&.=Xq.#   f k.k.k.k.k.k.k.k.k.k.k.k.k.k.k.k.k.k.k.k.k.k.",
"k.k.z.c.x.k.k.V.^.(.^./.~.A.k.k.k.k.k.k.k.k.k.k.k.k.k.  O 4 q.=Xa.lXkXw.+.T.I     ..@Xk.k.k.k.k.k.k.k.k.k.k.k.k.k.k.k.k.k.l.z.k.",
"z.l.x.b.x.k.k.V.G.(.(.(.(.~.S.z.l.k.k.k.k.k.k.k.k.k.k.  . 3 F F % *.+XD D i.4   0 =.[.k.k.k.l.z.k.k.k.k.k.k.k.k.k.k.k.k.k.z.c.x.",
"b.x.x.v.z.k.k.I.A.).'._.~.W.A.x.x.l.k.z.l.k.k.k.k.k.k.    = j g j , : , J A .   @. .X.k.k.k.z.c.z.k.l.z.l.k.k.k.k.k.k.k.k.z.c.b.",
"c.z.z.x.l.k.k.qXD.'.].].(.~.D.E.b.z.z.c.z.k.k.k.k.k.k.      = j j q h S S 6 # > @.y R k.k.k.z.b.c.l.x.c.l.k.k.k.k.k.k.k.k.k.z.c.",
"l.l.l.k.k.k.k.9XW.).4X4X).~.G.Q.c.z.x.c.z.k.k.k.k.k.x     = 1 4 , k S J I A +.:.0 R ' ! {.k.l.x.x.z.v.x.l.k.k.k.k.k.k.k.k.k.k.l.",
"k.k.k.k.k.k.l.U.!.).4XqX~.A.V.S.l.k.x.z.k.k.k.k.k.XXyXx . 1 B A F q.e.g.,XsXbX@Xp [ 8.{ ) | #Xk.k.l.x.l.k.k.k.k.k.k.k.k.k.k.k.k.",
"k.k.k.k.k.l.c.U.).).'.'.F.Z.B.Q.k.k.l.k.k.k.k.bX}.$ yX@X; 2 A %.i.f.f.xXbX$X-./ { 8.8.8.7.{ _ o.k.k.l.k.k.k.k.k.k.k.k.k.k.k.k.k.",
"k.k.k.k.k.x.v.R.W.~.D.D.Z.Z.Z.k.k.k.k.k.k.k.k.o.m r iX.X; 4 Z t.t.I a.bXXX- ! { 8.7.7.7.7.8.' p $ k.k.k.k.k.k.k.k.k.k.k.k.k.k.k.",
"k.k.k.k.k.x.x.3X!.A.F.Z.Z.C.W.k.k.k.k.k.k.k.k.m ! m jX;.3 k B S C < $XcXs ' { [ [ [ { [ { Q 0 d a X.k.k.k.k.k.k.k.k.k.k.k.k.k.k.",
"k.k.k.k.k.l.k.*X3XW.F.F.F.`.xXk.k.k.k.k.k.-.m ) M ( jXO.h k S H G V zXoXm _ ' ' ' [ [ [ E 8 R [ } ] eXk.k.k.k.k.k.k.k.k.k.k.k.k.",
"k.k.k.k.k.k.k.k.Y.>X6X9X9XpXxXk.k.k.k.k.m e d ) M ..iXz h B H H G &.vX..Q Q ^ ^ _ _ ' ^ * u ` { } ` o.sXk.k.k.k.k.k.k.k.k.k.k.k.",
"k.k.k.k.k.k.k.k.k.g.j.<X8X6XpXaXpXpXvX|.a s u ! M o.5Xq l C H K n .XtXa Q E Q ~ ^ ^ ` w * R ~ ~ ` } ] 9.sXk.k.k.k.k.k.k.k.k.k.k.",
"k.k.k.k.k.k.k.k.k.k.k.t.i.;XpXpX8X6X1Xd.0 p e ! m -.$X: l S H K 5 tXoXa E E E E Q ^ E & 0 i i R ] W d a r oXk.k.k.k.k.k.k.k.k.k.",
"k.k.k.l.l.k.k.k.k.k.k.k.k.i.&X1X1X1X>XT.+.9 9 M a OX@X, l S H G Z cX=.m Q E E R R ~ y $ * 8 w R e +.OX5X5X;.k.k.k.k.k.k.k.k.k.k.",
"k.k.k.x.x.l.k.k.k.k.k.k.k.k.0.g.=X>X=X&XY.D & d p ,X:.t k H H n *.cXs _ ~ Q E d s Y * $ & 8 y 9 K.hXlXkXlXiXk.k.k.k.k.k.k.k.k.k.",
"k.k.k.x.b.z.k.k.k.k.k.k.k.k.k.U i.T.*X*XY.t., * u iX@.h B H G v .XyXu ' ^ ^ Q Y i u & $ & $ & .XlXkXhXkXkXkXk.k.k.k.k.k.k.k.k.k.",
"l.l.l.x.b.x.k.k.k.k.k.k.k.k.k.k.U q.f.j.g.w.k    .5Xq l V H G 5 5X@Xa [ _ _ Q R y u *       K.lXkXkXkXkXkXaXk.k.k.k.k.k.k.k.k.l.",
"x.v.x.l.x.x.k.l.l.k.k.k.k.k.k.k.k.%.G U 0.H Z O XX.X% l C H S 2 uX;.M [ ' ` ^ E y 8 f + q OXlXhXkXhXkXgX0X8Xk.k.k.k.k.k.k.k.k.z.",
"l.c.b.z.l.l.x.c.z.k.k.k.k.k.k.k.k.l.l.k.k.k.k.k.k.k.% t B V 6 l cX.._ [ ' ' ' Q 0 +.<X;X5XlXhXhXgXaX0X6X>Xk.k.k.k.k.k.k.k.k.k.l.",
"k.x.b.x.k.x.v.x.l.k.k.k.l.l.l.k.l.x.z.k.k.k.k.k.k.k. .: > ; . *.cX0 ~ [ ' ` R ( %X0X0XaXgXaXaX0X8X1X>X=Xk.k.k.k.k.k.k.k.k.k.k.k.",
"k.l.z.l.k.x.x.l.k.k.k.k.x.c.z.k.x.b.x.k.k.k.k.k.k.k.I.M.J.r.P :.;.$ 8 w w 9 * s.1X1X6X8X0X0X6X1X>X=XT.k.k.k.k.k.k.k.k.k.k.k.k.k.",
"k.k.k.k.k.l.l.k.k.k.k.k.z.c.x.k.c.b.z.k.k.k.k.k.k.k.y.,.3.4.N.r.Z A L I U U J t.%X*X;X1X1X1X>XT.T.c.l.k.k.k.k.k.k.k.k.k.k.k.k.k.",
"l.l.k.k.k.k.k.k.k.k.k.k.k.l.l.l.c.x.l.k.k.k.k.k.k.4.U 3 V k M.5.y.h.h.u.u.y.C $.s.f.g.&X=XT.T.<Xc.z.k.k.k.k.k.k.k.k.z.x.l.k.k.l.",
"c.z.k.k.k.k.k.k.k.k.k.k.k.k.k.k.z.l.k.k.k.k.k.k.k.4.1.C U J M.5.<.<.K 2.1.C C A w.t.t.w.q.OXk.l.z.k.k.k.k.k.k.k.k.k.z.v.x.k.z.c.",
"c.l.k.k.k.k.l.k.k.k.k.k.k.k.k.k.k.k.k.l.k.k.k.k.k.3.3.C U J 6.5.1.<.S y.2.U H 4 I w.I *.k.k.l.k.k.k.k.l.k.k.k.k.k.k.l.x.x.z.c.c.",
"l.k.k.k.k.k.z.z.k.k.k.k.k.k.k.k.k.k.l.x.z.k.k.k.k.p.1.7 G S 5.5.<.y.y.1.1.<.H 4 3 D l.k.k.k.l.l.k.k.z.x.l.k.k.k.k.k.k.l.l.z.c.z.",
"k.k.k.k.k.k.x.v.z.k.z.z.k.k.k.k.k.k.l.c.c.l.k.x.z.K.6.J.p.r.M.6.V A B l 3 , - * $ $ x.l.k.k.k.k.k.k.z.v.x.k.z.x.l.k.k.k.k.l.z.k.",
"k.k.k.k.k.k.l.c.x.z.v.x.k.k.k.k.k.k.l.z.c.z.x.v.z.k.D P y.u.2.U XXq $ & 8 8 y i 9 X c.l.k.k.k.k.k.k.l.x.c.l.c.c.l.k.k.k.k.k.k.k.",
"k.k.k.k.z.c.z.z.l.c.b.x.k.k.k.k.k.k.x.x.x.l.c.x.l.k.q %       : zXT 0 d R R E ~ d $ v.l.k.k.k.k.k.l.x.x.z.z.c.z.k.k.k.k.k.k.k.k.",
"k.k.k.k.z.c.c.z.k.c.c.l.k.k.k.k.k.k.z.c.c.l.z.l.k.k.% = o O . = uXX.d ^ ` _ ^ ~ W i ..l.k.k.k.k.k.l.x.v.x.l.z.l.k.k.k.k.k.k.k.k.",
"k.k.k.k.k.z.x.z.k.z.z.k.k.k.k.k.k.k.k.z.x.l.k.k.k.k.% O ; 3 1 @ yX}.m ` ` ` ^ ~ ~ E ( k.k.l.k.k.k.k.l.x.z.k.k.k.k.k.k.k.k.k.k.k.",
"k.k.k.k.k.k.k.k.k.k.k.k.k.k.k.k.k.k.k.k.k.k.k.k.k.k.: O 3 4 4 @ $X#Xd ~ ^ ` ` ^ ^ E d l.k.k.k.k.k.k.k.k.k.k.k.k.k.k.k.k.k.k.k.k.",
"k.k.k.z.z.k.k.k.k.k.k.k.k.k.k.k.k.k.k.k.k.k.k.k.k.k.j X 3 7 k # :.tXp ~ ^ ` ` ` ^ ~ d |.k.k.k.k.k.k.k.k.k.k.k.k.k.k.k.k.k.k.k.k.",
"k.k.z.c.x.k.k.k.k.k.k.k.k.k.k.k.k.k.k.k.k.k.k.k.k.k.j X 3 7 7 1 O.tXi E ~ ` ' ` ` ^ e ;.bXk.k.k.k.k.k.k.k.k.k.k.k.k.k.k.k.l.z.k.",
"x.l.x.b.x.k.k.k.k.k.k.k.k.k.l.z.l.k.k.k.k.k.k.k.k.k., X 3 7 k 4 q 2X@.p ~ ` [ ` E e ..k.k.k.l.z.l.k.k.k.k.k.k.k.k.k.k.k.k.z.v.x.",
"b.x.x.c.z.k.k.k.k.k.k.k.k.k.k.c.c.l.k.z.l.k.k.k.k.k.%   3 7 k 4 :  XXX0 W ~ Q E X.$XcXk.k.k.z.c.x.k.l.z.l.k.k.k.k.k.k.k.k.l.c.b.",
"x.z.z.z.k.k.k.k.k.k.k.k.k.k.k.c.b.z.z.c.z.k.k.k.k.k.    3 7 k 4 t x $X9 e ( #XzXvX$X .k.k.k.z.v.c.l.x.c.l.k.k.k.k.k.k.k.k.k.z.x.",
"k.k.k.k.k.k.k.k.k.k.k.k.k.k.k.z.x.l.x.c.l.k.k.k.k.k.X X , 7 k 6 h #.rX#.|.bXuX:.j - - k.k.k.l.x.x.z.v.x.l.k.k.k.k.k.k.k.k.k.k.k.",
"k.k.k.k.k.k.l.z.k.k.k.k.k.k.k.k.k.k.z.z.k.k.k.k.k.k.% X , k k 6 t ;.rXtXdX#.$ $ 0 t 8 k.k.k.k.k.k.l.x.l.k.k.k.k.k.k.k.k.k.k.k.k.",
"k.k.k.k.k.z.c.x.k.k.k.k.k.k.k.k.k.k.k.k.k.k.l.k.k.k.:   : l k 6 t k.k.k.l.x.& t q q x k.k.k.k.k.k.k.k.k.k.k.k.k.k.k.k.k.k.k.k.k.",
"k.k.k.k.k.x.v.z.k.k.k.k.k.k.k.k.k.k.k.k.k.k.k.k.k.k.l # ; ; 4 + = k.k.k.l.v.X q t t * k.k.k.k.k.k.k.k.k.k.k.k.k.k.k.k.k.k.k.k.k.",
"k.k.k.k.k.x.x.k.k.k.k.k.k.k.k.k.k.k.k.k.k.k.k.k.k.k.@ 1 ; @ = #.k.k.k.k.l.x.l.o $ X  .k.k.k.k.k.k.k.k.k.k.k.k.k.k.k.k.k.k.k.k.k.",
"k.k.k.k.k.k.k.k.k.k.k.k.k.k.k.k.k.k.k.k.k.k.k.k.5 # ; ; @   @ k.l.k.k.k.k.k.k.1 < b 0.k.k.k.l.k.k.k.k.k.k.k.k.k.k.k.k.k.k.k.k.k.",
"k.k.k.k.k.k.k.k.k.k.k.k.k.k.k.k.k.k.k.k.k.k.b N N v @   O O.k.k.k.k.k.k.k.k.k.# v v c k.k.k.l.l.k.k.k.k.k.k.k.k.k.k.k.k.k.k.k.k.",
"k.k.k.k.k.k.k.k.k.k.k.k.k.k.k.k.k.k.k.k.k.k.>.>.N c 3 :.l.k.l.l.k.k.k.k.k.k.k.. 1 4 5 c k.k.k.k.k.k.k.k.k.k.k.k.k.k.k.k.k.k.k.k.",
"k.k.k.k.k.k.k.k.k.k.k.k.k.k.k.k.k.k.k.k.k.k.k.k.k.k.k.k.k.k.k.k.k.k.k.k.k.k.k.k.l.l.l.l.k.k.k.k.k.k.k.k.k.k.k.k.k.k.k.k.k.k.k.k."
};
