/* XPM */
static char *_5f13d65c87a453895faca2a9192a2aa[] = {
/* columns rows colors chars-per-pixel */
"64 64 245 2 ",
"   c #06060A",
".  c #120E0D",
"X  c #16120E",
"o  c #090B16",
"O  c #1A1614",
"+  c #191716",
"@  c #0E1019",
"#  c #261C18",
"$  c #331E15",
"%  c #38231A",
"&  c #2A211D",
"*  c #061638",
"=  c #0E152A",
"-  c #1D2337",
";  c #262527",
":  c #352B29",
">  c #373233",
",  c #231C23",
"<  c #472818",
"1  c #5A2E18",
"2  c #522B18",
"3  c #5A341E",
"4  c #68361D",
"5  c #78391D",
"6  c #612F1A",
"7  c #472C26",
"8  c #46332B",
"9  c #593627",
"0  c #473936",
"q  c #593833",
"w  c #542F21",
"e  c #683C26",
"r  c #763C24",
"t  c #693E33",
"y  c #4F423B",
"u  c #784428",
"i  c #67473A",
"p  c #784A37",
"a  c #714B2E",
"s  c #081D43",
"d  c #162948",
"f  c #183359",
"g  c #0A2551",
"h  c #293B58",
"j  c #2F3950",
"k  c #193A66",
"l  c #0F366A",
"z  c #223E63",
"x  c #553F42",
"c  c #19457B",
"v  c #354866",
"b  c #284A74",
"n  c #345274",
"m  c #2B425F",
"M  c #524E4F",
"N  c #64554A",
"B  c #75524A",
"V  c #75685B",
"C  c #4B576D",
"Z  c #556370",
"A  c #7A7369",
"S  c #7B7878",
"D  c #706866",
"F  c #6A5B60",
"G  c #833E1F",
"H  c #894425",
"J  c #964A25",
"K  c #874C35",
"L  c #955536",
"P  c #93542C",
"I  c #A24E22",
"U  c #AA5E39",
"Y  c #A6542C",
"T  c #8B6234",
"R  c #BC722E",
"E  c #B16939",
"W  c #8B401D",
"Q  c #C57634",
"!  c #8B5549",
"~  c #935849",
"^  c #9C6747",
"/  c #996355",
"(  c #926F59",
")  c #A8674A",
"_  c #B4735A",
"`  c #AB6E51",
"'  c #8F736D",
"]  c #B97964",
"[  c #A67A6F",
"{  c #A25F46",
"}  c #DA9B34",
"|  c #D1882A",
" . c #E3A12D",
".. c #F9DB3C",
"X. c #FCE62E",
"o. c #B5844F",
"O. c #89847A",
"+. c #99897B",
"@. c #9A927F",
"#. c #AD876E",
"$. c #CD8F4E",
"%. c #E5A952",
"&. c #CA836A",
"*. c #D39072",
"=. c #E59B7A",
"-. c #E9A478",
";. c #EFB676",
":. c #D6A66D",
">. c #F9D749",
",. c #F7CC5C",
"<. c #F8D350",
"1. c #FBE94C",
"2. c #FBE757",
"3. c #F7C776",
"4. c #F9D877",
"5. c #F7D56D",
"6. c #FBE767",
"7. c #FBE776",
"8. c #1D4B83",
"9. c #26548B",
"0. c #395C86",
"q. c #2C5B93",
"w. c #305C93",
"e. c #35639A",
"r. c #3E6088",
"t. c #3A6BA5",
"y. c #476585",
"u. c #426A9A",
"i. c #547293",
"p. c #647C94",
"a. c #687A8B",
"s. c #4874A9",
"d. c #557BA8",
"f. c #4A7AB4",
"g. c #517EB6",
"h. c #406DA2",
"j. c #857E83",
"k. c #798795",
"l. c #6E8190",
"z. c #5985BB",
"x. c #6A88A6",
"c. c #728DA9",
"v. c #7B93A9",
"b. c #658BB8",
"n. c #7997B8",
"m. c #6D92BE",
"M. c #5C8BC4",
"N. c #628CC3",
"B. c #6493CC",
"V. c #6B95CC",
"C. c #6B92C5",
"Z. c #6C9AD3",
"A. c #6797D0",
"S. c #749DD3",
"D. c #729FD8",
"F. c #7A9CC5",
"G. c #7CA4DA",
"H. c #78A1D8",
"J. c #7CA1CD",
"K. c #7FA9E1",
"L. c #8C8A8A",
"P. c #97948E",
"I. c #999B9B",
"U. c #8B8F90",
"Y. c #A79893",
"T. c #AE9789",
"R. c #AAA59A",
"E. c #B7A899",
"W. c #8498A8",
"Q. c #8C9CAE",
"!. c #96A9B8",
"~. c #93A7B7",
"^. c #A9AAA6",
"/. c #B5B4AB",
"(. c #ABB3B6",
"). c #BCBBB7",
"_. c #ABADAB",
"`. c #9FA59F",
"'. c #DC9E86",
"]. c #E49E83",
"[. c #D4AA93",
"{. c #E9AB95",
"}. c #F4AD93",
"|. c #F4B49A",
" X c #EEAE8D",
".X c #CAB6AA",
"XX c #F0BBA5",
"oX c #F5CC90",
"OX c #FAE888",
"+X c #FBE996",
"@X c #CCC8B6",
"#X c #F8C7A9",
"$X c #FAD8A8",
"%X c #F9CEB7",
"&X c #F8D7BC",
"*X c #E5D0B9",
"=X c #FAE9A5",
"-X c #F6E7B8",
";X c #FCF1AF",
":X c #85A8D9",
">X c #91ACC9",
",X c #A4BDD6",
"<X c #A9BAC9",
"1X c #87AEE5",
"2X c #8DB4E9",
"3X c #94B9ED",
"4X c #97BBEC",
"5X c #95BBF1",
"6X c #809FC2",
"7X c #B9C9D7",
"8X c #B3C2CD",
"9X c #B1CBEC",
"0X c #C7C8C7",
"qX c #D1CDC7",
"wX c #C2CDD8",
"eX c #C8D3DB",
"rX c #D8DAD8",
"tX c #D3D2CE",
"yX c #FADDC7",
"uX c #E5DCD6",
"iX c #E7D2C8",
"pX c #FDE3CD",
"aX c #F7E8C8",
"sX c #FBF2C8",
"dX c #FCE5D1",
"fX c #F7EAD7",
"gX c #FAF3D9",
"hX c #E5E1DC",
"jX c #CAD7E6",
"kX c #D3DDE6",
"lX c #C2D8F4",
"zX c #DAE2E7",
"xX c #EFEFEF",
"cX c #E6E6E5",
"vX c #F3EBE3",
"bX c #F1EEEC",
"nX c #F1F0EE",
"mX c #F2F0E3",
"MX c #EBEEF2",
"NX c #E4ECF3",
"BX c #EEF1F2",
"VX c #F2F2F2",
"CX c #F9F9F9",
"ZX c #EFF0EF",
"AX c #DFE0DF",
/* pixels */
"CXxXVXxXVXVXVXVXVXVXVXVXxXVXxXCXxXCXxXVXxXVXVXVXVXVXVXeX~.>XVXMXVXxXVXxXVXVXVXVXVXVXVXVXxXVXxXCXxXCXxXVXxXVXVXVXVXVXVXxXVXxXVXxX",
"xXVXxXVXVXVXVXVXVXVXVXVXVXxXVXxXVXxXVXxXVXMXVXVXVXzXv.n d k ~.BXbXVXbXVXVXVXVXVXVXVXVXVXVXVXVXVXVXxXVXxXVXVXVXVXVXVXVXVXxXVXxXVX",
"VXxXVXxXVXVXVXVXVXVXVXVXxXVXxXVXxXVXxXVXBXVXVXBX7Xi.C B B : f n.BXnXVXxXVXVXVXVXVXVXVXVXVXVXxXVXxXVXxXVXVXVXVXVXVXVXVXVXVXxXVXxX",
"xXVXxXVXVXVXVXVXVXVXVXVXVXxXVXxXVXxXVXxXVXzXNX8XC ' {.XXXX[.( h n.BXVXVXVXVXVXVXVXVXVXVXVXxXVXxXVXxXVXxXVXVXVXVXVXVXVXVXxXVXxXVX",
"VXxXVXxXVXVXVXVXVXVXVXVXxXVXxXVXxXVXxXVXjX,XzXi.D '.yXdXpXpXyX#.v >XVXZXVXVXVXVXVXVXVXVXxXVXxXVXxXVXxXVXVXVXVXVXVXVXVXVXVXxXVXxX",
"xXVXxXVXVXVXVXVXVXVXVXVXVXxXVXxXVXxXVXjXb.7X!.h > 0 #.&XdXsXgXyX' 0.jXVXVXVXVXVXVXVXVXVXVXxXVXxXVXxXVXxXVXVXVXVXVXVXVXVXxXVXxXVX",
"VXxXVXxXVXVXVXVXVXVXVXVXxXVXZXVXVXVXNXm.b.eXy.= # # % B #.&X.XT.i d <XVXVXVXVXVXVXVXVXVXxXVXxXVXxXVXxXVXvXfXnXVXVXVXVXVXVXxXVXxX",
"xXVXxXVXVXVXVXVXVXVXVXVXVXxXVXVXVXVX7Xt.>X8Xk : / / B q ~ |.( a p > p.BXVXVXVXVXVXVXVXVXVXxXVXxXVXxXVXfX=X+XgXVXVXVXVXVXxXVXxXCX",
"CXxXVXxXVXVXVXVXVXVXVXVXVXVXVXVXxXVXm.q.<XQ.j B *.#.[.&.&. XoX$.;.y n kXVXnXVXVXVXVXVXVXxXVXxXVXZXVXmXOX4.5.7.vXVXVXVXVXVXVXVXxX",
"xXVXZXVXVXVXVXVXVXVXVXVXVXxXVXVXVXkXh.e.wXx.M &.}.|.#X#X-.:.;.oXoXN h eXVXVXVXVXVXVXVXVXVXxXVXxXVXMXgX7.6.2...-XVXVXVXVXVXVXZXCX",
"VXxXVXZXVXVXVXVXVXVXVXVXxXVXxXVXVX7Xq.u.eXi.x ] }.}.}.=.^ e u ` oX#.d <XCXnXVXVXVXVXVXVXnXVXxXVXZXVXbXaX7.2...&XVXVXVXVXVXVXVXxX",
"xXVXxXVXVXVXVXVXVXVXVXVXVXxXVXxXCX7X9.d.,X0.8 ! =. X` 9 e e 9 3 T ( d <XVXVXVXVXVXVXVXVXVXVXVXxXVXZXVXvX4.2.1.4.fXVXVXVXxXVXxXVX",
"VXZXVXVXVXVXVXVXVXVXVXVXVXVXxXVXnXwXe.n.b.j 8 i &.*.9 U $.%.%.$.T q * k.VXVXVXVXVXVXVXVXVXVXZXVXZXVXxX-X2.1.2.2.$XVXVXBXVXxXVXxX",
"xXVXVXVXVXVXVXVXVXVXVXVXVXxXVXxXVXzXb.6X0.: 8 q ` _ 9 $.%.3.oX3.o.$ * v eXVXVXVXVXVXVXVXVXZXVXZXVXvX;X6.1.1.2.2.+XVXBXVXVXVXxXVX",
"VXVXVXVXVXVXVXVXVXVXVXVXVXVXxXVXxXBXF.b.k + 7 q ! ) q $.oXoX:.oXo.O * * k.MXVXVXVXVXVXVXVXVXxXVXaXOX6.1.1.1.2.2.OXVXVXBXVXxXVXxX",
"xXVXVXVXVXVXVXVXVXVXVXVXVXxXVXxXVXzXd.i.f o : 8 p ^ i ^ &.` ^ ` p = * * n zXVXVXVXVXVXVXVXxXVXbXOX>.>.1.2.2.1.>.+XVXVXVXVXVXxXVX",
"VXxXVXVXVXVXVXVXVXVXVXVXBXVXxXVXVXwXb i.f   # 7 q ! p 9 q w p a < = * s C rXVXVXVXVXVXVXbXVXBXfX,.>.2.6.7.6.<.<.-XVXVXVXVXxXVXxX",
"xXVXxXVXVXVXVXVXVXVXVXVXVXMXVXZXVXjXu.l.z o . & 7 t K 9 % < t e , * * m !.VXVXVXVXVXVXVXVXxXVXoX>.<.7.7.OX7.<.,.aXVXVXVXVXVXxXVX",
"VXxXVXVXVXVXVXVXVXVXVXVXVXVXVXMX9X2XV.Q.y.* O # % 7 9 t t 9 w % o * m !.VXVXVXVXVXVXVXVXVXVXvX5.>.7.OX=X=XOX<.<.=XVXVXVXVXVXVXxX",
"xXVXxXVXVXVXVXVXVXVXVXVXVXNXlX4X2X3X3X:Xc.n j : 8 9 9 p ~ ) u $ # - I.@XrXVXVXVXVXVXVXVXVXBXfX,.>.7.+XsXsX=X7.,.=XVXVXVXVXVXxXVX",
"VXxXVXVXVXVXVXVXVXVXVXVXkX9X3X3X3X3X4X4X:Xb.n.!.0X.X! K ) _ e < % q @X`.W.eXBXVXVXVXVXVXVXVXaX,.>.1.7.;XgXsX=XOX$XvXVXVXVXxXVXxX",
"xXVXxXVXBXVXVXVXVXVXkXF.V.1X5X5X3X3X2X4X4XG.C.d.!.CXE.K { L 3 3 < 9 [.@Xc.c.>XzXVXVXVXVXVXBXnX3.X.X.1.=XgXsX;X+X3.#XvXVXVXVXxXVX",
"VXxXVXVXVXVXVXVXVXVX>Xq.9.e.C.2X2X2X1X1X1XG.G.S.s.7XuXp r r r 5 4 2 V *XW.v.c.n.wXVXVXVXVXVXMXaX1.X.X.7.+X+X+X4.3.#XbXBXVXVXVXxX",
"xXVXVXVXVXVXVXVXVXNX9X1XV.e.8.f.H.:X1X:X:XG.S.S.N.c.cX( 5 J J J 5 9 y *X^.~.Q.n.>XVXVXVXVXVXVXBXsX2.......1.>.4.#XuXVXVXVXVXxXVX",
"VXxXVXVXVXVXVXVXVXlX3X2X1XD.t.c s.S.H.G.H.S.V.C.C.d.wXE.G I I J H e 7 @X/.!.!.~.i.8XxXVXVXVXVXVXbX-XOX7.7.5.;.|.iXVXVXVXVXVXVXxX",
"xXVXVXVXVXVXVXMX9X3X2X1X1X1XZ.e.c z.Z.S.S.Z.B.N.N.d.n.qXu I I I J e < E./.!.(.!.0.x.!.kXCXvXgXfXaX$X$X$X#X}.{.iXVXVXVXVXVXVXxXVX",
"VXxXVXVXVXVXkX>XS.S.Z.K.B.B.B.z.c q.B.V.V.V.N.z.z.z.i.rXB W I Y J e < @./.W.!.v.n v.a.E.$X$X$X&X&X#X X'.'.XXuXVXVXVXVXVXVXVXVXxX",
"xXVXVXVXVXzX^.Y.Y.j.y.u.M.s.s.f.9.l g.M.N.N.N.N.N.N.u.7X+.5 J I J 4 w A @Xa.W.p.n y.F -.oXoXoX#X#X].&..XcXnXVXVXVXVXVXVXVXVXVXVX",
"VXVXVXVXVXuX*XpXyX&X.Xj.r.e.9.9.c g w.f.f.z.z.C.C.V.s.~.@Xe H J H 4 9 N @Xa.p.n b C ] -.;. X X].&.#.iXVXVXVXVXVXVXVXVXVXVXVXVXxX",
"xXVXVXVXVXvXdXdXdXdXpX&XI.9.8.c l g c t.t.f.z.C.Z.S.z.x.uXi G H H 4 9 y @Xl.y.k j / *.=.-.=.*._ [ uXVXVXVXVXVXVXVXVXVXVXVXVXVXVX",
"VXVXVXVXVXvXpXdXdXdXdXpXyXU.l l g s k w.w.g.z.V.H.H.V.s.zXV 5 H H r 9 : E.W.k d q ` &.*.&.] / [ tXVXVXVXVXVXVXVXVXVXVXVXVXVXVXxX",
"xXVXVXVXVXvX&XyXdXdXdXdXdXiXk.m * * b q.e.z.z.V.G.G.H.s.wX+.6 H J H 9 7 D (.g - q ! ` ` ~ ! T.hXVXVXVXVXVXVXVXVXVXVXVXVXVXVXVXVX",
"VXVXVXVXVXbX%X#X&XyXpXpXpXpXyXqXD ' S n e.b.m.C.G.:X:Xs.!.R.< 4 u u 2 7 M 0Xv.(.Y.' ' ' ' .XxXVXVXVXVXVXVXVXVXVXVXVXVXVXVXVXVXxX",
"xXVXVXVXVXVXfXXX|.#X%XyXyXyXyXyX&X%X#XR.a.b.C.C.:X:X:Xd.x.qX7 2 2 < % # O._.wXCXVXxXcXcXxXVXVXVXVXVXVXVXVXVXVXVXVXVXVXVXVXVXVXVX",
"VXVXVXVXVXVXVXfX{.].{.XX#X%X&X&X&X%X#X#X{.j.e.s.b.m.b.w.C qXN < 3 a a T :.l.eXVXVXVXVXVXVXVXVXVXVXVXVXVXVXVXVXVXVXVXVXVXVXVXVXxX",
"xXVXVXVXVXVXVXVXvX*X{.]. X|.XX#X#XXX|.}.].] M C v b b k f F ^ } } } }  .%.#.AXVXVXVXVXVXVXVXVXVXVXVXVXVXVXVXVXVXVXVXVXVXVXVXVXVX",
"VXVXVXVXVXVXVXVXVXVXcX*X{.]. X|.}.].=.*.&.) K ` _ _ ` ` ) L Q  .P u 4 u $.#.nXVXVXVXVXVXVXVXVXVXVXVXVXVXVXVXVXVXVXVXVXVXVXVXVXxX",
"xXVXVXVXVXVXVXVXVXVXVXVXbXuX[.&.&.] ] _ ` ! r P E ` ` Q Q U R | U { r 4 $.#.xXVXVXVXVXVXVXVXVXVXVXVXVXVXVXVXVXVXVXVXVXVXVXVXVXVX",
"VXVXVXVXVXVXVXVXVXVXVXVXVXVXcX.X/ ! ~ / ! 9 9 w H U P e E Y R | U ) K 4 $.#.VXVXVXVXVXVXVXVXVXVXVXVXVXVXVXVXVXVXVXVXVXVXVXVXVXxX",
"VXVXVXVXVXVXVXVXVXVXVXVXVXZXVXxX/.( B B q % w e H P L L U P R Q L L K e R +.VXVXVXVXVXVXVXVXVXVXVXVXVXVXVXVXVXVXVXVXVXVXVXVXVXVX",
"VXVXVXVXVXVXVXVXVXVXVXVXVXVXVXVXVXcXI.j d - : 7 9 e u K K u R | K K p P $./.VXVXVXVXVXVXVXVXVXVXVXVXVXVXVXVXVXVXVXVXVXVXVXVXVXVX",
"VXVXVXVXVXVXVXVXVXVXVXVXVXVXVXVXVXVX6X9.8.c l f d d d - 0 i E } $.$.$.` +.zXVXVXVXVXVXVXVXVXVXVXVXVXVXVXVXVXVXVXVXVXVXVXVXVXVXVX",
"VXVXVXVXVXVXVXVXVXVXVXVXVXVXVXVXVXMXb.t.t.e.e.q.9.9.q.l p.I.9 3 e 3 < % a.eXVXVXVXVXVXVXVXVXVXVXVXVXVXVXVXVXVXVXVXVXVXVXVXVXVXVX",
"VXVXVXVXVXVXVXVXVXVXVXVXVXVXVXVXVXzXz.f.s.f.f.f.f.t.z.t.Q.@X;       X X Z ,XVXVXVXVXVXVXVXVXVXVXVXVXVXVXVXVXVXVXVXVXVXVXVXVXVXVX",
"VXVXVXVXVXVXVXVXVXVXVXVXVXVXVXVXVXjXM.g.f.M.B.M.f.g.M.g.<X).: X # X O   F Q.MXVXVXVXVXVXVXVXVXVXVXVXVXVXVXVXVXVXVXVXVXVXVXVXVXVX",
"VXVXVXVXVXVXVXVXVXVXVXVXVXVXVXVXVX9XM.M.M.A.Z.M.f.z.B.z.eX^.: $ $ # O   A l.jXVXVXVXVXVXVXVXVXVXVXVXVXVXVXVXVXVXVXVXVXVXVXVXVXVX",
"VXVXVXVXVXVXVXVXVXVXVXVXVXVXVXVXVX,XB.Z.Z.Z.Z.M.z.M.A.z.zXP.< < < $ O   L.i.>XVXVXVXVXVXVXVXVXVXVXVXVXVXVXVXVXVXVXVXVXVXVXVXVXVX",
"VXVXVXVXVXVXVXVXVXVXVXVXVXVXVXVXMXJ.A.Z.D.H.B.M.M.B.B.x.cXA < 2 2 % O . R.a.u.NXVXVXVXVXVXVXVXVXVXVXVXVXVXVXVXVXVXVXVXVXVXVXVXVX",
"VXVXVXVXVXVXVXVXVXVXVXVXVXVXVXVXNXm.M.Z.H.G.Z.B.A.Z.g.Q.rXM < 1 1 % O   R.l.c 7XVXVXVXVXVXVXVXVXVXVXVXVXVXVXVXVXVXVXVXVXVXVXVXVX",
"VXVXVXVXVXVXVXVXVXVXVXVXVXVXVXVXVXzXm.z.B.G.D.Z.Z.Z.s.8X).8 < 1 1 % .   Y.k.y.eXVXVXVXVXVXVXVXVXVXVXVXVXVXVXVXVXVXVXVXVXVXVXVXVX",
"VXVXVXVXVXVXVXVXVXVXVXVXVXVXVXVXVXeXeXjX,XJ.V.B.V.M.i.zXO.% 2 1 2 % .   P.rXrXcXVXVXVXVXVXVXVXVXVXVXVXVXVXVXVXVXVXVXVXVXVXVXVXVX",
"VXVXVXVXVXVXVXVXVXVXVXVXVXVXVXVXVXQ.h a.0XzXjX6Xf.q.W.rXN % 2 1 2 %     D ^.AXVXVXVXVXVXVXVXVXVXVXVXVXVXVXVXVXVXVXVXVXVXVXVXVXVX",
"VXVXVXVXVXVXVXVXVXVXVXVXVXVXVXVXVX~.s * - M U.tXeXW.0X).y < 2 1 2 $     @ ; tXVXVXVXVXVXVXVXVXVXVXVXVXVXVXVXVXVXVXVXVXVXVXVXVXVX",
"VXVXVXVXVXVXVXVXVXVXVXVXVXVXVXVXwXm * * * * o ; I.rXtXqXN % 2 1 2 #   o o M cXVXVXVXVXVXVXVXVXVXVXVXVXVXVXVXVXVXVXVXVXVXVXVXVXVX",
"VXVXVXVXVXVXVXVXVXVXVXVXVXVXVXVXeXv g * * * = o ^.xXcXrXM % < 2 < #   + C (.VXVXVXVXVXVXVXVXVXVXVXVXVXVXVXVXVXVXVXVXVXVXVXVXVXVX",
"VXVXVXVXVXVXVXVXVXVXVXVXVXVXVXVXVXI.d * * * - F rXVXVXtXM : % $ # # ; : R.VXVXVXVXVXVXVXVXVXVXVXVXVXVXVXVXVXVXVXVXVXVXVXVXVXVXVX",
"VXVXVXVXVXVXVXVXVXVXVXVXVXVXVXVXVXcXM , @ ; (.BXVXVXVXcX).).P.+ O + # # : ' rXVXZXVXVXVXVXVXVXVXVXVXVXVXVXVXVXVXVXVXVXVXVXVXVXVX",
"VXVXVXVXVXVXVXVXVXVXVXVXVXVXVXVXVXrX' N : M cXVXVXVXVXVXVXCX/.+ + + + + ; > D Y.R.rXVXVXVXVXVXVXVXVXVXVXVXVXVXVXVXVXVXVXVXVXVXVX",
"VXVXVXVXVXVXVXVXVXVXVXVXVXVXVXVXcXL.y 0 > > tXVXVXVXVXVXVXrXF X X X + + : N V ' O.tXVXVXVXVXVXVXVXVXVXVXVXVXVXVXVXVXVXVXVXVXVXVX",
"VXVXVXVXVXVXVXVXVXVXVXVXVXVXVXtXA 0 > : # + ^.xXcXVXVXVXVXrXM ; # + + + y V A +.0XVXVXVXVXVXVXVXVXVXVXVXVXVXVXVXVXVXVXVXVXVXVXVX",
"VXVXVXVXVXVXVXVXVXVXVXVXVXVXrXY.A 0 : # . . M D L.cXVXVXVXVX0XU.S S S U./.E.).cXVXVXVXVXVXVXVXVXVXVXVXVXVXVXVXVXVXVXVXVXVXVXVXVX",
"VXVXVXVXVXVXVXVXVXVXVXVXVXxXO.N V M & . . X > F P.xXVXVXVXVXVXVXVXVXVXVXVXVXVXVXVXVXVXVXVXVXVXVXVXVXVXVXVXVXVXVXVXVXVXVXVXVXVXVX",
"VXVXVXVXVXVXVXVXVXVXVXVXVXVXS O + & X X y L.).tXcXVXVXVXVXVXVXVXVXVXVXVXVXVXVXVXVXVXVXVXVXVXVXVXVXVXVXVXVXVXVXVXVXVXVXVXVXVXVXVX",
"VXVXVXVXVXVXVXVXVXVXVXVXVXVXrXO.M M M I.rXVXVXVXVXVXVXVXVXVXVXVXVXVXVXVXVXVXVXVXVXVXVXVXVXVXVXVXVXVXVXVXVXVXVXVXVXVXVXVXVXVXVXVX"
};
